(RS-274 Compatible G-code generated for UCCNC controller and Stepcraft 2 Mill)
(Created by in EagleCAD with the stepcraft.ulp 0.1.)
(File: "ds3231M-breakout.brd" created on: 3/7/16 12:43 PM)
(Use a V Bit)

G90 G94 G49
G21
G00 Z5
G00 X0Y0
S19500 M03
G04 P4000
G00 Z1.000
G00 X17.780Y27.305
G01 Z-0.070 F500
G01 X17.780Y21.590 F1500
G00 Z1.000
G00 X15.240Y26.035
G01 Z-0.070 F500
G01 X15.240Y21.590 F1500
G00 Z1.000
G00 X12.700Y26.035
G01 Z-0.070 F500
G01 X15.240Y26.035 F1500
G00 Z1.000
G00 X12.700Y26.035
G01 Z-0.070 F500
G01 X10.160Y26.035 F1500
G01 X10.160Y21.590 F1500
G00 Z1.000
G00 X20.320Y26.670
G01 Z-0.070 F500
G01 X20.320Y21.590 F1500
G00 Z1.000
G00 X10.795Y20.955
G01 Z-0.070 F500
G01 X10.795Y11.430 F1500
G01 X15.240Y11.430 F1500
G01 X15.240Y15.875 F1500
G01 X13.970Y15.875 F1500
G01 X13.970Y12.700 F1500
G01 X12.700Y12.700 F1500
G01 X12.700Y26.035 F1500
G00 Z1.000
G00 X15.240Y15.875
G01 Z-0.070 F500
G01 X16.510Y15.875 F1500
G01 X16.510Y12.700 F1500
G00 Z1.000
G00 X13.970Y6.985
G01 Z-0.070 F500
G01 X13.970Y10.160 F1500
G01 X12.700Y10.160 F1500
G01 X12.700Y6.985 F1500
G01 X13.970Y6.985 F1500
G00 Z1.000
G00 X15.240Y10.160
G01 Z-0.070 F500
G01 X15.240Y6.985 F1500
G01 X16.510Y6.985 F1500
G01 X16.510Y10.160 F1500
G01 X15.240Y10.160 F1500
G00 Z1.000
G00 X16.510Y10.160
G01 Z-0.070 F500
G01 X17.780Y10.160 F1500
G01 X17.780Y6.985 F1500
G01 X16.510Y6.985 F1500
G00 Z1.000
G00 X13.970Y6.985
G01 Z-0.070 F500
G01 X15.240Y6.985 F1500
G00 Z1.000
G00 X15.240Y10.160
G01 Z-0.070 F500
G01 X15.240Y11.430 F1500
G00 Z1.000
G00 X12.700Y10.160
G01 Z-0.070 F500
G01 X8.890Y10.160 F1500
G01 X8.890Y27.305 F1500
G01 X17.780Y27.305 F1500
G00 Z1.000
G00 X10.795Y20.955
G01 Z-0.070 F500
G01 X10.160Y21.590 F1500
G00 Z1.000
G00 X15.240Y21.590
G01 Z-0.070 F500
G01 X13.970Y20.320 F1500
G01 X13.970Y19.685 F1500
G01 X13.970Y18.415 F1500
G01 X13.970Y15.875 F1500
G00 Z1.000
G00 X16.510Y15.875
G01 Z-0.070 F500
G01 X16.510Y16.510 F1500
G01 X16.510Y17.780 F1500
G01 X16.510Y20.320 F1500
G01 X17.780Y21.590 F1500
G00 Z1.000
G00 X16.510Y17.780
G01 Z-0.070 F500
G01 X17.145Y17.780 F1500
G00 Z1.000
G00 X13.970Y18.415
G01 Z-0.070 F500
G01 X14.605Y18.415 F1500
G00 Z1.000
G00 X16.510Y12.700
G01 Z-0.070 F500
G01 X27.940Y12.700 F1500
G01 X27.940Y5.080 F1500
G01 X23.495Y5.080 F1500
G01 X23.495Y11.430 F1500
G01 X15.240Y11.430 F1500
G00 Z1.000
G00 X2.540Y12.700
G01 Z-0.070 F500
G01 X6.985Y12.700 F1500
G01 X6.985Y5.080 F1500
G01 X2.540Y5.080 F1500
G01 X2.540Y12.700 F1500
G00 Z1.000
G00 X10.160Y17.145
G01 Z-0.070 F500
G01 X11.430Y17.145 F1500
G00 Z1.000
G00 X10.160Y15.875
G01 Z-0.070 F500
G01 X11.430Y15.875 F1500
G00 Z1.000
G00 X17.780Y15.240
G01 Z-0.070 F500
G01 X17.780Y13.970 F1500
G00 Z1.000
G00 X17.145Y16.510
G01 Z-0.070 F500
G01 X16.510Y16.510 F1500
G00 Z1.000
G00 X13.970Y19.685
G01 Z-0.070 F500
G01 X14.605Y19.685 F1500
G00 Z1.000
G00 X16.510Y17.780
G01 Z-0.070 F500
G01 X15.875Y17.780 F1500
G00 Z1.000
G00 X16.510Y16.510
G01 Z-0.070 F500
G01 X15.875Y16.510 F1500
G00 Z1.000
G00 X13.970Y19.685
G01 Z-0.070 F500
G01 X13.335Y19.685 F1500
G00 Z1.000
G00 X13.970Y18.415
G01 Z-0.070 F500
G01 X13.335Y18.415 F1500
