(RS-274 Compatible G-code generated for UCCNC controller and Stepcraft 2 Mill)
(Created by in EagleCAD with the stepcraft.ulp 0.2.)
(File: "receiver_shield.brd" created on: 3/28/16 10:39 AM)
(Use a V Bit)

G90 G94 G49
G21
G00 Z5
G00 X0Y0
S19500 M03
G04 P4000
(-->next line out of position. Retracting, and repositioning)
G00 Z4.000
G00 X15.558Y40.481
(-->Plunging, then Cutting Line)
G01 Z-0.070 F500
G01 X15.558Y37.433 F1500
(-->next line out of position. Retracting, and repositioning)
G00 Z4.000
G00 X16.828Y40.227
(-->Plunging, then Cutting Line)
G01 Z-0.070 F500
G01 X16.828Y37.433 F1500
(-->next line out of position. Retracting, and repositioning)
G00 Z4.000
G00 X18.098Y39.973
(-->Plunging, then Cutting Line)
G01 Z-0.070 F500
G01 X18.098Y37.433 F1500
(-->next line out of position. Retracting, and repositioning)
G00 Z4.000
G00 X19.367Y39.973
(-->Plunging, then Cutting Line)
G01 Z-0.070 F500
G01 X19.367Y37.433 F1500
(-->next line out of position. Retracting, and repositioning)
G00 Z4.000
G00 X14.288Y33.877
(-->Plunging, then Cutting Line)
G01 Z-0.070 F500
G01 X14.288Y30.829 F1500
(-->next line out of position. Retracting, and repositioning)
G00 Z4.000
G00 X15.558Y33.877
(-->Plunging, then Cutting Line)
G01 Z-0.070 F500
G01 X15.558Y30.829 F1500
(-->next line out of position. Retracting, and repositioning)
G00 Z4.000
G00 X16.828Y33.877
(-->Plunging, then Cutting Line)
G01 Z-0.070 F500
G01 X16.828Y30.829 F1500
(-->next line out of position. Retracting, and repositioning)
G00 Z4.000
G00 X18.098Y33.877
(-->Plunging, then Cutting Line)
G01 Z-0.070 F500
G01 X18.098Y30.829 F1500
(-->next line out of position. Retracting, and repositioning)
G00 Z4.000
G00 X19.367Y33.877
(-->Plunging, then Cutting Line)
G01 Z-0.070 F500
G01 X19.367Y30.829 F1500
(-->next line out of position. Retracting, and repositioning)
G00 Z4.000
G00 X19.367Y33.877
(-->Plunging, then Cutting Line)
G01 Z-0.070 F500
G01 X16.828Y33.877 F1500
(-->next line out of position. Retracting, and repositioning)
G00 Z4.000
G00 X16.828Y30.829
(-->Plunging, then Cutting Line)
G01 Z-0.070 F500
G01 X19.367Y30.829 F1500
(-->next line out of position. Retracting, and repositioning)
G00 Z4.000
G00 X15.558Y30.829
(-->Plunging, then Cutting Line)
G01 Z-0.070 F500
G01 X14.288Y30.829 F1500
(-->next line out of position. Retracting, and repositioning)
G00 Z4.000
G00 X14.288Y33.877
(-->Plunging, then Cutting Line)
G01 Z-0.070 F500
G01 X15.558Y33.877 F1500
(-->next line out of position. Retracting, and repositioning)
G00 Z4.000
G00 X15.558Y37.433
(-->Plunging, then Cutting Line)
G01 Z-0.070 F500
G01 X12.256Y37.433 F1500
(-->Cutting Line)
G01 X12.256Y35.655 F1500
(-->Cutting Line)
G01 X10.478Y35.655 F1500
(-->Cutting Line)
G01 X10.478Y37.687 F1500
(-->Cutting Line)
G01 X11.240Y38.449 F1500
(-->Cutting Line)
G01 X13.526Y38.449 F1500
(-->Cutting Line)
G01 X14.288Y39.211 F1500
(-->Cutting Line)
G01 X14.288Y40.735 F1500
(-->Cutting Line)
G01 X15.812Y42.259 F1500
(-->next line out of position. Retracting, and repositioning)
G00 Z4.000
G00 X12.256Y35.655
(-->Plunging, then Cutting Line)
G01 Z-0.070 F500
G01 X13.780Y35.655 F1500
(-->Cutting Line)
G01 X13.780Y36.417 F1500
(-->Cutting Line)
G01 X15.812Y36.417 F1500
(-->Cutting Line)
G01 X16.828Y37.433 F1500
(-->next line out of position. Retracting, and repositioning)
G00 Z4.000
G00 X18.098Y37.433
(-->Plunging, then Cutting Line)
G01 Z-0.070 F500
G01 X16.828Y37.433 F1500
(-->next line out of position. Retracting, and repositioning)
G00 Z4.000
G00 X16.828Y40.227
(-->Plunging, then Cutting Line)
G01 Z-0.070 F500
G01 X17.335Y40.735 F1500
(-->Cutting Line)
G01 X19.876Y40.735 F1500
(-->Cutting Line)
G01 X19.876Y41.497 F1500
(-->Cutting Line)
G01 X23.431Y41.497 F1500
(-->Cutting Line)
G01 X23.431Y34.639 F1500
(-->Cutting Line)
G01 X19.876Y34.639 F1500
(-->Cutting Line)
G01 X19.876Y36.925 F1500
(-->Cutting Line)
G01 X19.367Y37.433 F1500
(-->next line out of position. Retracting, and repositioning)
G00 Z4.000
G00 X19.367Y39.973
(-->Plunging, then Cutting Line)
G01 Z-0.070 F500
G01 X18.098Y39.973 F1500
(-->next line out of position. Retracting, and repositioning)
G00 Z4.000
G00 X15.812Y42.259
(-->Plunging, then Cutting Line)
G01 Z-0.070 F500
G01 X17.844Y42.259 F1500
(-->Cutting Line)
G01 X18.860Y43.275 F1500
(-->Cutting Line)
G01 X19.367Y43.275 F1500
(-->Cutting Line)
G01 X19.367Y46.323 F1500
(-->Cutting Line)
G01 X20.892Y46.323 F1500
(-->Cutting Line)
G01 X20.892Y42.513 F1500
(-->Cutting Line)
G01 X19.367Y42.513 F1500
(-->Cutting Line)
G01 X18.352Y41.497 F1500
(-->Cutting Line)
G01 X16.573Y41.497 F1500
(-->Cutting Line)
G01 X15.558Y40.481 F1500
(-->next line out of position. Retracting, and repositioning)
G00 Z4.000
G00 X23.431Y41.497
(-->Plunging, then Cutting Line)
G01 Z-0.070 F500
G01 X24.448Y41.497 F1500
(-->Cutting Line)
G01 X25.972Y43.021 F1500
(-->Cutting Line)
G01 X25.972Y46.323 F1500
(-->Cutting Line)
G01 X24.448Y46.323 F1500
(-->Cutting Line)
G01 X24.448Y43.529 F1500
(-->Cutting Line)
G01 X24.448Y43.021 F1500
(-->Cutting Line)
G01 X23.940Y42.513 F1500
(-->Cutting Line)
G01 X20.892Y42.513 F1500
(-->next line out of position. Retracting, and repositioning)
G00 Z4.000
G00 X29.527Y46.323
(-->Plunging, then Cutting Line)
G01 Z-0.070 F500
G01 X31.052Y46.323 F1500
(-->next line out of position. Retracting, and repositioning)
G00 Z4.000
G00 X34.608Y43.529
(-->Plunging, then Cutting Line)
G01 Z-0.070 F500
G01 X34.608Y46.323 F1500
(-->Cutting Line)
G01 X36.132Y46.323 F1500
(-->Cutting Line)
G01 X36.132Y43.021 F1500
(-->next line out of position. Retracting, and repositioning)
G00 Z4.000
G00 X39.688Y43.529
(-->Plunging, then Cutting Line)
G01 Z-0.070 F500
G01 X39.688Y46.323 F1500
(-->Cutting Line)
G01 X41.212Y46.323 F1500
(-->Cutting Line)
G01 X41.212Y42.513 F1500
(-->next line out of position. Retracting, and repositioning)
G00 Z4.000
G00 X44.768Y43.021
(-->Plunging, then Cutting Line)
G01 Z-0.070 F500
G01 X44.768Y46.323 F1500
(-->Cutting Line)
G01 X45.529Y46.323 F1500
(-->Cutting Line)
G01 X46.291Y46.323 F1500
(-->Cutting Line)
G01 X46.291Y43.021 F1500
(-->next line out of position. Retracting, and repositioning)
G00 Z4.000
G00 X29.527Y43.529
(-->Plunging, then Cutting Line)
G01 Z-0.070 F500
G01 X29.527Y46.323 F1500
(-->next line out of position. Retracting, and repositioning)
G00 Z4.000
G00 X24.448Y43.529
(-->Plunging, then Cutting Line)
G01 Z-0.070 F500
G01 X22.924Y43.529 F1500
(-->Cutting Line)
G01 X22.924Y46.323 F1500
(-->next line out of position. Retracting, and repositioning)
G00 Z4.000
G00 X29.527Y43.529
(-->Plunging, then Cutting Line)
G01 Z-0.070 F500
G01 X28.004Y43.529 F1500
(-->Cutting Line)
G01 X28.004Y46.323 F1500
(-->Cutting Line)
G01 X25.972Y46.323 F1500
(-->next line out of position. Retracting, and repositioning)
G00 Z4.000
G00 X34.608Y43.529
(-->Plunging, then Cutting Line)
G01 Z-0.070 F500
G01 X33.084Y43.529 F1500
(-->Cutting Line)
G01 X33.084Y46.323 F1500
(-->Cutting Line)
G01 X31.052Y46.323 F1500
(-->next line out of position. Retracting, and repositioning)
G00 Z4.000
G00 X39.688Y43.529
(-->Plunging, then Cutting Line)
G01 Z-0.070 F500
G01 X38.163Y43.529 F1500
(-->Cutting Line)
G01 X38.163Y46.323 F1500
(-->Cutting Line)
G01 X36.132Y46.323 F1500
(-->next line out of position. Retracting, and repositioning)
G00 Z4.000
G00 X31.052Y46.323
(-->Plunging, then Cutting Line)
G01 Z-0.070 F500
G01 X31.052Y26.003 F1500
(-->Cutting Line)
G01 X32.068Y24.987 F1500
(-->Cutting Line)
G01 X32.068Y21.177 F1500
(-->Cutting Line)
G01 X34.099Y19.145 F1500
(-->Cutting Line)
G01 X54.419Y19.145 F1500
(-->Cutting Line)
G01 X55.944Y17.621 F1500
(-->Cutting Line)
G01 X55.944Y14.573 F1500
(-->Cutting Line)
G01 X57.976Y14.573 F1500
(-->Cutting Line)
G01 X57.976Y17.875 F1500
(-->Cutting Line)
G01 X55.944Y19.907 F1500
(-->Cutting Line)
G01 X36.894Y19.907 F1500
(-->Cutting Line)
G01 X34.608Y22.193 F1500
(-->Cutting Line)
G01 X34.608Y41.497 F1500
(-->Cutting Line)
G01 X36.132Y43.021 F1500
(-->next line out of position. Retracting, and repositioning)
G00 Z4.000
G00 X41.212Y42.513
(-->Plunging, then Cutting Line)
G01 Z-0.070 F500
G01 X37.148Y38.449 F1500
(-->Cutting Line)
G01 X37.148Y27.273 F1500
(-->Cutting Line)
G01 X37.148Y21.685 F1500
(-->Cutting Line)
G01 X38.163Y20.669 F1500
(-->Cutting Line)
G01 X39.688Y20.669 F1500
(-->Cutting Line)
G01 X56.960Y20.669 F1500
(-->Cutting Line)
G01 X60.008Y17.621 F1500
(-->Cutting Line)
G01 X60.008Y14.573 F1500
(-->Cutting Line)
G01 X57.976Y14.573 F1500
(-->next line out of position. Retracting, and repositioning)
G00 Z4.000
G00 X55.944Y14.573
(-->Plunging, then Cutting Line)
G01 Z-0.070 F500
G01 X53.912Y14.573 F1500
(-->Cutting Line)
G01 X53.912Y17.367 F1500
(-->Cutting Line)
G01 X53.150Y18.129 F1500
(-->Cutting Line)
G01 X51.880Y18.129 F1500
(-->Cutting Line)
G01 X49.848Y18.129 F1500
(-->Cutting Line)
G01 X33.084Y18.129 F1500
(-->Cutting Line)
G01 X29.527Y21.685 F1500
(-->Cutting Line)
G01 X29.527Y27.273 F1500
(-->Cutting Line)
G01 X29.527Y29.813 F1500
(-->Cutting Line)
G01 X29.527Y43.529 F1500
(-->next line out of position. Retracting, and repositioning)
G00 Z4.000
G00 X49.848Y18.129
(-->Plunging, then Cutting Line)
G01 Z-0.070 F500
G01 X49.848Y14.065 F1500
(-->Cutting Line)
G01 X49.340Y13.557 F1500
(-->Cutting Line)
G01 X49.340Y11.779 F1500
(-->Cutting Line)
G01 X49.594Y11.525 F1500
(-->Cutting Line)
G01 X51.880Y11.525 F1500
(-->Cutting Line)
G01 X52.388Y12.033 F1500
(-->Cutting Line)
G01 X52.388Y14.065 F1500
(-->Cutting Line)
G01 X51.880Y14.573 F1500
(-->Cutting Line)
G01 X51.880Y18.129 F1500
(-->next line out of position. Retracting, and repositioning)
G00 Z4.000
G00 X60.008Y14.573
(-->Plunging, then Cutting Line)
G01 Z-0.070 F500
G01 X62.040Y14.573 F1500
(-->Cutting Line)
G01 X62.040Y18.383 F1500
(-->Cutting Line)
G01 X53.150Y27.273 F1500
(-->Cutting Line)
G01 X53.150Y34.893 F1500
(-->Cutting Line)
G01 X49.848Y38.195 F1500
(-->Cutting Line)
G01 X46.546Y38.195 F1500
(-->Cutting Line)
G01 X46.038Y38.703 F1500
(-->Cutting Line)
G01 X46.038Y42.767 F1500
(-->Cutting Line)
G01 X46.291Y43.021 F1500
(-->next line out of position. Retracting, and repositioning)
G00 Z4.000
G00 X44.768Y43.021
(-->Plunging, then Cutting Line)
G01 Z-0.070 F500
G01 X45.022Y42.767 F1500
(-->Cutting Line)
G01 X45.022Y38.195 F1500
(-->Cutting Line)
G01 X46.038Y37.179 F1500
(-->Cutting Line)
G01 X49.594Y37.179 F1500
(-->Cutting Line)
G01 X49.848Y36.925 F1500
(-->Cutting Line)
G01 X51.880Y34.893 F1500
(-->Cutting Line)
G01 X51.880Y25.749 F1500
(-->Cutting Line)
G01 X56.960Y20.669 F1500
(-->next line out of position. Retracting, and repositioning)
G00 Z4.000
G00 X49.848Y36.925
(-->Plunging, then Cutting Line)
G01 Z-0.070 F500
G01 X49.848Y34.385 F1500
(-->next line out of position. Retracting, and repositioning)
G00 Z4.000
G00 X47.816Y35.401
(-->Plunging, then Cutting Line)
G01 Z-0.070 F500
G01 X45.022Y35.401 F1500
(-->Cutting Line)
G01 X44.260Y36.163 F1500
(-->Cutting Line)
G01 X44.260Y41.243 F1500
(-->Cutting Line)
G01 X44.260Y42.259 F1500
(-->Cutting Line)
G01 X43.244Y43.275 F1500
(-->Cutting Line)
G01 X43.244Y46.323 F1500
(-->Cutting Line)
G01 X41.212Y46.323 F1500
(-->next line out of position. Retracting, and repositioning)
G00 Z4.000
G00 X44.768Y46.323
(-->Plunging, then Cutting Line)
G01 Z-0.070 F500
G01 X43.752Y47.339 F1500
(-->Cutting Line)
G01 X40.450Y47.339 F1500
(-->Cutting Line)
G01 X38.925Y47.339 F1500
(-->Cutting Line)
G01 X35.370Y47.339 F1500
(-->Cutting Line)
G01 X33.846Y47.339 F1500
(-->Cutting Line)
G01 X30.290Y47.339 F1500
(-->Cutting Line)
G01 X28.258Y47.339 F1500
(-->Cutting Line)
G01 X24.956Y47.339 F1500
(-->Cutting Line)
G01 X23.686Y47.339 F1500
(-->Cutting Line)
G01 X20.130Y47.339 F1500
(-->Cutting Line)
G01 X18.605Y47.339 F1500
(-->Cutting Line)
G01 X18.352Y47.339 F1500
(-->Cutting Line)
G01 X17.590Y46.577 F1500
(-->Cutting Line)
G01 X17.590Y44.799 F1500
(-->Cutting Line)
G01 X16.828Y44.799 F1500
(-->Cutting Line)
G01 X13.272Y41.243 F1500
(-->Cutting Line)
G01 X13.272Y39.973 F1500
(-->Cutting Line)
G01 X12.764Y39.465 F1500
(-->Cutting Line)
G01 X10.732Y39.465 F1500
(-->Cutting Line)
G01 X9.207Y37.941 F1500
(-->Cutting Line)
G01 X9.207Y34.893 F1500
(-->Cutting Line)
G01 X10.224Y33.877 F1500
(-->Cutting Line)
G01 X14.288Y33.877 F1500
(-->next line out of position. Retracting, and repositioning)
G00 Z4.000
G00 X16.828Y33.877
(-->Plunging, then Cutting Line)
G01 Z-0.070 F500
G01 X16.828Y35.147 F1500
(-->Cutting Line)
G01 X16.320Y35.655 F1500
(-->Cutting Line)
G01 X13.780Y35.655 F1500
(-->next line out of position. Retracting, and repositioning)
G00 Z4.000
G00 X16.828Y30.829
(-->Plunging, then Cutting Line)
G01 Z-0.070 F500
G01 X16.828Y30.575 F1500
(-->Cutting Line)
G01 X17.844Y29.559 F1500
(-->Cutting Line)
G01 X20.130Y29.559 F1500
(-->Cutting Line)
G01 X20.130Y30.829 F1500
(-->Cutting Line)
G01 X21.654Y30.829 F1500
(-->Cutting Line)
G01 X21.654Y29.559 F1500
(-->Cutting Line)
G01 X24.194Y29.559 F1500
(-->Cutting Line)
G01 X26.988Y26.765 F1500
(-->Cutting Line)
G01 X26.988Y11.525 F1500
(-->Cutting Line)
G01 X29.527Y8.985 F1500
(-->Cutting Line)
G01 X36.132Y8.985 F1500
(-->Cutting Line)
G01 X37.148Y7.969 F1500
(-->Cutting Line)
G01 X38.418Y6.699 F1500
(-->Cutting Line)
G01 X38.418Y3.651 F1500
(-->Cutting Line)
G01 X35.878Y3.651 F1500
(-->Cutting Line)
G01 X35.878Y6.445 F1500
(-->Cutting Line)
G01 X35.116Y7.207 F1500
(-->Cutting Line)
G01 X33.337Y7.207 F1500
(-->Cutting Line)
G01 X30.798Y7.207 F1500
(-->Cutting Line)
G01 X28.766Y7.207 F1500
(-->Cutting Line)
G01 X24.702Y11.271 F1500
(-->Cutting Line)
G01 X24.702Y22.701 F1500
(-->Cutting Line)
G01 X24.448Y22.955 F1500
(-->Cutting Line)
G01 X24.448Y25.241 F1500
(-->Cutting Line)
G01 X24.448Y27.273 F1500
(-->Cutting Line)
G01 X23.431Y28.289 F1500
(-->Cutting Line)
G01 X17.335Y28.289 F1500
(-->Cutting Line)
G01 X15.558Y30.067 F1500
(-->Cutting Line)
G01 X15.558Y30.829 F1500
(-->next line out of position. Retracting, and repositioning)
G00 Z4.000
G00 X24.448Y25.241
(-->Plunging, then Cutting Line)
G01 Z-0.070 F500
G01 X21.908Y25.241 F1500
(-->Cutting Line)
G01 X21.908Y22.701 F1500
(-->Cutting Line)
G01 X24.702Y22.701 F1500
(-->next line out of position. Retracting, and repositioning)
G00 Z4.000
G00 X45.784Y28.035
(-->Plunging, then Cutting Line)
G01 Z-0.070 F500
G01 X45.022Y27.273 F1500
(-->Cutting Line)
G01 X37.148Y27.273 F1500
(-->next line out of position. Retracting, and repositioning)
G00 Z4.000
G00 X47.816Y27.527
(-->Plunging, then Cutting Line)
G01 Z-0.070 F500
G01 X46.038Y25.749 F1500
(-->Cutting Line)
G01 X39.688Y25.749 F1500
(-->Cutting Line)
G01 X39.688Y22.701 F1500
(-->Cutting Line)
G01 X39.688Y20.669 F1500
(-->next line out of position. Retracting, and repositioning)
G00 Z4.000
G00 X47.816Y40.989
(-->Plunging, then Cutting Line)
G01 Z-0.070 F500
G01 X53.658Y46.831 F1500
(-->Cutting Line)
G01 X53.658Y51.911 F1500
(-->Cutting Line)
G01 X53.658Y54.451 F1500
(-->Cutting Line)
G01 X56.198Y54.451 F1500
(-->Cutting Line)
G01 X56.198Y51.911 F1500
(-->Cutting Line)
G01 X56.198Y44.545 F1500
(-->next line out of position. Retracting, and repositioning)
G00 Z4.000
G00 X58.738Y54.451
(-->Plunging, then Cutting Line)
G01 Z-0.070 F500
G01 X61.278Y54.451 F1500
(-->Cutting Line)
G01 X61.278Y51.911 F1500
(-->Cutting Line)
G01 X61.278Y38.195 F1500
(-->Cutting Line)
G01 X62.040Y37.433 F1500
(-->Cutting Line)
G01 X62.040Y34.385 F1500
(-->Cutting Line)
G01 X59.754Y34.385 F1500
(-->Cutting Line)
G01 X59.754Y51.149 F1500
(-->Cutting Line)
G01 X58.992Y51.911 F1500
(-->Cutting Line)
G01 X58.738Y52.165 F1500
(-->Cutting Line)
G01 X58.738Y54.451 F1500
(-->Cutting Line)
G01 X56.198Y54.451 F1500
(-->next line out of position. Retracting, and repositioning)
G00 Z4.000
G00 X53.658Y54.451
(-->Plunging, then Cutting Line)
G01 Z-0.070 F500
G01 X51.117Y54.451 F1500
(-->Cutting Line)
G01 X48.578Y54.451 F1500
(-->Cutting Line)
G01 X46.038Y54.451 F1500
(-->Cutting Line)
G01 X46.038Y51.911 F1500
(-->Cutting Line)
G01 X48.578Y51.911 F1500
(-->Cutting Line)
G01 X51.117Y51.911 F1500
(-->Cutting Line)
G01 X53.658Y51.911 F1500
(-->next line out of position. Retracting, and repositioning)
G00 Z4.000
G00 X51.117Y54.451
(-->Plunging, then Cutting Line)
G01 Z-0.070 F500
G01 X51.117Y51.911 F1500
(-->next line out of position. Retracting, and repositioning)
G00 Z4.000
G00 X48.578Y54.451
(-->Plunging, then Cutting Line)
G01 Z-0.070 F500
G01 X48.578Y51.911 F1500
(-->next line out of position. Retracting, and repositioning)
G00 Z4.000
G00 X61.278Y54.451
(-->Plunging, then Cutting Line)
G01 Z-0.070 F500
G01 X63.818Y54.451 F1500
(-->Cutting Line)
G01 X66.358Y54.451 F1500
(-->Cutting Line)
G01 X66.358Y51.911 F1500
(-->Cutting Line)
G01 X63.818Y51.911 F1500
(-->Cutting Line)
G01 X61.278Y51.911 F1500
(-->next line out of position. Retracting, and repositioning)
G00 Z4.000
G00 X63.818Y54.451
(-->Plunging, then Cutting Line)
G01 Z-0.070 F500
G01 X63.818Y51.911 F1500
(-->next line out of position. Retracting, and repositioning)
G00 Z4.000
G00 X56.198Y51.911
(-->Plunging, then Cutting Line)
G01 Z-0.070 F500
G01 X58.992Y51.911 F1500
(-->next line out of position. Retracting, and repositioning)
G00 Z4.000
G00 X44.514Y54.451
(-->Plunging, then Cutting Line)
G01 Z-0.070 F500
G01 X41.974Y54.451 F1500
(-->Cutting Line)
G01 X39.434Y54.451 F1500
(-->Cutting Line)
G01 X36.894Y54.451 F1500
(-->Cutting Line)
G01 X34.354Y54.451 F1500
(-->Cutting Line)
G01 X31.814Y54.451 F1500
(-->Cutting Line)
G01 X29.274Y54.451 F1500
(-->next line out of position. Retracting, and repositioning)
G00 Z4.000
G00 X26.734Y54.451
(-->Plunging, then Cutting Line)
G01 Z-0.070 F500
G01 X24.194Y54.451 F1500
(-->Cutting Line)
G01 X21.654Y54.451 F1500
(-->Cutting Line)
G01 X19.114Y54.451 F1500
(-->Cutting Line)
G01 X19.114Y52.673 F1500
(-->Cutting Line)
G01 X18.860Y52.419 F1500
(-->Cutting Line)
G01 X18.860Y50.133 F1500
(-->Cutting Line)
G01 X18.098Y50.133 F1500
(-->Cutting Line)
G01 X18.098Y48.609 F1500
(-->Cutting Line)
G01 X18.605Y48.609 F1500
(-->Cutting Line)
G01 X18.605Y47.339 F1500
(-->next line out of position. Retracting, and repositioning)
G00 Z4.000
G00 X20.130Y47.339
(-->Plunging, then Cutting Line)
G01 Z-0.070 F500
G01 X20.130Y48.609 F1500
(-->Cutting Line)
G01 X19.876Y48.609 F1500
(-->Cutting Line)
G01 X19.876Y50.387 F1500
(-->Cutting Line)
G01 X21.654Y52.165 F1500
(-->Cutting Line)
G01 X21.654Y54.451 F1500
(-->next line out of position. Retracting, and repositioning)
G00 Z4.000
G00 X24.194Y54.451
(-->Plunging, then Cutting Line)
G01 Z-0.070 F500
G01 X24.194Y52.419 F1500
(-->Cutting Line)
G01 X24.956Y51.657 F1500
(-->Cutting Line)
G01 X24.956Y50.133 F1500
(-->Cutting Line)
G01 X24.956Y47.339 F1500
(-->next line out of position. Retracting, and repositioning)
G00 Z4.000
G00 X23.686Y47.339
(-->Plunging, then Cutting Line)
G01 Z-0.070 F500
G01 X23.686Y48.609 F1500
(-->Cutting Line)
G01 X23.178Y48.609 F1500
(-->Cutting Line)
G01 X23.178Y51.657 F1500
(-->Cutting Line)
G01 X22.924Y51.911 F1500
(-->Cutting Line)
G01 X21.908Y51.911 F1500
(-->Cutting Line)
G01 X21.654Y52.165 F1500
(-->next line out of position. Retracting, and repositioning)
G00 Z4.000
G00 X28.258Y47.339
(-->Plunging, then Cutting Line)
G01 Z-0.070 F500
G01 X28.258Y50.133 F1500
(-->Cutting Line)
G01 X24.956Y50.133 F1500
(-->next line out of position. Retracting, and repositioning)
G00 Z4.000
G00 X26.734Y54.451
(-->Plunging, then Cutting Line)
G01 Z-0.070 F500
G01 X26.734Y51.911 F1500
(-->Cutting Line)
G01 X25.210Y51.911 F1500
(-->Cutting Line)
G01 X24.956Y51.657 F1500
(-->next line out of position. Retracting, and repositioning)
G00 Z4.000
G00 X29.274Y54.451
(-->Plunging, then Cutting Line)
G01 Z-0.070 F500
G01 X29.274Y51.149 F1500
(-->Cutting Line)
G01 X28.258Y50.133 F1500
(-->next line out of position. Retracting, and repositioning)
G00 Z4.000
G00 X30.290Y47.339
(-->Plunging, then Cutting Line)
G01 Z-0.070 F500
G01 X30.290Y50.387 F1500
(-->Cutting Line)
G01 X31.814Y51.911 F1500
(-->Cutting Line)
G01 X31.814Y54.451 F1500
(-->next line out of position. Retracting, and repositioning)
G00 Z4.000
G00 X34.354Y54.451
(-->Plunging, then Cutting Line)
G01 Z-0.070 F500
G01 X34.354Y52.419 F1500
(-->Cutting Line)
G01 X35.116Y51.657 F1500
(-->Cutting Line)
G01 X35.116Y48.863 F1500
(-->Cutting Line)
G01 X35.370Y48.609 F1500
(-->Cutting Line)
G01 X35.370Y47.339 F1500
(-->next line out of position. Retracting, and repositioning)
G00 Z4.000
G00 X33.846Y47.339
(-->Plunging, then Cutting Line)
G01 Z-0.070 F500
G01 X33.846Y48.609 F1500
(-->Cutting Line)
G01 X33.337Y48.609 F1500
(-->Cutting Line)
G01 X33.337Y51.657 F1500
(-->Cutting Line)
G01 X33.084Y51.911 F1500
(-->Cutting Line)
G01 X31.814Y51.911 F1500
(-->next line out of position. Retracting, and repositioning)
G00 Z4.000
G00 X36.894Y54.451
(-->Plunging, then Cutting Line)
G01 Z-0.070 F500
G01 X36.894Y52.673 F1500
(-->Cutting Line)
G01 X38.163Y51.403 F1500
(-->Cutting Line)
G01 X39.180Y51.403 F1500
(-->Cutting Line)
G01 X39.688Y50.895 F1500
(-->Cutting Line)
G01 X40.196Y50.387 F1500
(-->Cutting Line)
G01 X40.196Y48.863 F1500
(-->Cutting Line)
G01 X40.450Y48.609 F1500
(-->Cutting Line)
G01 X40.450Y47.339 F1500
(-->next line out of position. Retracting, and repositioning)
G00 Z4.000
G00 X38.925Y47.339
(-->Plunging, then Cutting Line)
G01 Z-0.070 F500
G01 X38.925Y48.609 F1500
(-->Cutting Line)
G01 X38.418Y48.609 F1500
(-->Cutting Line)
G01 X38.418Y50.387 F1500
(-->Cutting Line)
G01 X37.656Y50.387 F1500
(-->Cutting Line)
G01 X36.132Y51.911 F1500
(-->Cutting Line)
G01 X35.370Y51.911 F1500
(-->Cutting Line)
G01 X35.116Y51.657 F1500
(-->next line out of position. Retracting, and repositioning)
G00 Z4.000
G00 X39.688Y50.895
(-->Plunging, then Cutting Line)
G01 Z-0.070 F500
G01 X44.006Y50.895 F1500
(-->Cutting Line)
G01 X44.006Y50.133 F1500
(-->Cutting Line)
G01 X43.498Y50.133 F1500
(-->Cutting Line)
G01 X43.498Y48.609 F1500
(-->Cutting Line)
G01 X44.006Y48.609 F1500
(-->Cutting Line)
G01 X44.006Y47.339 F1500
(-->next line out of position. Retracting, and repositioning)
G00 Z4.000
G00 X45.529Y46.323
(-->Plunging, then Cutting Line)
G01 Z-0.070 F500
G01 X45.529Y51.403 F1500
(-->Cutting Line)
G01 X44.768Y52.165 F1500
(-->Cutting Line)
G01 X44.514Y52.165 F1500
(-->Cutting Line)
G01 X41.974Y52.165 F1500
(-->Cutting Line)
G01 X39.434Y52.165 F1500
(-->Cutting Line)
G01 X39.434Y54.451 F1500
(-->next line out of position. Retracting, and repositioning)
G00 Z4.000
G00 X41.974Y54.451
(-->Plunging, then Cutting Line)
G01 Z-0.070 F500
G01 X41.974Y52.165 F1500
(-->next line out of position. Retracting, and repositioning)
G00 Z4.000
G00 X44.514Y54.451
(-->Plunging, then Cutting Line)
G01 Z-0.070 F500
G01 X44.514Y52.165 F1500
(-->next line out of position. Retracting, and repositioning)
G00 Z4.000
G00 X47.816Y40.989
(-->Plunging, then Cutting Line)
G01 Z-0.070 F500
G01 X47.816Y39.465 F1500
(-->Cutting Line)
G01 X51.117Y39.465 F1500
(-->Cutting Line)
G01 X56.198Y44.545 F1500
(-->next line out of position. Retracting, and repositioning)
G00 Z4.000
G00 X47.816Y17.621
(-->Plunging, then Cutting Line)
G01 Z-0.070 F500
G01 X47.816Y14.573 F1500
(-->next line out of position. Retracting, and repositioning)
G00 Z4.000
G00 X37.148Y14.065
(-->Plunging, then Cutting Line)
G01 Z-0.070 F500
G01 X37.148Y7.969 F1500
(-->next line out of position. Retracting, and repositioning)
G00 Z4.000
G00 X37.148Y14.065
(-->Plunging, then Cutting Line)
G01 Z-0.070 F500
G01 X40.958Y14.065 F1500
(-->Cutting Line)
G01 X40.958Y3.651 F1500
(-->Cutting Line)
G01 X38.418Y3.651 F1500
(-->next line out of position. Retracting, and repositioning)
G00 Z4.000
G00 X46.038Y3.651
(-->Plunging, then Cutting Line)
G01 Z-0.070 F500
G01 X48.578Y3.651 F1500
(-->Cutting Line)
G01 X48.578Y6.191 F1500
(-->Cutting Line)
G01 X46.038Y6.191 F1500
(-->Cutting Line)
G01 X46.038Y3.651 F1500
(-->next line out of position. Retracting, and repositioning)
G00 Z4.000
G00 X28.766Y7.207
(-->Plunging, then Cutting Line)
G01 Z-0.070 F500
G01 X28.004Y7.207 F1500
(-->Cutting Line)
G01 X28.004Y3.651 F1500
(-->Cutting Line)
G01 X30.798Y3.651 F1500
(-->Cutting Line)
G01 X33.337Y3.651 F1500
(-->Cutting Line)
G01 X35.878Y3.651 F1500
(-->next line out of position. Retracting, and repositioning)
G00 Z4.000
G00 X33.337Y3.651
(-->Plunging, then Cutting Line)
G01 Z-0.070 F500
G01 X33.337Y7.207 F1500
(-->next line out of position. Retracting, and repositioning)
G00 Z4.000
G00 X30.798Y3.651
(-->Plunging, then Cutting Line)
G01 Z-0.070 F500
G01 X30.798Y7.207 F1500
(-->next line out of position. Retracting, and repositioning)
G00 Z4.000
G00 X51.117Y6.445
(-->Plunging, then Cutting Line)
G01 Z-0.070 F500
G01 X53.658Y6.445 F1500
(-->Cutting Line)
G01 X56.198Y6.445 F1500
(-->Cutting Line)
G01 X58.738Y6.445 F1500
(-->Cutting Line)
G01 X61.278Y6.445 F1500
(-->Cutting Line)
G01 X63.818Y6.445 F1500
(-->Cutting Line)
G01 X66.358Y6.445 F1500
(-->Cutting Line)
G01 X66.358Y3.651 F1500
(-->Cutting Line)
G01 X63.818Y3.651 F1500
(-->Cutting Line)
G01 X61.278Y3.651 F1500
(-->Cutting Line)
G01 X58.738Y3.651 F1500
(-->Cutting Line)
G01 X56.198Y3.651 F1500
(-->Cutting Line)
G01 X53.658Y3.651 F1500
(-->Cutting Line)
G01 X51.117Y3.651 F1500
(-->Cutting Line)
G01 X51.117Y6.445 F1500
(-->next line out of position. Retracting, and repositioning)
G00 Z4.000
G00 X53.658Y6.445
(-->Plunging, then Cutting Line)
G01 Z-0.070 F500
G01 X53.658Y3.651 F1500
(-->next line out of position. Retracting, and repositioning)
G00 Z4.000
G00 X56.198Y6.445
(-->Plunging, then Cutting Line)
G01 Z-0.070 F500
G01 X56.198Y3.651 F1500
(-->next line out of position. Retracting, and repositioning)
G00 Z4.000
G00 X58.738Y6.445
(-->Plunging, then Cutting Line)
G01 Z-0.070 F500
G01 X58.738Y3.651 F1500
(-->next line out of position. Retracting, and repositioning)
G00 Z4.000
G00 X61.278Y6.445
(-->Plunging, then Cutting Line)
G01 Z-0.070 F500
G01 X61.278Y3.651 F1500
(-->next line out of position. Retracting, and repositioning)
G00 Z4.000
G00 X63.818Y6.445
(-->Plunging, then Cutting Line)
G01 Z-0.070 F500
G01 X63.818Y3.651 F1500
(-->next line out of position. Retracting, and repositioning)
G00 Z4.000
G00 X20.130Y30.829
(-->Plunging, then Cutting Line)
G01 Z-0.070 F500
G01 X20.130Y32.099 F1500
(-->next line out of position. Retracting, and repositioning)
G00 Z4.000
G00 X21.654Y30.829
(-->Plunging, then Cutting Line)
G01 Z-0.070 F500
G01 X21.654Y32.099 F1500
(-->next line out of position. Retracting, and repositioning)
G00 Z4.000
G00 X18.098Y50.133
(-->Plunging, then Cutting Line)
G01 Z-0.070 F500
G01 X16.066Y50.133 F1500
(-->Cutting Line)
G01 X15.558Y50.641 F1500
(-->Cutting Line)
G01 X14.034Y50.641 F1500
(-->Cutting Line)
G01 X13.780Y50.387 F1500
(-->Cutting Line)
G01 X13.780Y47.847 F1500
(-->Cutting Line)
G01 X14.034Y47.593 F1500
(-->Cutting Line)
G01 X15.812Y47.593 F1500
(-->Cutting Line)
G01 X16.066Y47.847 F1500
(-->Cutting Line)
G01 X16.066Y48.609 F1500
(-->Cutting Line)
G01 X18.098Y48.609 F1500
(-->next line out of position. Retracting, and repositioning)
G00 Z4.000
G00 X29.527Y29.813
(-->Plunging, then Cutting Line)
G01 Z-0.070 F500
G01 X26.988Y29.813 F1500
(-->next line out of position. Retracting, and repositioning)
G00 Z4.000
G00 X29.527Y27.273
(-->Plunging, then Cutting Line)
G01 Z-0.070 F500
G01 X28.004Y27.273 F1500
(-->next line out of position. Retracting, and repositioning)
G00 Z4.000
G00 X43.498Y3.397
(-->Plunging, then Cutting Line)
G01 Z-0.070 F500
G01 X43.498Y5.937 F1500
(-->next line out of position. Retracting, and repositioning)
G00 Z4.000
G00 X45.022Y35.401
(-->Plunging, then Cutting Line)
G01 Z-0.070 F500
G01 X45.022Y34.639 F1500
(-->Cutting Line)
G01 X44.768Y34.385 F1500
(-->Cutting Line)
G01 X40.704Y34.385 F1500
(-->Cutting Line)
G01 X40.704Y41.243 F1500
(-->Cutting Line)
G01 X44.260Y41.243 F1500
(-->next line out of position. Retracting, and repositioning)
G00 Z4.000
G00 X49.848Y34.385
(-->Plunging, then Cutting Line)
G01 Z-0.070 F500
G01 X47.816Y34.385 F1500
(-->Cutting Line)
G01 X47.816Y35.401 F1500
(-->next line out of position. Retracting, and repositioning)
G00 Z4.000
G00 X47.816Y27.527
(-->Plunging, then Cutting Line)
G01 Z-0.070 F500
G01 X47.816Y33.115 F1500
(-->Cutting Line)
G01 X44.768Y33.115 F1500
(-->Cutting Line)
G01 X44.768Y31.591 F1500
(-->Cutting Line)
G01 X45.784Y30.575 F1500
(-->Cutting Line)
G01 X45.784Y28.035 F1500
(-->next line out of position. Retracting, and repositioning)
G00 Z4.000
G00 X42.227Y25.495
(-->Plunging, then Cutting Line)
G01 Z-0.070 F500
G01 X42.227Y22.701 F1500
(-->Cutting Line)
G01 X39.688Y22.701 F1500
