(RS-274 Compatible G-code generated for UCCNC controller and Stepcraft 2 Mill)
(Created by in EagleCAD with the stepcraft.ulp 0.2.)
(File: was created on: 3/29/16 7:38 PM)
SHRINK_WIDTH: 0.070000

G90 G94 G49
G00 Z5.000
G00 X17.112 Y29.209 F1500
G00 Z0.000 F500
G01 X17.112 Y29.209 F1500
G01 X16.022 Y29.209 F1500
G01 X16.022 Y28.069 F1500
G01 X17.112 Y28.069 F1500
G01 X17.112 Y29.209 F1500
G00 Z1.000 F500
G00 X17.112 Y29.209 F1500
G00 Z0.000 F500
G01 X17.112 Y29.209 F1500
G01 X16.022 Y29.209 F1500
G01 X16.022 Y28.069 F1500
G01 X17.112 Y28.069 F1500
G01 X17.112 Y29.209 F1500
G00 Z1.000 F500

G00 X18.712 Y29.209 F1500
G00 Z0.000 F500
G01 X18.712 Y29.209 F1500
G01 X17.622 Y29.209 F1500
G01 X17.622 Y28.069 F1500
G01 X18.712 Y28.069 F1500
G01 X18.712 Y29.209 F1500
G00 Z1.000 F500
G00 X18.712 Y29.209 F1500
G00 Z0.000 F500
G01 X18.712 Y29.209 F1500
G01 X17.622 Y29.209 F1500
G01 X17.622 Y28.069 F1500
G01 X18.712 Y28.069 F1500
G01 X18.712 Y29.209 F1500
G00 Z1.000 F500

G00 X6.026 Y11.519 F1500
G00 Z0.000 F500
G01 X6.026 Y11.519 F1500
G01 X4.870 Y11.519 F1500
G01 X4.870 Y10.871 F1500
G01 X6.026 Y10.871 F1500
G01 X6.026 Y11.519 F1500
G00 Z1.000 F500
G00 X6.026 Y11.519 F1500
G00 Z0.000 F500
G01 X6.026 Y11.519 F1500
G01 X4.870 Y11.519 F1500
G01 X4.870 Y10.871 F1500
G01 X6.026 Y10.871 F1500
G01 X6.026 Y11.519 F1500
G00 Z1.000 F500

G00 X6.026 Y8.979 F1500
G00 Z0.000 F500
G01 X6.026 Y8.979 F1500
G01 X4.870 Y8.979 F1500
G01 X4.870 Y8.331 F1500
G01 X6.026 Y8.331 F1500
G01 X6.026 Y8.979 F1500
G00 Z1.000 F500
G00 X6.026 Y8.979 F1500
G00 Z0.000 F500
G01 X6.026 Y8.979 F1500
G01 X4.870 Y8.979 F1500
G01 X4.870 Y8.331 F1500
G01 X6.026 Y8.331 F1500
G01 X6.026 Y8.979 F1500
G00 Z1.000 F500

G00 X10.065 Y42.647 F1500
G00 Z0.000 F500
G01 X10.065 Y42.647 F1500
G01 X8.655 Y42.647 F1500
G01 X8.655 Y41.872 F1500
G01 X10.065 Y41.872 F1500
G01 X10.065 Y42.647 F1500
G00 Z1.000 F500
G00 X10.065 Y42.647 F1500
G00 Z0.000 F500
G01 X10.065 Y42.647 F1500
G01 X8.655 Y42.647 F1500
G01 X8.655 Y41.872 F1500
G01 X10.065 Y41.872 F1500
G01 X10.065 Y42.647 F1500
G00 Z1.000 F500

G00 X10.065 Y41.656 F1500
G00 Z0.000 F500
G01 X10.065 Y41.656 F1500
G01 X8.655 Y41.656 F1500
G01 X8.655 Y40.881 F1500
G01 X10.065 Y40.881 F1500
G01 X10.065 Y41.656 F1500
G00 Z1.000 F500
G00 X10.065 Y41.656 F1500
G00 Z0.000 F500
G01 X10.065 Y41.656 F1500
G01 X8.655 Y41.656 F1500
G01 X8.655 Y40.881 F1500
G01 X10.065 Y40.881 F1500
G01 X10.065 Y41.656 F1500
G00 Z1.000 F500

G00 X10.065 Y40.640 F1500
G00 Z0.000 F500
G01 X10.065 Y40.640 F1500
G01 X8.655 Y40.640 F1500
G01 X8.655 Y39.865 F1500
G01 X10.065 Y39.865 F1500
G01 X10.065 Y40.640 F1500
G00 Z1.000 F500
G00 X10.065 Y40.640 F1500
G00 Z0.000 F500
G01 X10.065 Y40.640 F1500
G01 X8.655 Y40.640 F1500
G01 X8.655 Y39.865 F1500
G01 X10.065 Y39.865 F1500
G01 X10.065 Y40.640 F1500
G00 Z1.000 F500

G00 X10.065 Y39.599 F1500
G00 Z0.000 F500
G01 X10.065 Y39.599 F1500
G01 X8.655 Y39.599 F1500
G01 X8.655 Y38.824 F1500
G01 X10.065 Y38.824 F1500
G01 X10.065 Y39.599 F1500
G00 Z1.000 F500
G00 X10.065 Y39.599 F1500
G00 Z0.000 F500
G01 X10.065 Y39.599 F1500
G01 X8.655 Y39.599 F1500
G01 X8.655 Y38.824 F1500
G01 X10.065 Y38.824 F1500
G01 X10.065 Y39.599 F1500
G00 Z1.000 F500

G00 X14.125 Y46.351 F1500
G00 Z0.000 F500
G01 X14.125 Y46.351 F1500
G01 X13.185 Y46.351 F1500
G01 X13.185 Y45.311 F1500
G01 X14.125 Y45.311 F1500
G01 X14.125 Y46.351 F1500
G00 Z1.000 F500
G00 X14.125 Y46.351 F1500
G00 Z0.000 F500
G01 X14.125 Y46.351 F1500
G01 X13.185 Y46.351 F1500
G01 X13.185 Y45.311 F1500
G01 X14.125 Y45.311 F1500
G01 X14.125 Y46.351 F1500
G00 Z1.000 F500

G00 X16.025 Y46.351 F1500
G00 Z0.000 F500
G01 X16.025 Y46.351 F1500
G01 X15.085 Y46.351 F1500
G01 X15.085 Y45.311 F1500
G01 X16.025 Y45.311 F1500
G01 X16.025 Y46.351 F1500
G00 Z1.000 F500
G00 X16.025 Y46.351 F1500
G00 Z0.000 F500
G01 X16.025 Y46.351 F1500
G01 X15.085 Y46.351 F1500
G01 X15.085 Y45.311 F1500
G01 X16.025 Y45.311 F1500
G01 X16.025 Y46.351 F1500
G00 Z1.000 F500

G00 X15.075 Y48.451 F1500
G00 Z0.000 F500
G01 X15.075 Y48.451 F1500
G01 X14.135 Y48.451 F1500
G01 X14.135 Y47.411 F1500
G01 X15.075 Y47.411 F1500
G01 X15.075 Y48.451 F1500
G00 Z1.000 F500
G00 X15.075 Y48.451 F1500
G00 Z0.000 F500
G01 X15.075 Y48.451 F1500
G01 X14.135 Y48.451 F1500
G01 X14.135 Y47.411 F1500
G01 X15.075 Y47.411 F1500
G01 X15.075 Y48.451 F1500
G00 Z1.000 F500

G00 X17.617 Y47.939 F1500
G00 Z0.000 F500
G01 X17.617 Y47.939 F1500
G01 X16.678 Y47.939 F1500
G01 X16.678 Y46.899 F1500
G01 X17.617 Y46.899 F1500
G01 X17.617 Y47.939 F1500
G00 Z1.000 F500
G00 X17.617 Y47.939 F1500
G00 Z0.000 F500
G01 X17.617 Y47.939 F1500
G01 X16.678 Y47.939 F1500
G01 X16.678 Y46.899 F1500
G01 X17.617 Y46.899 F1500
G01 X17.617 Y47.939 F1500
G00 Z1.000 F500

G00 X19.517 Y47.939 F1500
G00 Z0.000 F500
G01 X19.517 Y47.939 F1500
G01 X18.578 Y47.939 F1500
G01 X18.578 Y46.899 F1500
G01 X19.517 Y46.899 F1500
G01 X19.517 Y47.939 F1500
G00 Z1.000 F500
G00 X19.517 Y47.939 F1500
G00 Z0.000 F500
G01 X19.517 Y47.939 F1500
G01 X18.578 Y47.939 F1500
G01 X18.578 Y46.899 F1500
G01 X19.517 Y46.899 F1500
G01 X19.517 Y47.939 F1500
G00 Z1.000 F500

G00 X18.567 Y50.039 F1500
G00 Z0.000 F500
G01 X18.567 Y50.039 F1500
G01 X17.628 Y50.039 F1500
G01 X17.628 Y48.999 F1500
G01 X18.567 Y48.999 F1500
G01 X18.567 Y50.039 F1500
G00 Z1.000 F500
G00 X18.567 Y50.039 F1500
G00 Z0.000 F500
G01 X18.567 Y50.039 F1500
G01 X17.628 Y50.039 F1500
G01 X17.628 Y48.999 F1500
G01 X18.567 Y48.999 F1500
G01 X18.567 Y50.039 F1500
G00 Z1.000 F500

G00 X46.454 Y28.222 F1500
G00 Z0.000 F500
G01 X46.454 Y28.222 F1500
G01 X46.454 Y27.282 F1500
G01 X47.494 Y27.282 F1500
G01 X47.494 Y28.222 F1500
G01 X46.454 Y28.222 F1500
G00 Z1.000 F500
G00 X46.454 Y28.222 F1500
G00 Z0.000 F500
G01 X46.454 Y28.222 F1500
G01 X46.454 Y27.282 F1500
G01 X47.494 Y27.282 F1500
G01 X47.494 Y28.222 F1500
G01 X46.454 Y28.222 F1500
G00 Z1.000 F500

G00 X46.454 Y30.122 F1500
G00 Z0.000 F500
G01 X46.454 Y30.122 F1500
G01 X46.454 Y29.182 F1500
G01 X47.494 Y29.182 F1500
G01 X47.494 Y30.122 F1500
G01 X46.454 Y30.122 F1500
G00 Z1.000 F500
G00 X46.454 Y30.122 F1500
G00 Z0.000 F500
G01 X46.454 Y30.122 F1500
G01 X46.454 Y29.182 F1500
G01 X47.494 Y29.182 F1500
G01 X47.494 Y30.122 F1500
G01 X46.454 Y30.122 F1500
G00 Z1.000 F500

G00 X44.354 Y29.172 F1500
G00 Z0.000 F500
G01 X44.354 Y29.172 F1500
G01 X44.354 Y28.232 F1500
G01 X45.394 Y28.232 F1500
G01 X45.394 Y29.172 F1500
G01 X44.354 Y29.172 F1500
G00 Z1.000 F500
G00 X44.354 Y29.172 F1500
G00 Z0.000 F500
G01 X44.354 Y29.172 F1500
G01 X44.354 Y28.232 F1500
G01 X45.394 Y28.232 F1500
G01 X45.394 Y29.172 F1500
G01 X44.354 Y29.172 F1500
G00 Z1.000 F500

G00 X44.422 Y35.532 F1500
G00 Z0.000 F500
G01 X44.422 Y35.532 F1500
G01 X45.362 Y35.532 F1500
G01 X45.362 Y36.572 F1500
G01 X44.422 Y36.572 F1500
G01 X44.422 Y35.532 F1500
G00 Z1.000 F500
G00 X44.422 Y35.532 F1500
G00 Z0.000 F500
G01 X44.422 Y35.532 F1500
G01 X45.362 Y35.532 F1500
G01 X45.362 Y36.572 F1500
G01 X44.422 Y36.572 F1500
G01 X44.422 Y35.532 F1500
G00 Z1.000 F500

G00 X42.522 Y35.532 F1500
G00 Z0.000 F500
G01 X42.522 Y35.532 F1500
G01 X43.462 Y35.532 F1500
G01 X43.462 Y36.572 F1500
G01 X42.522 Y36.572 F1500
G01 X42.522 Y35.532 F1500
G00 Z1.000 F500
G00 X42.522 Y35.532 F1500
G00 Z0.000 F500
G01 X42.522 Y35.532 F1500
G01 X43.462 Y35.532 F1500
G01 X43.462 Y36.572 F1500
G01 X42.522 Y36.572 F1500
G01 X42.522 Y35.532 F1500
G00 Z1.000 F500

G00 X43.472 Y33.432 F1500
G00 Z0.000 F500
G01 X43.472 Y33.432 F1500
G01 X44.412 Y33.432 F1500
G01 X44.412 Y34.472 F1500
G01 X43.472 Y34.472 F1500
G01 X43.472 Y33.432 F1500
G00 Z1.000 F500
G00 X43.472 Y33.432 F1500
G00 Z0.000 F500
G01 X43.472 Y33.432 F1500
G01 X44.412 Y33.432 F1500
G01 X44.412 Y34.472 F1500
G01 X43.472 Y34.472 F1500
G01 X43.472 Y33.432 F1500
G00 Z1.000 F500

G00 X49.558 Y42.954 F1500
G00 Z0.000 F500
G01 X49.558 Y42.954 F1500
G01 X48.618 Y42.954 F1500
G01 X48.618 Y41.914 F1500
G01 X49.558 Y41.914 F1500
G01 X49.558 Y42.954 F1500
G00 Z1.000 F500
G00 X49.558 Y42.954 F1500
G00 Z0.000 F500
G01 X49.558 Y42.954 F1500
G01 X48.618 Y42.954 F1500
G01 X48.618 Y41.914 F1500
G01 X49.558 Y41.914 F1500
G01 X49.558 Y42.954 F1500
G00 Z1.000 F500

G00 X51.458 Y42.954 F1500
G00 Z0.000 F500
G01 X51.458 Y42.954 F1500
G01 X50.518 Y42.954 F1500
G01 X50.518 Y41.914 F1500
G01 X51.458 Y41.914 F1500
G01 X51.458 Y42.954 F1500
G00 Z1.000 F500
G00 X51.458 Y42.954 F1500
G00 Z0.000 F500
G01 X51.458 Y42.954 F1500
G01 X50.518 Y42.954 F1500
G01 X50.518 Y41.914 F1500
G01 X51.458 Y41.914 F1500
G01 X51.458 Y42.954 F1500
G00 Z1.000 F500

G00 X50.508 Y45.054 F1500
G00 Z0.000 F500
G01 X50.508 Y45.054 F1500
G01 X49.568 Y45.054 F1500
G01 X49.568 Y44.014 F1500
G01 X50.508 Y44.014 F1500
G01 X50.508 Y45.054 F1500
G00 Z1.000 F500
G00 X50.508 Y45.054 F1500
G00 Z0.000 F500
G01 X50.508 Y45.054 F1500
G01 X49.568 Y45.054 F1500
G01 X49.568 Y44.014 F1500
G01 X50.508 Y44.014 F1500
G01 X50.508 Y45.054 F1500
G00 Z1.000 F500

G00 X14.860 Y42.928 F1500
G00 Z0.000 F500
G01 X14.860 Y42.928 F1500
G01 X15.950 Y42.928 F1500
G01 X15.950 Y44.068 F1500
G01 X14.860 Y44.068 F1500
G01 X14.860 Y42.928 F1500
G00 Z1.000 F500
G00 X14.860 Y42.928 F1500
G00 Z0.000 F500
G01 X14.860 Y42.928 F1500
G01 X15.950 Y42.928 F1500
G01 X15.950 Y44.068 F1500
G01 X14.860 Y44.068 F1500
G01 X14.860 Y42.928 F1500
G00 Z1.000 F500

G00 X13.260 Y42.928 F1500
G00 Z0.000 F500
G01 X13.260 Y42.928 F1500
G01 X14.350 Y42.928 F1500
G01 X14.350 Y44.068 F1500
G01 X13.260 Y44.068 F1500
G01 X13.260 Y42.928 F1500
G00 Z1.000 F500
G00 X13.260 Y42.928 F1500
G00 Z0.000 F500
G01 X13.260 Y42.928 F1500
G01 X14.350 Y42.928 F1500
G01 X14.350 Y44.068 F1500
G01 X13.260 Y44.068 F1500
G01 X13.260 Y42.928 F1500
G00 Z1.000 F500

G00 X14.384 Y49.595 F1500
G00 Z0.000 F500
G01 X14.384 Y49.595 F1500
G01 X15.474 Y49.595 F1500
G01 X15.474 Y50.735 F1500
G01 X14.384 Y50.735 F1500
G01 X14.384 Y49.595 F1500
G00 Z1.000 F500
G00 X14.384 Y49.595 F1500
G00 Z0.000 F500
G01 X14.384 Y49.595 F1500
G01 X15.474 Y49.595 F1500
G01 X15.474 Y50.735 F1500
G01 X14.384 Y50.735 F1500
G01 X14.384 Y49.595 F1500
G00 Z1.000 F500

G00 X12.784 Y49.595 F1500
G00 Z0.000 F500
G01 X12.784 Y49.595 F1500
G01 X13.874 Y49.595 F1500
G01 X13.874 Y50.735 F1500
G01 X12.784 Y50.735 F1500
G01 X12.784 Y49.595 F1500
G00 Z1.000 F500
G00 X12.784 Y49.595 F1500
G00 Z0.000 F500
G01 X12.784 Y49.595 F1500
G01 X13.874 Y49.595 F1500
G01 X13.874 Y50.735 F1500
G01 X12.784 Y50.735 F1500
G01 X12.784 Y49.595 F1500
G00 Z1.000 F500

G00 X18.352 Y44.515 F1500
G00 Z0.000 F500
G01 X18.352 Y44.515 F1500
G01 X19.443 Y44.515 F1500
G01 X19.443 Y45.655 F1500
G01 X18.352 Y45.655 F1500
G01 X18.352 Y44.515 F1500
G00 Z1.000 F500
G00 X18.352 Y44.515 F1500
G00 Z0.000 F500
G01 X18.352 Y44.515 F1500
G01 X19.443 Y44.515 F1500
G01 X19.443 Y45.655 F1500
G01 X18.352 Y45.655 F1500
G01 X18.352 Y44.515 F1500
G00 Z1.000 F500

G00 X16.752 Y44.515 F1500
G00 Z0.000 F500
G01 X16.752 Y44.515 F1500
G01 X17.843 Y44.515 F1500
G01 X17.843 Y45.655 F1500
G01 X16.752 Y45.655 F1500
G01 X16.752 Y44.515 F1500
G00 Z1.000 F500
G00 X16.752 Y44.515 F1500
G00 Z0.000 F500
G01 X16.752 Y44.515 F1500
G01 X17.843 Y44.515 F1500
G01 X17.843 Y45.655 F1500
G01 X16.752 Y45.655 F1500
G01 X16.752 Y44.515 F1500
G00 Z1.000 F500

G00 X14.701 Y51.976 F1500
G00 Z0.000 F500
G01 X14.701 Y51.976 F1500
G01 X15.791 Y51.976 F1500
G01 X15.791 Y53.116 F1500
G01 X14.701 Y53.116 F1500
G01 X14.701 Y51.976 F1500
G00 Z1.000 F500
G00 X14.701 Y51.976 F1500
G00 Z0.000 F500
G01 X14.701 Y51.976 F1500
G01 X15.791 Y51.976 F1500
G01 X15.791 Y53.116 F1500
G01 X14.701 Y53.116 F1500
G01 X14.701 Y51.976 F1500
G00 Z1.000 F500

G00 X13.101 Y51.976 F1500
G00 Z0.000 F500
G01 X13.101 Y51.976 F1500
G01 X14.191 Y51.976 F1500
G01 X14.191 Y53.116 F1500
G01 X13.101 Y53.116 F1500
G01 X13.101 Y51.976 F1500
G00 Z1.000 F500
G00 X13.101 Y51.976 F1500
G00 Z0.000 F500
G01 X13.101 Y51.976 F1500
G01 X14.191 Y51.976 F1500
G01 X14.191 Y53.116 F1500
G01 X13.101 Y53.116 F1500
G01 X13.101 Y51.976 F1500
G00 Z1.000 F500

G00 X57.149 Y44.512 F1500
G00 Z0.000 F500
G01 X57.149 Y44.512 F1500
G01 X56.059 Y44.512 F1500
G01 X56.059 Y43.372 F1500
G01 X57.149 Y43.372 F1500
G01 X57.149 Y44.512 F1500
G00 Z1.000 F500
G00 X57.149 Y44.512 F1500
G00 Z0.000 F500
G01 X57.149 Y44.512 F1500
G01 X56.059 Y44.512 F1500
G01 X56.059 Y43.372 F1500
G01 X57.149 Y43.372 F1500
G01 X57.149 Y44.512 F1500
G00 Z1.000 F500

G00 X58.749 Y44.512 F1500
G00 Z0.000 F500
G01 X58.749 Y44.512 F1500
G01 X57.659 Y44.512 F1500
G01 X57.659 Y43.372 F1500
G01 X58.749 Y43.372 F1500
G01 X58.749 Y44.512 F1500
G00 Z1.000 F500
G00 X58.749 Y44.512 F1500
G00 Z0.000 F500
G01 X58.749 Y44.512 F1500
G01 X57.659 Y44.512 F1500
G01 X57.659 Y43.372 F1500
G01 X58.749 Y43.372 F1500
G01 X58.749 Y44.512 F1500
G00 Z1.000 F500

G00 X38.924 Y45.721 F1500
G00 Z0.000 F500
G01 X38.924 Y45.721 F1500
G01 X38.924 Y46.811 F1500
G01 X37.784 Y46.811 F1500
G01 X37.784 Y45.721 F1500
G01 X38.924 Y45.721 F1500
G00 Z1.000 F500
G00 X38.924 Y45.721 F1500
G00 Z0.000 F500
G01 X38.924 Y45.721 F1500
G01 X38.924 Y46.811 F1500
G01 X37.784 Y46.811 F1500
G01 X37.784 Y45.721 F1500
G01 X38.924 Y45.721 F1500
G00 Z1.000 F500

G00 X38.924 Y44.121 F1500
G00 Z0.000 F500
G01 X38.924 Y44.121 F1500
G01 X38.924 Y45.211 F1500
G01 X37.784 Y45.211 F1500
G01 X37.784 Y44.121 F1500
G01 X38.924 Y44.121 F1500
G00 Z1.000 F500
G00 X38.924 Y44.121 F1500
G00 Z0.000 F500
G01 X38.924 Y44.121 F1500
G01 X38.924 Y45.211 F1500
G01 X37.784 Y45.211 F1500
G01 X37.784 Y44.121 F1500
G01 X38.924 Y44.121 F1500
G00 Z1.000 F500

G00 X44.896 Y38.099 F1500
G00 Z0.000 F500
G01 X44.896 Y38.099 F1500
G01 X44.896 Y37.009 F1500
G01 X46.036 Y37.009 F1500
G01 X46.036 Y38.099 F1500
G01 X44.896 Y38.099 F1500
G00 Z1.000 F500
G00 X44.896 Y38.099 F1500
G00 Z0.000 F500
G01 X44.896 Y38.099 F1500
G01 X44.896 Y37.009 F1500
G01 X46.036 Y37.009 F1500
G01 X46.036 Y38.099 F1500
G01 X44.896 Y38.099 F1500
G00 Z1.000 F500

G00 X44.896 Y39.699 F1500
G00 Z0.000 F500
G01 X44.896 Y39.699 F1500
G01 X44.896 Y38.609 F1500
G01 X46.036 Y38.609 F1500
G01 X46.036 Y39.699 F1500
G01 X44.896 Y39.699 F1500
G00 Z1.000 F500
G00 X44.896 Y39.699 F1500
G00 Z0.000 F500
G01 X44.896 Y39.699 F1500
G01 X44.896 Y38.609 F1500
G01 X46.036 Y38.609 F1500
G01 X46.036 Y39.699 F1500
G01 X44.896 Y39.699 F1500
G00 Z1.000 F500

G00 X40.578 Y36.321 F1500
G00 Z0.000 F500
G01 X40.578 Y36.321 F1500
G01 X40.578 Y35.231 F1500
G01 X41.718 Y35.231 F1500
G01 X41.718 Y36.321 F1500
G01 X40.578 Y36.321 F1500
G00 Z1.000 F500
G00 X40.578 Y36.321 F1500
G00 Z0.000 F500
G01 X40.578 Y36.321 F1500
G01 X40.578 Y35.231 F1500
G01 X41.718 Y35.231 F1500
G01 X41.718 Y36.321 F1500
G01 X40.578 Y36.321 F1500
G00 Z1.000 F500

G00 X40.578 Y37.921 F1500
G00 Z0.000 F500
G01 X40.578 Y37.921 F1500
G01 X40.578 Y36.831 F1500
G01 X41.718 Y36.831 F1500
G01 X41.718 Y37.921 F1500
G01 X40.578 Y37.921 F1500
G00 Z1.000 F500
G00 X40.578 Y37.921 F1500
G00 Z0.000 F500
G01 X40.578 Y37.921 F1500
G01 X40.578 Y36.831 F1500
G01 X41.718 Y36.831 F1500
G01 X41.718 Y37.921 F1500
G01 X40.578 Y37.921 F1500
G00 Z1.000 F500

G00 X52.770 Y43.179 F1500
G00 Z0.000 F500
G01 X52.770 Y43.179 F1500
G01 X52.770 Y42.089 F1500
G01 X53.910 Y42.089 F1500
G01 X53.910 Y43.179 F1500
G01 X52.770 Y43.179 F1500
G00 Z1.000 F500
G00 X52.770 Y43.179 F1500
G00 Z0.000 F500
G01 X52.770 Y43.179 F1500
G01 X52.770 Y42.089 F1500
G01 X53.910 Y42.089 F1500
G01 X53.910 Y43.179 F1500
G01 X52.770 Y43.179 F1500
G00 Z1.000 F500

G00 X52.770 Y44.779 F1500
G00 Z0.000 F500
G01 X52.770 Y44.779 F1500
G01 X52.770 Y43.689 F1500
G01 X53.910 Y43.689 F1500
G01 X53.910 Y44.779 F1500
G01 X52.770 Y44.779 F1500
G00 Z1.000 F500
G00 X52.770 Y44.779 F1500
G00 Z0.000 F500
G01 X52.770 Y44.779 F1500
G01 X52.770 Y43.689 F1500
G01 X53.910 Y43.689 F1500
G01 X53.910 Y44.779 F1500
G01 X52.770 Y44.779 F1500
G00 Z1.000 F500

G00 X40.702 Y45.721 F1500
G00 Z0.000 F500
G01 X40.702 Y45.721 F1500
G01 X40.702 Y46.811 F1500
G01 X39.562 Y46.811 F1500
G01 X39.562 Y45.721 F1500
G01 X40.702 Y45.721 F1500
G00 Z1.000 F500
G00 X40.702 Y45.721 F1500
G00 Z0.000 F500
G01 X40.702 Y45.721 F1500
G01 X40.702 Y46.811 F1500
G01 X39.562 Y46.811 F1500
G01 X39.562 Y45.721 F1500
G01 X40.702 Y45.721 F1500
G00 Z1.000 F500

G00 X40.702 Y44.121 F1500
G00 Z0.000 F500
G01 X40.702 Y44.121 F1500
G01 X40.702 Y45.211 F1500
G01 X39.562 Y45.211 F1500
G01 X39.562 Y44.121 F1500
G01 X40.702 Y44.121 F1500
G00 Z1.000 F500
G00 X40.702 Y44.121 F1500
G00 Z0.000 F500
G01 X40.702 Y44.121 F1500
G01 X40.702 Y45.211 F1500
G01 X39.562 Y45.211 F1500
G01 X39.562 Y44.121 F1500
G01 X40.702 Y44.121 F1500
G00 Z1.000 F500

G00 X11.810 Y35.910 F1500
G00 Z0.000 F500
G01 X11.810 Y35.910 F1500
G01 X11.810 Y37.000 F1500
G01 X10.670 Y37.000 F1500
G01 X10.670 Y35.910 F1500
G01 X11.810 Y35.910 F1500
G00 Z1.000 F500
G00 X11.810 Y35.910 F1500
G00 Z0.000 F500
G01 X11.810 Y35.910 F1500
G01 X11.810 Y37.000 F1500
G01 X10.670 Y37.000 F1500
G01 X10.670 Y35.910 F1500
G01 X11.810 Y35.910 F1500
G00 Z1.000 F500

G00 X11.810 Y34.310 F1500
G00 Z0.000 F500
G01 X11.810 Y34.310 F1500
G01 X11.810 Y35.400 F1500
G01 X10.670 Y35.400 F1500
G01 X10.670 Y34.310 F1500
G01 X11.810 Y34.310 F1500
G00 Z1.000 F500
G00 X11.810 Y34.310 F1500
G00 Z0.000 F500
G01 X11.810 Y34.310 F1500
G01 X11.810 Y35.400 F1500
G01 X10.670 Y35.400 F1500
G01 X10.670 Y34.310 F1500
G01 X11.810 Y34.310 F1500
G00 Z1.000 F500

G00 X13.588 Y35.910 F1500
G00 Z0.000 F500
G01 X13.588 Y35.910 F1500
G01 X13.588 Y37.000 F1500
G01 X12.447 Y37.000 F1500
G01 X12.447 Y35.910 F1500
G01 X13.588 Y35.910 F1500
G00 Z1.000 F500
G00 X13.588 Y35.910 F1500
G00 Z0.000 F500
G01 X13.588 Y35.910 F1500
G01 X13.588 Y37.000 F1500
G01 X12.447 Y37.000 F1500
G01 X12.447 Y35.910 F1500
G01 X13.588 Y35.910 F1500
G00 Z1.000 F500

G00 X13.588 Y34.310 F1500
G00 Z0.000 F500
G01 X13.588 Y34.310 F1500
G01 X13.588 Y35.400 F1500
G01 X12.447 Y35.400 F1500
G01 X12.447 Y34.310 F1500
G01 X13.588 Y34.310 F1500
G00 Z1.000 F500
G00 X13.588 Y34.310 F1500
G00 Z0.000 F500
G01 X13.588 Y34.310 F1500
G01 X13.588 Y35.400 F1500
G01 X12.447 Y35.400 F1500
G01 X12.447 Y34.310 F1500
G01 X13.588 Y34.310 F1500
G00 Z1.000 F500

G00 X15.323 Y33.668 F1500
G00 Z0.000 F500
G01 X15.323 Y33.668 F1500
G01 X14.522 Y33.668 F1500
G01 X14.522 Y31.496 F1500
G01 X15.323 Y31.496 F1500
G01 X15.323 Y33.668 F1500
G00 Z1.000 F500
G00 X15.323 Y33.668 F1500
G00 Z0.000 F500
G01 X15.323 Y33.668 F1500
G01 X14.522 Y33.668 F1500
G01 X14.522 Y31.496 F1500
G01 X15.323 Y31.496 F1500
G01 X15.323 Y33.668 F1500
G00 Z1.000 F500

G00 X16.593 Y33.668 F1500
G00 Z0.000 F500
G01 X16.593 Y33.668 F1500
G01 X15.792 Y33.668 F1500
G01 X15.792 Y31.496 F1500
G01 X16.593 Y31.496 F1500
G01 X16.593 Y33.668 F1500
G00 Z1.000 F500
G00 X16.593 Y33.668 F1500
G00 Z0.000 F500
G01 X16.593 Y33.668 F1500
G01 X15.792 Y33.668 F1500
G01 X15.792 Y31.496 F1500
G01 X16.593 Y31.496 F1500
G01 X16.593 Y33.668 F1500
G00 Z1.000 F500

G00 X17.863 Y33.668 F1500
G00 Z0.000 F500
G01 X17.863 Y33.668 F1500
G01 X17.062 Y33.668 F1500
G01 X17.062 Y31.496 F1500
G01 X17.863 Y31.496 F1500
G01 X17.863 Y33.668 F1500
G00 Z1.000 F500
G00 X17.863 Y33.668 F1500
G00 Z0.000 F500
G01 X17.863 Y33.668 F1500
G01 X17.062 Y33.668 F1500
G01 X17.062 Y31.496 F1500
G01 X17.863 Y31.496 F1500
G01 X17.863 Y33.668 F1500
G00 Z1.000 F500

G00 X19.133 Y33.668 F1500
G00 Z0.000 F500
G01 X19.133 Y33.668 F1500
G01 X18.332 Y33.668 F1500
G01 X18.332 Y31.496 F1500
G01 X19.133 Y31.496 F1500
G01 X19.133 Y33.668 F1500
G00 Z1.000 F500
G00 X19.133 Y33.668 F1500
G00 Z0.000 F500
G01 X19.133 Y33.668 F1500
G01 X18.332 Y33.668 F1500
G01 X18.332 Y31.496 F1500
G01 X19.133 Y31.496 F1500
G01 X19.133 Y33.668 F1500
G00 Z1.000 F500

G00 X19.133 Y39.815 F1500
G00 Z0.000 F500
G01 X19.133 Y39.815 F1500
G01 X18.332 Y39.815 F1500
G01 X18.332 Y37.643 F1500
G01 X19.133 Y37.643 F1500
G01 X19.133 Y39.815 F1500
G00 Z1.000 F500
G00 X19.133 Y39.815 F1500
G00 Z0.000 F500
G01 X19.133 Y39.815 F1500
G01 X18.332 Y39.815 F1500
G01 X18.332 Y37.643 F1500
G01 X19.133 Y37.643 F1500
G01 X19.133 Y39.815 F1500
G00 Z1.000 F500

G00 X17.863 Y39.815 F1500
G00 Z0.000 F500
G01 X17.863 Y39.815 F1500
G01 X17.062 Y39.815 F1500
G01 X17.062 Y37.643 F1500
G01 X17.863 Y37.643 F1500
G01 X17.863 Y39.815 F1500
G00 Z1.000 F500
G00 X17.863 Y39.815 F1500
G00 Z0.000 F500
G01 X17.863 Y39.815 F1500
G01 X17.062 Y39.815 F1500
G01 X17.062 Y37.643 F1500
G01 X17.863 Y37.643 F1500
G01 X17.863 Y39.815 F1500
G00 Z1.000 F500

G00 X16.593 Y39.815 F1500
G00 Z0.000 F500
G01 X16.593 Y39.815 F1500
G01 X15.792 Y39.815 F1500
G01 X15.792 Y37.643 F1500
G01 X16.593 Y37.643 F1500
G01 X16.593 Y39.815 F1500
G00 Z1.000 F500
G00 X16.593 Y39.815 F1500
G00 Z0.000 F500
G01 X16.593 Y39.815 F1500
G01 X15.792 Y39.815 F1500
G01 X15.792 Y37.643 F1500
G01 X16.593 Y37.643 F1500
G01 X16.593 Y39.815 F1500
G00 Z1.000 F500

G00 X15.323 Y39.815 F1500
G00 Z0.000 F500
G01 X15.323 Y39.815 F1500
G01 X14.522 Y39.815 F1500
G01 X14.522 Y37.643 F1500
G01 X15.323 Y37.643 F1500
G01 X15.323 Y39.815 F1500
G00 Z1.000 F500
G00 X15.323 Y39.815 F1500
G00 Z0.000 F500
G01 X15.323 Y39.815 F1500
G01 X14.522 Y39.815 F1500
G01 X14.522 Y37.643 F1500
G01 X15.323 Y37.643 F1500
G01 X15.323 Y39.815 F1500
G00 Z1.000 F500

G00 X60.620 Y40.217 F1500
G00 Z0.000 F500
G01 X60.620 Y40.217 F1500
G01 X60.620 Y38.077 F1500
G01 X62.029 Y38.077 F1500
G01 X62.029 Y40.217 F1500
G01 X60.620 Y40.217 F1500
G00 Z1.000 F500
G00 X60.620 Y40.217 F1500
G00 Z0.000 F500
G01 X60.620 Y40.217 F1500
G01 X60.620 Y38.077 F1500
G01 X62.029 Y38.077 F1500
G01 X62.029 Y40.217 F1500
G01 X60.620 Y40.217 F1500
G00 Z1.000 F500

G00 X50.620 Y20.717 F1500
G00 Z0.000 F500
G01 X50.620 Y20.717 F1500
G01 X50.620 Y18.577 F1500
G01 X52.029 Y18.577 F1500
G01 X52.029 Y20.717 F1500
G01 X50.620 Y20.717 F1500
G00 Z1.000 F500
G00 X50.620 Y20.717 F1500
G00 Z0.000 F500
G01 X50.620 Y20.717 F1500
G01 X50.620 Y18.577 F1500
G01 X52.029 Y18.577 F1500
G01 X52.029 Y20.717 F1500
G01 X50.620 Y20.717 F1500
G00 Z1.000 F500

G00 X62.620 Y40.217 F1500
G00 Z0.000 F500
G01 X62.620 Y40.217 F1500
G01 X62.620 Y38.077 F1500
G01 X64.029 Y38.077 F1500
G01 X64.029 Y40.217 F1500
G01 X62.620 Y40.217 F1500
G00 Z1.000 F500
G00 X62.620 Y40.217 F1500
G00 Z0.000 F500
G01 X62.620 Y40.217 F1500
G01 X62.620 Y38.077 F1500
G01 X64.029 Y38.077 F1500
G01 X64.029 Y40.217 F1500
G01 X62.620 Y40.217 F1500
G00 Z1.000 F500

G00 X54.620 Y40.217 F1500
G00 Z0.000 F500
G01 X54.620 Y40.217 F1500
G01 X54.620 Y38.077 F1500
G01 X56.029 Y38.077 F1500
G01 X56.029 Y40.217 F1500
G01 X54.620 Y40.217 F1500
G00 Z1.000 F500
G00 X54.620 Y40.217 F1500
G00 Z0.000 F500
G01 X54.620 Y40.217 F1500
G01 X54.620 Y38.077 F1500
G01 X56.029 Y38.077 F1500
G01 X56.029 Y40.217 F1500
G01 X54.620 Y40.217 F1500
G00 Z1.000 F500

G00 X52.620 Y40.217 F1500
G00 Z0.000 F500
G01 X52.620 Y40.217 F1500
G01 X52.620 Y38.077 F1500
G01 X54.029 Y38.077 F1500
G01 X54.029 Y40.217 F1500
G01 X52.620 Y40.217 F1500
G00 Z1.000 F500
G00 X52.620 Y40.217 F1500
G00 Z0.000 F500
G01 X52.620 Y40.217 F1500
G01 X52.620 Y38.077 F1500
G01 X54.029 Y38.077 F1500
G01 X54.029 Y40.217 F1500
G01 X52.620 Y40.217 F1500
G00 Z1.000 F500

G00 X50.620 Y40.217 F1500
G00 Z0.000 F500
G01 X50.620 Y40.217 F1500
G01 X50.620 Y38.077 F1500
G01 X52.029 Y38.077 F1500
G01 X52.029 Y40.217 F1500
G01 X50.620 Y40.217 F1500
G00 Z1.000 F500
G00 X50.620 Y40.217 F1500
G00 Z0.000 F500
G01 X50.620 Y40.217 F1500
G01 X50.620 Y38.077 F1500
G01 X52.029 Y38.077 F1500
G01 X52.029 Y40.217 F1500
G01 X50.620 Y40.217 F1500
G00 Z1.000 F500

G00 X56.620 Y40.217 F1500
G00 Z0.000 F500
G01 X56.620 Y40.217 F1500
G01 X56.620 Y38.077 F1500
G01 X58.029 Y38.077 F1500
G01 X58.029 Y40.217 F1500
G01 X56.620 Y40.217 F1500
G00 Z1.000 F500
G00 X56.620 Y40.217 F1500
G00 Z0.000 F500
G01 X56.620 Y40.217 F1500
G01 X56.620 Y38.077 F1500
G01 X58.029 Y38.077 F1500
G01 X58.029 Y40.217 F1500
G01 X56.620 Y40.217 F1500
G00 Z1.000 F500

G00 X62.620 Y20.717 F1500
G00 Z0.000 F500
G01 X62.620 Y20.717 F1500
G01 X62.620 Y18.577 F1500
G01 X64.029 Y18.577 F1500
G01 X64.029 Y20.717 F1500
G01 X62.620 Y20.717 F1500
G00 Z1.000 F500
G00 X62.620 Y20.717 F1500
G00 Z0.000 F500
G01 X62.620 Y20.717 F1500
G01 X62.620 Y18.577 F1500
G01 X64.029 Y18.577 F1500
G01 X64.029 Y20.717 F1500
G01 X62.620 Y20.717 F1500
G00 Z1.000 F500

G00 X66.358 Y0.318 F1500
(-->next line out of position. Retracting, and repositioning)
G00 Z1.000
G00 X4.128Y0.318
(-->Plunging, then Cutting Line)
G01 Z0.000 F500
G01 X66.358Y0.318 F1500
G00 X4.128 Y57.785 F1500
(-->next line out of position. Retracting, and repositioning)
G00 Z1.000
G00 X66.358Y57.785
(-->Plunging, then Cutting Line)
G01 Z0.000 F500
G01 X4.128Y57.785 F1500
G03
X0.794Y54.451 R3.334
G00 X0.794 Y3.651 F1500
(-->Cutting Line)
G01 X0.794Y3.651 F1500
G03
X4.128Y0.318 R3.334
G00 X68.421 Y55.721 F1500
(-->next line out of position. Retracting, and repositioning)
G00 Z1.000
G00 X66.358Y57.785
(-->Plunging, then Cutting Line)
G01 Z0.000 F500
G01 X68.421Y55.721 F1500
G00 X68.421 Y43.021 F1500
(-->Cutting Line)
G01 X68.421Y43.021 F1500
G00 X70.961 Y40.481 F1500
(-->Cutting Line)
G01 X70.961Y40.481 F1500
G00 X70.961 Y7.461 F1500
(-->Cutting Line)
G01 X70.961Y7.461 F1500
G00 X68.421 Y4.921 F1500
(-->Cutting Line)
G01 X68.421Y4.921 F1500
G00 X68.421 Y2.381 F1500
(-->Cutting Line)
G01 X68.421Y2.381 F1500
G02
X66.358Y0.318 R2.064
G00 Z5.000
G00 X0Y0