(RS-274 Compatible G-code generated for UCCNC controller and Stepcraft 2 Mill)
(Created by in EagleCAD with the stepcraft.ulp 0.2.)
(File: "receiver_shield.brd" created on: 3/29/16 7:38 PM)
(Use a 1/32inch Bit)

G90 G94 G49
G21
G00 Z5
G00 X0Y0
S19500 M03
G04 P4000
G00 Z1.000
G00 X61.389Y42.259
G01 Z-0.150 F30
G03 F360
X61.389Y42.259 I-0.111
G01 Z-0.300 F30
G03 F360
X61.389Y42.259 I-0.111
G01 Z-0.450 F30
G03 F360
X61.389Y42.259 I-0.111
G01 Z-0.600 F30
G03 F360
X61.389Y42.259 I-0.111
G01 Z-0.750 F30
G03 F360
X61.389Y42.259 I-0.111
G01 Z-0.900 F30
G03 F360
X61.389Y42.259 I-0.111
G01 Z-1.050 F30
G03 F360
X61.389Y42.259 I-0.111
G01 Z-1.200 F30
G03 F360
X61.389Y42.259 I-0.111
G01 Z-1.350 F30
G03 F360
X61.389Y42.259 I-0.111
G01 Z-1.500 F30
G03 F360
X61.389Y42.259 I-0.111
G01 Z-1.600 F30
G03 F360
X61.389Y42.259 I-0.111
G00 Z1.000
G00 X23.035Y23.971
G01 Z-0.150 F30
G03 F360
X23.035Y23.971 I-0.111
G01 Z-0.300 F30
G03 F360
X23.035Y23.971 I-0.111
G01 Z-0.450 F30
G03 F360
X23.035Y23.971 I-0.111
G01 Z-0.600 F30
G03 F360
X23.035Y23.971 I-0.111
G01 Z-0.750 F30
G03 F360
X23.035Y23.971 I-0.111
G01 Z-0.900 F30
G03 F360
X23.035Y23.971 I-0.111
G01 Z-1.050 F30
G03 F360
X23.035Y23.971 I-0.111
G01 Z-1.200 F30
G03 F360
X23.035Y23.971 I-0.111
G01 Z-1.350 F30
G03 F360
X23.035Y23.971 I-0.111
G01 Z-1.500 F30
G03 F360
X23.035Y23.971 I-0.111
G01 Z-1.600 F30
G03 F360
X23.035Y23.971 I-0.111
G00 Z1.000
G00 X25.575Y23.971
G01 Z-0.150 F30
G03 F360
X25.575Y23.971 I-0.111
G01 Z-0.300 F30
G03 F360
X25.575Y23.971 I-0.111
G01 Z-0.450 F30
G03 F360
X25.575Y23.971 I-0.111
G01 Z-0.600 F30
G03 F360
X25.575Y23.971 I-0.111
G01 Z-0.750 F30
G03 F360
X25.575Y23.971 I-0.111
G01 Z-0.900 F30
G03 F360
X25.575Y23.971 I-0.111
G01 Z-1.050 F30
G03 F360
X25.575Y23.971 I-0.111
G01 Z-1.200 F30
G03 F360
X25.575Y23.971 I-0.111
G01 Z-1.350 F30
G03 F360
X25.575Y23.971 I-0.111
G01 Z-1.500 F30
G03 F360
X25.575Y23.971 I-0.111
G01 Z-1.600 F30
G03 F360
X25.575Y23.971 I-0.111
G00 Z1.000
G00 X28.115Y23.971
G01 Z-0.150 F30
G03 F360
X28.115Y23.971 I-0.111
G01 Z-0.300 F30
G03 F360
X28.115Y23.971 I-0.111
G01 Z-0.450 F30
G03 F360
X28.115Y23.971 I-0.111
G01 Z-0.600 F30
G03 F360
X28.115Y23.971 I-0.111
G01 Z-0.750 F30
G03 F360
X28.115Y23.971 I-0.111
G01 Z-0.900 F30
G03 F360
X28.115Y23.971 I-0.111
G01 Z-1.050 F30
G03 F360
X28.115Y23.971 I-0.111
G01 Z-1.200 F30
G03 F360
X28.115Y23.971 I-0.111
G01 Z-1.350 F30
G03 F360
X28.115Y23.971 I-0.111
G01 Z-1.500 F30
G03 F360
X28.115Y23.971 I-0.111
G01 Z-1.600 F30
G03 F360
X28.115Y23.971 I-0.111
G00 Z1.000
G00 X30.655Y23.971
G01 Z-0.150 F30
G03 F360
X30.655Y23.971 I-0.111
G01 Z-0.300 F30
G03 F360
X30.655Y23.971 I-0.111
G01 Z-0.450 F30
G03 F360
X30.655Y23.971 I-0.111
G01 Z-0.600 F30
G03 F360
X30.655Y23.971 I-0.111
G01 Z-0.750 F30
G03 F360
X30.655Y23.971 I-0.111
G01 Z-0.900 F30
G03 F360
X30.655Y23.971 I-0.111
G01 Z-1.050 F30
G03 F360
X30.655Y23.971 I-0.111
G01 Z-1.200 F30
G03 F360
X30.655Y23.971 I-0.111
G01 Z-1.350 F30
G03 F360
X30.655Y23.971 I-0.111
G01 Z-1.500 F30
G03 F360
X30.655Y23.971 I-0.111
G01 Z-1.600 F30
G03 F360
X30.655Y23.971 I-0.111
G00 Z1.000
G00 X33.195Y23.971
G01 Z-0.150 F30
G03 F360
X33.195Y23.971 I-0.111
G01 Z-0.300 F30
G03 F360
X33.195Y23.971 I-0.111
G01 Z-0.450 F30
G03 F360
X33.195Y23.971 I-0.111
G01 Z-0.600 F30
G03 F360
X33.195Y23.971 I-0.111
G01 Z-0.750 F30
G03 F360
X33.195Y23.971 I-0.111
G01 Z-0.900 F30
G03 F360
X33.195Y23.971 I-0.111
G01 Z-1.050 F30
G03 F360
X33.195Y23.971 I-0.111
G01 Z-1.200 F30
G03 F360
X33.195Y23.971 I-0.111
G01 Z-1.350 F30
G03 F360
X33.195Y23.971 I-0.111
G01 Z-1.500 F30
G03 F360
X33.195Y23.971 I-0.111
G01 Z-1.600 F30
G03 F360
X33.195Y23.971 I-0.111
G00 Z1.000
G00 X35.735Y23.971
G01 Z-0.150 F30
G03 F360
X35.735Y23.971 I-0.111
G01 Z-0.300 F30
G03 F360
X35.735Y23.971 I-0.111
G01 Z-0.450 F30
G03 F360
X35.735Y23.971 I-0.111
G01 Z-0.600 F30
G03 F360
X35.735Y23.971 I-0.111
G01 Z-0.750 F30
G03 F360
X35.735Y23.971 I-0.111
G01 Z-0.900 F30
G03 F360
X35.735Y23.971 I-0.111
G01 Z-1.050 F30
G03 F360
X35.735Y23.971 I-0.111
G01 Z-1.200 F30
G03 F360
X35.735Y23.971 I-0.111
G01 Z-1.350 F30
G03 F360
X35.735Y23.971 I-0.111
G01 Z-1.500 F30
G03 F360
X35.735Y23.971 I-0.111
G01 Z-1.600 F30
G03 F360
X35.735Y23.971 I-0.111
G00 Z1.000
G00 X38.275Y23.971
G01 Z-0.150 F30
G03 F360
X38.275Y23.971 I-0.111
G01 Z-0.300 F30
G03 F360
X38.275Y23.971 I-0.111
G01 Z-0.450 F30
G03 F360
X38.275Y23.971 I-0.111
G01 Z-0.600 F30
G03 F360
X38.275Y23.971 I-0.111
G01 Z-0.750 F30
G03 F360
X38.275Y23.971 I-0.111
G01 Z-0.900 F30
G03 F360
X38.275Y23.971 I-0.111
G01 Z-1.050 F30
G03 F360
X38.275Y23.971 I-0.111
G01 Z-1.200 F30
G03 F360
X38.275Y23.971 I-0.111
G01 Z-1.350 F30
G03 F360
X38.275Y23.971 I-0.111
G01 Z-1.500 F30
G03 F360
X38.275Y23.971 I-0.111
G01 Z-1.600 F30
G03 F360
X38.275Y23.971 I-0.111
G00 Z1.000
G00 X40.815Y23.971
G01 Z-0.150 F30
G03 F360
X40.815Y23.971 I-0.111
G01 Z-0.300 F30
G03 F360
X40.815Y23.971 I-0.111
G01 Z-0.450 F30
G03 F360
X40.815Y23.971 I-0.111
G01 Z-0.600 F30
G03 F360
X40.815Y23.971 I-0.111
G01 Z-0.750 F30
G03 F360
X40.815Y23.971 I-0.111
G01 Z-0.900 F30
G03 F360
X40.815Y23.971 I-0.111
G01 Z-1.050 F30
G03 F360
X40.815Y23.971 I-0.111
G01 Z-1.200 F30
G03 F360
X40.815Y23.971 I-0.111
G01 Z-1.350 F30
G03 F360
X40.815Y23.971 I-0.111
G01 Z-1.500 F30
G03 F360
X40.815Y23.971 I-0.111
G01 Z-1.600 F30
G03 F360
X40.815Y23.971 I-0.111
G00 Z1.000
G00 X67.866Y32.861
G01 Z-0.150 F30
G03 F360
X67.866Y32.861 I-0.111
G01 Z-0.300 F30
G03 F360
X67.866Y32.861 I-0.111
G01 Z-0.450 F30
G03 F360
X67.866Y32.861 I-0.111
G01 Z-0.600 F30
G03 F360
X67.866Y32.861 I-0.111
G01 Z-0.750 F30
G03 F360
X67.866Y32.861 I-0.111
G01 Z-0.900 F30
G03 F360
X67.866Y32.861 I-0.111
G01 Z-1.050 F30
G03 F360
X67.866Y32.861 I-0.111
G01 Z-1.200 F30
G03 F360
X67.866Y32.861 I-0.111
G01 Z-1.350 F30
G03 F360
X67.866Y32.861 I-0.111
G01 Z-1.500 F30
G03 F360
X67.866Y32.861 I-0.111
G01 Z-1.600 F30
G03 F360
X67.866Y32.861 I-0.111
G00 Z1.000
G00 X65.199Y53.181
G01 Z-0.150 F30
G03 F360
X65.199Y53.181 I-0.111
G01 Z-0.300 F30
G03 F360
X65.199Y53.181 I-0.111
G01 Z-0.450 F30
G03 F360
X65.199Y53.181 I-0.111
G01 Z-0.600 F30
G03 F360
X65.199Y53.181 I-0.111
G01 Z-0.750 F30
G03 F360
X65.199Y53.181 I-0.111
G01 Z-0.900 F30
G03 F360
X65.199Y53.181 I-0.111
G01 Z-1.050 F30
G03 F360
X65.199Y53.181 I-0.111
G01 Z-1.200 F30
G03 F360
X65.199Y53.181 I-0.111
G01 Z-1.350 F30
G03 F360
X65.199Y53.181 I-0.111
G01 Z-1.500 F30
G03 F360
X65.199Y53.181 I-0.111
G01 Z-1.600 F30
G03 F360
X65.199Y53.181 I-0.111
G00 Z1.000
G00 X62.659Y53.181
G01 Z-0.150 F30
G03 F360
X62.659Y53.181 I-0.111
G01 Z-0.300 F30
G03 F360
X62.659Y53.181 I-0.111
G01 Z-0.450 F30
G03 F360
X62.659Y53.181 I-0.111
G01 Z-0.600 F30
G03 F360
X62.659Y53.181 I-0.111
G01 Z-0.750 F30
G03 F360
X62.659Y53.181 I-0.111
G01 Z-0.900 F30
G03 F360
X62.659Y53.181 I-0.111
G01 Z-1.050 F30
G03 F360
X62.659Y53.181 I-0.111
G01 Z-1.200 F30
G03 F360
X62.659Y53.181 I-0.111
G01 Z-1.350 F30
G03 F360
X62.659Y53.181 I-0.111
G01 Z-1.500 F30
G03 F360
X62.659Y53.181 I-0.111
G01 Z-1.600 F30
G03 F360
X62.659Y53.181 I-0.111
G00 Z1.000
G00 X60.119Y53.181
G01 Z-0.150 F30
G03 F360
X60.119Y53.181 I-0.111
G01 Z-0.300 F30
G03 F360
X60.119Y53.181 I-0.111
G01 Z-0.450 F30
G03 F360
X60.119Y53.181 I-0.111
G01 Z-0.600 F30
G03 F360
X60.119Y53.181 I-0.111
G01 Z-0.750 F30
G03 F360
X60.119Y53.181 I-0.111
G01 Z-0.900 F30
G03 F360
X60.119Y53.181 I-0.111
G01 Z-1.050 F30
G03 F360
X60.119Y53.181 I-0.111
G01 Z-1.200 F30
G03 F360
X60.119Y53.181 I-0.111
G01 Z-1.350 F30
G03 F360
X60.119Y53.181 I-0.111
G01 Z-1.500 F30
G03 F360
X60.119Y53.181 I-0.111
G01 Z-1.600 F30
G03 F360
X60.119Y53.181 I-0.111
G00 Z1.000
G00 X57.579Y53.181
G01 Z-0.150 F30
G03 F360
X57.579Y53.181 I-0.111
G01 Z-0.300 F30
G03 F360
X57.579Y53.181 I-0.111
G01 Z-0.450 F30
G03 F360
X57.579Y53.181 I-0.111
G01 Z-0.600 F30
G03 F360
X57.579Y53.181 I-0.111
G01 Z-0.750 F30
G03 F360
X57.579Y53.181 I-0.111
G01 Z-0.900 F30
G03 F360
X57.579Y53.181 I-0.111
G01 Z-1.050 F30
G03 F360
X57.579Y53.181 I-0.111
G01 Z-1.200 F30
G03 F360
X57.579Y53.181 I-0.111
G01 Z-1.350 F30
G03 F360
X57.579Y53.181 I-0.111
G01 Z-1.500 F30
G03 F360
X57.579Y53.181 I-0.111
G01 Z-1.600 F30
G03 F360
X57.579Y53.181 I-0.111
G00 Z1.000
G00 X37.259Y4.921
G01 Z-0.150 F30
G03 F360
X37.259Y4.921 I-0.111
G01 Z-0.300 F30
G03 F360
X37.259Y4.921 I-0.111
G01 Z-0.450 F30
G03 F360
X37.259Y4.921 I-0.111
G01 Z-0.600 F30
G03 F360
X37.259Y4.921 I-0.111
G01 Z-0.750 F30
G03 F360
X37.259Y4.921 I-0.111
G01 Z-0.900 F30
G03 F360
X37.259Y4.921 I-0.111
G01 Z-1.050 F30
G03 F360
X37.259Y4.921 I-0.111
G01 Z-1.200 F30
G03 F360
X37.259Y4.921 I-0.111
G01 Z-1.350 F30
G03 F360
X37.259Y4.921 I-0.111
G01 Z-1.500 F30
G03 F360
X37.259Y4.921 I-0.111
G01 Z-1.600 F30
G03 F360
X37.259Y4.921 I-0.111
G00 Z1.000
G00 X55.039Y53.181
G01 Z-0.150 F30
G03 F360
X55.039Y53.181 I-0.111
G01 Z-0.300 F30
G03 F360
X55.039Y53.181 I-0.111
G01 Z-0.450 F30
G03 F360
X55.039Y53.181 I-0.111
G01 Z-0.600 F30
G03 F360
X55.039Y53.181 I-0.111
G01 Z-0.750 F30
G03 F360
X55.039Y53.181 I-0.111
G01 Z-0.900 F30
G03 F360
X55.039Y53.181 I-0.111
G01 Z-1.050 F30
G03 F360
X55.039Y53.181 I-0.111
G01 Z-1.200 F30
G03 F360
X55.039Y53.181 I-0.111
G01 Z-1.350 F30
G03 F360
X55.039Y53.181 I-0.111
G01 Z-1.500 F30
G03 F360
X55.039Y53.181 I-0.111
G01 Z-1.600 F30
G03 F360
X55.039Y53.181 I-0.111
G00 Z1.000
G00 X52.499Y53.181
G01 Z-0.150 F30
G03 F360
X52.499Y53.181 I-0.111
G01 Z-0.300 F30
G03 F360
X52.499Y53.181 I-0.111
G01 Z-0.450 F30
G03 F360
X52.499Y53.181 I-0.111
G01 Z-0.600 F30
G03 F360
X52.499Y53.181 I-0.111
G01 Z-0.750 F30
G03 F360
X52.499Y53.181 I-0.111
G01 Z-0.900 F30
G03 F360
X52.499Y53.181 I-0.111
G01 Z-1.050 F30
G03 F360
X52.499Y53.181 I-0.111
G01 Z-1.200 F30
G03 F360
X52.499Y53.181 I-0.111
G01 Z-1.350 F30
G03 F360
X52.499Y53.181 I-0.111
G01 Z-1.500 F30
G03 F360
X52.499Y53.181 I-0.111
G01 Z-1.600 F30
G03 F360
X52.499Y53.181 I-0.111
G00 Z1.000
G00 X39.799Y4.921
G01 Z-0.150 F30
G03 F360
X39.799Y4.921 I-0.111
G01 Z-0.300 F30
G03 F360
X39.799Y4.921 I-0.111
G01 Z-0.450 F30
G03 F360
X39.799Y4.921 I-0.111
G01 Z-0.600 F30
G03 F360
X39.799Y4.921 I-0.111
G01 Z-0.750 F30
G03 F360
X39.799Y4.921 I-0.111
G01 Z-0.900 F30
G03 F360
X39.799Y4.921 I-0.111
G01 Z-1.050 F30
G03 F360
X39.799Y4.921 I-0.111
G01 Z-1.200 F30
G03 F360
X39.799Y4.921 I-0.111
G01 Z-1.350 F30
G03 F360
X39.799Y4.921 I-0.111
G01 Z-1.500 F30
G03 F360
X39.799Y4.921 I-0.111
G01 Z-1.600 F30
G03 F360
X39.799Y4.921 I-0.111
G00 Z1.000
G00 X49.959Y53.181
G01 Z-0.150 F30
G03 F360
X49.959Y53.181 I-0.111
G01 Z-0.300 F30
G03 F360
X49.959Y53.181 I-0.111
G01 Z-0.450 F30
G03 F360
X49.959Y53.181 I-0.111
G01 Z-0.600 F30
G03 F360
X49.959Y53.181 I-0.111
G01 Z-0.750 F30
G03 F360
X49.959Y53.181 I-0.111
G01 Z-0.900 F30
G03 F360
X49.959Y53.181 I-0.111
G01 Z-1.050 F30
G03 F360
X49.959Y53.181 I-0.111
G01 Z-1.200 F30
G03 F360
X49.959Y53.181 I-0.111
G01 Z-1.350 F30
G03 F360
X49.959Y53.181 I-0.111
G01 Z-1.500 F30
G03 F360
X49.959Y53.181 I-0.111
G01 Z-1.600 F30
G03 F360
X49.959Y53.181 I-0.111
G00 Z1.000
G00 X47.419Y53.181
G01 Z-0.150 F30
G03 F360
X47.419Y53.181 I-0.111
G01 Z-0.300 F30
G03 F360
X47.419Y53.181 I-0.111
G01 Z-0.450 F30
G03 F360
X47.419Y53.181 I-0.111
G01 Z-0.600 F30
G03 F360
X47.419Y53.181 I-0.111
G01 Z-0.750 F30
G03 F360
X47.419Y53.181 I-0.111
G01 Z-0.900 F30
G03 F360
X47.419Y53.181 I-0.111
G01 Z-1.050 F30
G03 F360
X47.419Y53.181 I-0.111
G01 Z-1.200 F30
G03 F360
X47.419Y53.181 I-0.111
G01 Z-1.350 F30
G03 F360
X47.419Y53.181 I-0.111
G01 Z-1.500 F30
G03 F360
X47.419Y53.181 I-0.111
G01 Z-1.600 F30
G03 F360
X47.419Y53.181 I-0.111
G00 Z1.000
G00 X43.355Y53.181
G01 Z-0.150 F30
G03 F360
X43.355Y53.181 I-0.111
G01 Z-0.300 F30
G03 F360
X43.355Y53.181 I-0.111
G01 Z-0.450 F30
G03 F360
X43.355Y53.181 I-0.111
G01 Z-0.600 F30
G03 F360
X43.355Y53.181 I-0.111
G01 Z-0.750 F30
G03 F360
X43.355Y53.181 I-0.111
G01 Z-0.900 F30
G03 F360
X43.355Y53.181 I-0.111
G01 Z-1.050 F30
G03 F360
X43.355Y53.181 I-0.111
G01 Z-1.200 F30
G03 F360
X43.355Y53.181 I-0.111
G01 Z-1.350 F30
G03 F360
X43.355Y53.181 I-0.111
G01 Z-1.500 F30
G03 F360
X43.355Y53.181 I-0.111
G01 Z-1.600 F30
G03 F360
X43.355Y53.181 I-0.111
G00 Z1.000
G00 X40.815Y53.181
G01 Z-0.150 F30
G03 F360
X40.815Y53.181 I-0.111
G01 Z-0.300 F30
G03 F360
X40.815Y53.181 I-0.111
G01 Z-0.450 F30
G03 F360
X40.815Y53.181 I-0.111
G01 Z-0.600 F30
G03 F360
X40.815Y53.181 I-0.111
G01 Z-0.750 F30
G03 F360
X40.815Y53.181 I-0.111
G01 Z-0.900 F30
G03 F360
X40.815Y53.181 I-0.111
G01 Z-1.050 F30
G03 F360
X40.815Y53.181 I-0.111
G01 Z-1.200 F30
G03 F360
X40.815Y53.181 I-0.111
G01 Z-1.350 F30
G03 F360
X40.815Y53.181 I-0.111
G01 Z-1.500 F30
G03 F360
X40.815Y53.181 I-0.111
G01 Z-1.600 F30
G03 F360
X40.815Y53.181 I-0.111
G00 Z1.000
G00 X38.275Y53.181
G01 Z-0.150 F30
G03 F360
X38.275Y53.181 I-0.111
G01 Z-0.300 F30
G03 F360
X38.275Y53.181 I-0.111
G01 Z-0.450 F30
G03 F360
X38.275Y53.181 I-0.111
G01 Z-0.600 F30
G03 F360
X38.275Y53.181 I-0.111
G01 Z-0.750 F30
G03 F360
X38.275Y53.181 I-0.111
G01 Z-0.900 F30
G03 F360
X38.275Y53.181 I-0.111
G01 Z-1.050 F30
G03 F360
X38.275Y53.181 I-0.111
G01 Z-1.200 F30
G03 F360
X38.275Y53.181 I-0.111
G01 Z-1.350 F30
G03 F360
X38.275Y53.181 I-0.111
G01 Z-1.500 F30
G03 F360
X38.275Y53.181 I-0.111
G01 Z-1.600 F30
G03 F360
X38.275Y53.181 I-0.111
G00 Z1.000
G00 X35.735Y53.181
G01 Z-0.150 F30
G03 F360
X35.735Y53.181 I-0.111
G01 Z-0.300 F30
G03 F360
X35.735Y53.181 I-0.111
G01 Z-0.450 F30
G03 F360
X35.735Y53.181 I-0.111
G01 Z-0.600 F30
G03 F360
X35.735Y53.181 I-0.111
G01 Z-0.750 F30
G03 F360
X35.735Y53.181 I-0.111
G01 Z-0.900 F30
G03 F360
X35.735Y53.181 I-0.111
G01 Z-1.050 F30
G03 F360
X35.735Y53.181 I-0.111
G01 Z-1.200 F30
G03 F360
X35.735Y53.181 I-0.111
G01 Z-1.350 F30
G03 F360
X35.735Y53.181 I-0.111
G01 Z-1.500 F30
G03 F360
X35.735Y53.181 I-0.111
G01 Z-1.600 F30
G03 F360
X35.735Y53.181 I-0.111
G00 Z1.000
G00 X33.195Y53.181
G01 Z-0.150 F30
G03 F360
X33.195Y53.181 I-0.111
G01 Z-0.300 F30
G03 F360
X33.195Y53.181 I-0.111
G01 Z-0.450 F30
G03 F360
X33.195Y53.181 I-0.111
G01 Z-0.600 F30
G03 F360
X33.195Y53.181 I-0.111
G01 Z-0.750 F30
G03 F360
X33.195Y53.181 I-0.111
G01 Z-0.900 F30
G03 F360
X33.195Y53.181 I-0.111
G01 Z-1.050 F30
G03 F360
X33.195Y53.181 I-0.111
G01 Z-1.200 F30
G03 F360
X33.195Y53.181 I-0.111
G01 Z-1.350 F30
G03 F360
X33.195Y53.181 I-0.111
G01 Z-1.500 F30
G03 F360
X33.195Y53.181 I-0.111
G01 Z-1.600 F30
G03 F360
X33.195Y53.181 I-0.111
G00 Z1.000
G00 X30.655Y53.181
G01 Z-0.150 F30
G03 F360
X30.655Y53.181 I-0.111
G01 Z-0.300 F30
G03 F360
X30.655Y53.181 I-0.111
G01 Z-0.450 F30
G03 F360
X30.655Y53.181 I-0.111
G01 Z-0.600 F30
G03 F360
X30.655Y53.181 I-0.111
G01 Z-0.750 F30
G03 F360
X30.655Y53.181 I-0.111
G01 Z-0.900 F30
G03 F360
X30.655Y53.181 I-0.111
G01 Z-1.050 F30
G03 F360
X30.655Y53.181 I-0.111
G01 Z-1.200 F30
G03 F360
X30.655Y53.181 I-0.111
G01 Z-1.350 F30
G03 F360
X30.655Y53.181 I-0.111
G01 Z-1.500 F30
G03 F360
X30.655Y53.181 I-0.111
G01 Z-1.600 F30
G03 F360
X30.655Y53.181 I-0.111
G00 Z1.000
G00 X52.499Y4.921
G01 Z-0.150 F30
G03 F360
X52.499Y4.921 I-0.111
G01 Z-0.300 F30
G03 F360
X52.499Y4.921 I-0.111
G01 Z-0.450 F30
G03 F360
X52.499Y4.921 I-0.111
G01 Z-0.600 F30
G03 F360
X52.499Y4.921 I-0.111
G01 Z-0.750 F30
G03 F360
X52.499Y4.921 I-0.111
G01 Z-0.900 F30
G03 F360
X52.499Y4.921 I-0.111
G01 Z-1.050 F30
G03 F360
X52.499Y4.921 I-0.111
G01 Z-1.200 F30
G03 F360
X52.499Y4.921 I-0.111
G01 Z-1.350 F30
G03 F360
X52.499Y4.921 I-0.111
G01 Z-1.500 F30
G03 F360
X52.499Y4.921 I-0.111
G01 Z-1.600 F30
G03 F360
X52.499Y4.921 I-0.111
G00 Z1.000
G00 X55.039Y4.921
G01 Z-0.150 F30
G03 F360
X55.039Y4.921 I-0.111
G01 Z-0.300 F30
G03 F360
X55.039Y4.921 I-0.111
G01 Z-0.450 F30
G03 F360
X55.039Y4.921 I-0.111
G01 Z-0.600 F30
G03 F360
X55.039Y4.921 I-0.111
G01 Z-0.750 F30
G03 F360
X55.039Y4.921 I-0.111
G01 Z-0.900 F30
G03 F360
X55.039Y4.921 I-0.111
G01 Z-1.050 F30
G03 F360
X55.039Y4.921 I-0.111
G01 Z-1.200 F30
G03 F360
X55.039Y4.921 I-0.111
G01 Z-1.350 F30
G03 F360
X55.039Y4.921 I-0.111
G01 Z-1.500 F30
G03 F360
X55.039Y4.921 I-0.111
G01 Z-1.600 F30
G03 F360
X55.039Y4.921 I-0.111
G00 Z1.000
G00 X57.579Y4.921
G01 Z-0.150 F30
G03 F360
X57.579Y4.921 I-0.111
G01 Z-0.300 F30
G03 F360
X57.579Y4.921 I-0.111
G01 Z-0.450 F30
G03 F360
X57.579Y4.921 I-0.111
G01 Z-0.600 F30
G03 F360
X57.579Y4.921 I-0.111
G01 Z-0.750 F30
G03 F360
X57.579Y4.921 I-0.111
G01 Z-0.900 F30
G03 F360
X57.579Y4.921 I-0.111
G01 Z-1.050 F30
G03 F360
X57.579Y4.921 I-0.111
G01 Z-1.200 F30
G03 F360
X57.579Y4.921 I-0.111
G01 Z-1.350 F30
G03 F360
X57.579Y4.921 I-0.111
G01 Z-1.500 F30
G03 F360
X57.579Y4.921 I-0.111
G01 Z-1.600 F30
G03 F360
X57.579Y4.921 I-0.111
G00 Z1.000
G00 X60.119Y4.921
G01 Z-0.150 F30
G03 F360
X60.119Y4.921 I-0.111
G01 Z-0.300 F30
G03 F360
X60.119Y4.921 I-0.111
G01 Z-0.450 F30
G03 F360
X60.119Y4.921 I-0.111
G01 Z-0.600 F30
G03 F360
X60.119Y4.921 I-0.111
G01 Z-0.750 F30
G03 F360
X60.119Y4.921 I-0.111
G01 Z-0.900 F30
G03 F360
X60.119Y4.921 I-0.111
G01 Z-1.050 F30
G03 F360
X60.119Y4.921 I-0.111
G01 Z-1.200 F30
G03 F360
X60.119Y4.921 I-0.111
G01 Z-1.350 F30
G03 F360
X60.119Y4.921 I-0.111
G01 Z-1.500 F30
G03 F360
X60.119Y4.921 I-0.111
G01 Z-1.600 F30
G03 F360
X60.119Y4.921 I-0.111
G00 Z1.000
G00 X62.659Y4.921
G01 Z-0.150 F30
G03 F360
X62.659Y4.921 I-0.111
G01 Z-0.300 F30
G03 F360
X62.659Y4.921 I-0.111
G01 Z-0.450 F30
G03 F360
X62.659Y4.921 I-0.111
G01 Z-0.600 F30
G03 F360
X62.659Y4.921 I-0.111
G01 Z-0.750 F30
G03 F360
X62.659Y4.921 I-0.111
G01 Z-0.900 F30
G03 F360
X62.659Y4.921 I-0.111
G01 Z-1.050 F30
G03 F360
X62.659Y4.921 I-0.111
G01 Z-1.200 F30
G03 F360
X62.659Y4.921 I-0.111
G01 Z-1.350 F30
G03 F360
X62.659Y4.921 I-0.111
G01 Z-1.500 F30
G03 F360
X62.659Y4.921 I-0.111
G01 Z-1.600 F30
G03 F360
X62.659Y4.921 I-0.111
G00 Z1.000
G00 X65.199Y4.921
G01 Z-0.150 F30
G03 F360
X65.199Y4.921 I-0.111
G01 Z-0.300 F30
G03 F360
X65.199Y4.921 I-0.111
G01 Z-0.450 F30
G03 F360
X65.199Y4.921 I-0.111
G01 Z-0.600 F30
G03 F360
X65.199Y4.921 I-0.111
G01 Z-0.750 F30
G03 F360
X65.199Y4.921 I-0.111
G01 Z-0.900 F30
G03 F360
X65.199Y4.921 I-0.111
G01 Z-1.050 F30
G03 F360
X65.199Y4.921 I-0.111
G01 Z-1.200 F30
G03 F360
X65.199Y4.921 I-0.111
G01 Z-1.350 F30
G03 F360
X65.199Y4.921 I-0.111
G01 Z-1.500 F30
G03 F360
X65.199Y4.921 I-0.111
G01 Z-1.600 F30
G03 F360
X65.199Y4.921 I-0.111
G00 Z1.000
G00 X25.575Y53.181
G01 Z-0.150 F30
G03 F360
X25.575Y53.181 I-0.111
G01 Z-0.300 F30
G03 F360
X25.575Y53.181 I-0.111
G01 Z-0.450 F30
G03 F360
X25.575Y53.181 I-0.111
G01 Z-0.600 F30
G03 F360
X25.575Y53.181 I-0.111
G01 Z-0.750 F30
G03 F360
X25.575Y53.181 I-0.111
G01 Z-0.900 F30
G03 F360
X25.575Y53.181 I-0.111
G01 Z-1.050 F30
G03 F360
X25.575Y53.181 I-0.111
G01 Z-1.200 F30
G03 F360
X25.575Y53.181 I-0.111
G01 Z-1.350 F30
G03 F360
X25.575Y53.181 I-0.111
G01 Z-1.500 F30
G03 F360
X25.575Y53.181 I-0.111
G01 Z-1.600 F30
G03 F360
X25.575Y53.181 I-0.111
G00 Z1.000
G00 X28.115Y53.181
G01 Z-0.150 F30
G03 F360
X28.115Y53.181 I-0.111
G01 Z-0.300 F30
G03 F360
X28.115Y53.181 I-0.111
G01 Z-0.450 F30
G03 F360
X28.115Y53.181 I-0.111
G01 Z-0.600 F30
G03 F360
X28.115Y53.181 I-0.111
G01 Z-0.750 F30
G03 F360
X28.115Y53.181 I-0.111
G01 Z-0.900 F30
G03 F360
X28.115Y53.181 I-0.111
G01 Z-1.050 F30
G03 F360
X28.115Y53.181 I-0.111
G01 Z-1.200 F30
G03 F360
X28.115Y53.181 I-0.111
G01 Z-1.350 F30
G03 F360
X28.115Y53.181 I-0.111
G01 Z-1.500 F30
G03 F360
X28.115Y53.181 I-0.111
G01 Z-1.600 F30
G03 F360
X28.115Y53.181 I-0.111
G00 Z1.000
G00 X44.879Y4.921
G01 Z-0.150 F30
G03 F360
X44.879Y4.921 I-0.111
G01 Z-0.300 F30
G03 F360
X44.879Y4.921 I-0.111
G01 Z-0.450 F30
G03 F360
X44.879Y4.921 I-0.111
G01 Z-0.600 F30
G03 F360
X44.879Y4.921 I-0.111
G01 Z-0.750 F30
G03 F360
X44.879Y4.921 I-0.111
G01 Z-0.900 F30
G03 F360
X44.879Y4.921 I-0.111
G01 Z-1.050 F30
G03 F360
X44.879Y4.921 I-0.111
G01 Z-1.200 F30
G03 F360
X44.879Y4.921 I-0.111
G01 Z-1.350 F30
G03 F360
X44.879Y4.921 I-0.111
G01 Z-1.500 F30
G03 F360
X44.879Y4.921 I-0.111
G01 Z-1.600 F30
G03 F360
X44.879Y4.921 I-0.111
G00 Z1.000
G00 X42.339Y4.921
G01 Z-0.150 F30
G03 F360
X42.339Y4.921 I-0.111
G01 Z-0.300 F30
G03 F360
X42.339Y4.921 I-0.111
G01 Z-0.450 F30
G03 F360
X42.339Y4.921 I-0.111
G01 Z-0.600 F30
G03 F360
X42.339Y4.921 I-0.111
G01 Z-0.750 F30
G03 F360
X42.339Y4.921 I-0.111
G01 Z-0.900 F30
G03 F360
X42.339Y4.921 I-0.111
G01 Z-1.050 F30
G03 F360
X42.339Y4.921 I-0.111
G01 Z-1.200 F30
G03 F360
X42.339Y4.921 I-0.111
G01 Z-1.350 F30
G03 F360
X42.339Y4.921 I-0.111
G01 Z-1.500 F30
G03 F360
X42.339Y4.921 I-0.111
G01 Z-1.600 F30
G03 F360
X42.339Y4.921 I-0.111
G00 Z1.000
G00 X67.866Y27.781
G01 Z-0.150 F30
G03 F360
X67.866Y27.781 I-0.111
G01 Z-0.300 F30
G03 F360
X67.866Y27.781 I-0.111
G01 Z-0.450 F30
G03 F360
X67.866Y27.781 I-0.111
G01 Z-0.600 F30
G03 F360
X67.866Y27.781 I-0.111
G01 Z-0.750 F30
G03 F360
X67.866Y27.781 I-0.111
G01 Z-0.900 F30
G03 F360
X67.866Y27.781 I-0.111
G01 Z-1.050 F30
G03 F360
X67.866Y27.781 I-0.111
G01 Z-1.200 F30
G03 F360
X67.866Y27.781 I-0.111
G01 Z-1.350 F30
G03 F360
X67.866Y27.781 I-0.111
G01 Z-1.500 F30
G03 F360
X67.866Y27.781 I-0.111
G01 Z-1.600 F30
G03 F360
X67.866Y27.781 I-0.111
G00 Z1.000
G00 X32.179Y4.921
G01 Z-0.150 F30
G03 F360
X32.179Y4.921 I-0.111
G01 Z-0.300 F30
G03 F360
X32.179Y4.921 I-0.111
G01 Z-0.450 F30
G03 F360
X32.179Y4.921 I-0.111
G01 Z-0.600 F30
G03 F360
X32.179Y4.921 I-0.111
G01 Z-0.750 F30
G03 F360
X32.179Y4.921 I-0.111
G01 Z-0.900 F30
G03 F360
X32.179Y4.921 I-0.111
G01 Z-1.050 F30
G03 F360
X32.179Y4.921 I-0.111
G01 Z-1.200 F30
G03 F360
X32.179Y4.921 I-0.111
G01 Z-1.350 F30
G03 F360
X32.179Y4.921 I-0.111
G01 Z-1.500 F30
G03 F360
X32.179Y4.921 I-0.111
G01 Z-1.600 F30
G03 F360
X32.179Y4.921 I-0.111
G00 Z1.000
G00 X65.326Y32.861
G01 Z-0.150 F30
G03 F360
X65.326Y32.861 I-0.111
G01 Z-0.300 F30
G03 F360
X65.326Y32.861 I-0.111
G01 Z-0.450 F30
G03 F360
X65.326Y32.861 I-0.111
G01 Z-0.600 F30
G03 F360
X65.326Y32.861 I-0.111
G01 Z-0.750 F30
G03 F360
X65.326Y32.861 I-0.111
G01 Z-0.900 F30
G03 F360
X65.326Y32.861 I-0.111
G01 Z-1.050 F30
G03 F360
X65.326Y32.861 I-0.111
G01 Z-1.200 F30
G03 F360
X65.326Y32.861 I-0.111
G01 Z-1.350 F30
G03 F360
X65.326Y32.861 I-0.111
G01 Z-1.500 F30
G03 F360
X65.326Y32.861 I-0.111
G01 Z-1.600 F30
G03 F360
X65.326Y32.861 I-0.111
G00 Z1.000
G00 X67.866Y30.321
G01 Z-0.150 F30
G03 F360
X67.866Y30.321 I-0.111
G01 Z-0.300 F30
G03 F360
X67.866Y30.321 I-0.111
G01 Z-0.450 F30
G03 F360
X67.866Y30.321 I-0.111
G01 Z-0.600 F30
G03 F360
X67.866Y30.321 I-0.111
G01 Z-0.750 F30
G03 F360
X67.866Y30.321 I-0.111
G01 Z-0.900 F30
G03 F360
X67.866Y30.321 I-0.111
G01 Z-1.050 F30
G03 F360
X67.866Y30.321 I-0.111
G01 Z-1.200 F30
G03 F360
X67.866Y30.321 I-0.111
G01 Z-1.350 F30
G03 F360
X67.866Y30.321 I-0.111
G01 Z-1.500 F30
G03 F360
X67.866Y30.321 I-0.111
G01 Z-1.600 F30
G03 F360
X67.866Y30.321 I-0.111
G00 Z1.000
G00 X29.639Y4.921
G01 Z-0.150 F30
G03 F360
X29.639Y4.921 I-0.111
G01 Z-0.300 F30
G03 F360
X29.639Y4.921 I-0.111
G01 Z-0.450 F30
G03 F360
X29.639Y4.921 I-0.111
G01 Z-0.600 F30
G03 F360
X29.639Y4.921 I-0.111
G01 Z-0.750 F30
G03 F360
X29.639Y4.921 I-0.111
G01 Z-0.900 F30
G03 F360
X29.639Y4.921 I-0.111
G01 Z-1.050 F30
G03 F360
X29.639Y4.921 I-0.111
G01 Z-1.200 F30
G03 F360
X29.639Y4.921 I-0.111
G01 Z-1.350 F30
G03 F360
X29.639Y4.921 I-0.111
G01 Z-1.500 F30
G03 F360
X29.639Y4.921 I-0.111
G01 Z-1.600 F30
G03 F360
X29.639Y4.921 I-0.111
G00 Z1.000
G00 X34.719Y4.921
G01 Z-0.150 F30
G03 F360
X34.719Y4.921 I-0.111
G01 Z-0.300 F30
G03 F360
X34.719Y4.921 I-0.111
G01 Z-0.450 F30
G03 F360
X34.719Y4.921 I-0.111
G01 Z-0.600 F30
G03 F360
X34.719Y4.921 I-0.111
G01 Z-0.750 F30
G03 F360
X34.719Y4.921 I-0.111
G01 Z-0.900 F30
G03 F360
X34.719Y4.921 I-0.111
G01 Z-1.050 F30
G03 F360
X34.719Y4.921 I-0.111
G01 Z-1.200 F30
G03 F360
X34.719Y4.921 I-0.111
G01 Z-1.350 F30
G03 F360
X34.719Y4.921 I-0.111
G01 Z-1.500 F30
G03 F360
X34.719Y4.921 I-0.111
G01 Z-1.600 F30
G03 F360
X34.719Y4.921 I-0.111
G00 Z1.000
G00 X65.326Y27.781
G01 Z-0.150 F30
G03 F360
X65.326Y27.781 I-0.111
G01 Z-0.300 F30
G03 F360
X65.326Y27.781 I-0.111
G01 Z-0.450 F30
G03 F360
X65.326Y27.781 I-0.111
G01 Z-0.600 F30
G03 F360
X65.326Y27.781 I-0.111
G01 Z-0.750 F30
G03 F360
X65.326Y27.781 I-0.111
G01 Z-0.900 F30
G03 F360
X65.326Y27.781 I-0.111
G01 Z-1.050 F30
G03 F360
X65.326Y27.781 I-0.111
G01 Z-1.200 F30
G03 F360
X65.326Y27.781 I-0.111
G01 Z-1.350 F30
G03 F360
X65.326Y27.781 I-0.111
G01 Z-1.500 F30
G03 F360
X65.326Y27.781 I-0.111
G01 Z-1.600 F30
G03 F360
X65.326Y27.781 I-0.111
G00 Z1.000
G00 X65.326Y30.321
G01 Z-0.150 F30
G03 F360
X65.326Y30.321 I-0.111
G01 Z-0.300 F30
G03 F360
X65.326Y30.321 I-0.111
G01 Z-0.450 F30
G03 F360
X65.326Y30.321 I-0.111
G01 Z-0.600 F30
G03 F360
X65.326Y30.321 I-0.111
G01 Z-0.750 F30
G03 F360
X65.326Y30.321 I-0.111
G01 Z-0.900 F30
G03 F360
X65.326Y30.321 I-0.111
G01 Z-1.050 F30
G03 F360
X65.326Y30.321 I-0.111
G01 Z-1.200 F30
G03 F360
X65.326Y30.321 I-0.111
G01 Z-1.350 F30
G03 F360
X65.326Y30.321 I-0.111
G01 Z-1.500 F30
G03 F360
X65.326Y30.321 I-0.111
G01 Z-1.600 F30
G03 F360
X65.326Y30.321 I-0.111
G00 Z1.000
G00 X20.495Y53.181
G01 Z-0.150 F30
G03 F360
X20.495Y53.181 I-0.111
G01 Z-0.300 F30
G03 F360
X20.495Y53.181 I-0.111
G01 Z-0.450 F30
G03 F360
X20.495Y53.181 I-0.111
G01 Z-0.600 F30
G03 F360
X20.495Y53.181 I-0.111
G01 Z-0.750 F30
G03 F360
X20.495Y53.181 I-0.111
G01 Z-0.900 F30
G03 F360
X20.495Y53.181 I-0.111
G01 Z-1.050 F30
G03 F360
X20.495Y53.181 I-0.111
G01 Z-1.200 F30
G03 F360
X20.495Y53.181 I-0.111
G01 Z-1.350 F30
G03 F360
X20.495Y53.181 I-0.111
G01 Z-1.500 F30
G03 F360
X20.495Y53.181 I-0.111
G01 Z-1.600 F30
G03 F360
X20.495Y53.181 I-0.111
G00 Z1.000
G00 X23.035Y53.181
G01 Z-0.150 F30
G03 F360
X23.035Y53.181 I-0.111
G01 Z-0.300 F30
G03 F360
X23.035Y53.181 I-0.111
G01 Z-0.450 F30
G03 F360
X23.035Y53.181 I-0.111
G01 Z-0.600 F30
G03 F360
X23.035Y53.181 I-0.111
G01 Z-0.750 F30
G03 F360
X23.035Y53.181 I-0.111
G01 Z-0.900 F30
G03 F360
X23.035Y53.181 I-0.111
G01 Z-1.050 F30
G03 F360
X23.035Y53.181 I-0.111
G01 Z-1.200 F30
G03 F360
X23.035Y53.181 I-0.111
G01 Z-1.350 F30
G03 F360
X23.035Y53.181 I-0.111
G01 Z-1.500 F30
G03 F360
X23.035Y53.181 I-0.111
G01 Z-1.600 F30
G03 F360
X23.035Y53.181 I-0.111
G00 Z1.000
G00 X47.419Y4.921
G01 Z-0.150 F30
G03 F360
X47.419Y4.921 I-0.111
G01 Z-0.300 F30
G03 F360
X47.419Y4.921 I-0.111
G01 Z-0.450 F30
G03 F360
X47.419Y4.921 I-0.111
G01 Z-0.600 F30
G03 F360
X47.419Y4.921 I-0.111
G01 Z-0.750 F30
G03 F360
X47.419Y4.921 I-0.111
G01 Z-0.900 F30
G03 F360
X47.419Y4.921 I-0.111
G01 Z-1.050 F30
G03 F360
X47.419Y4.921 I-0.111
G01 Z-1.200 F30
G03 F360
X47.419Y4.921 I-0.111
G01 Z-1.350 F30
G03 F360
X47.419Y4.921 I-0.111
G01 Z-1.500 F30
G03 F360
X47.419Y4.921 I-0.111
G01 Z-1.600 F30
G03 F360
X47.419Y4.921 I-0.111
G00 Z1.000
G00 X28.591Y49.340
G01 Z-0.150 F30
G03 F360
X28.591Y49.340 I-0.746
G01 Z-0.300 F30
G03 F360
X28.591Y49.340 I-0.746
G01 Z-0.450 F30
G03 F360
X28.591Y49.340 I-0.746
G01 Z-0.600 F30
G03 F360
X28.591Y49.340 I-0.746
G01 Z-0.750 F30
G03 F360
X28.591Y49.340 I-0.746
G01 Z-0.900 F30
G03 F360
X28.591Y49.340 I-0.746
G01 Z-1.050 F30
G03 F360
X28.591Y49.340 I-0.746
G01 Z-1.200 F30
G03 F360
X28.591Y49.340 I-0.746
G01 Z-1.350 F30
G03 F360
X28.591Y49.340 I-0.746
G01 Z-1.500 F30
G03 F360
X28.591Y49.340 I-0.746
G01 Z-1.600 F30
G03 F360
X28.591Y49.340 I-0.746
G00 Z1.000
G00 X25.543Y49.340
G01 Z-0.150 F30
G03 F360
X25.543Y49.340 I-0.746
G01 Z-0.300 F30
G03 F360
X25.543Y49.340 I-0.746
G01 Z-0.450 F30
G03 F360
X25.543Y49.340 I-0.746
G01 Z-0.600 F30
G03 F360
X25.543Y49.340 I-0.746
G01 Z-0.750 F30
G03 F360
X25.543Y49.340 I-0.746
G01 Z-0.900 F30
G03 F360
X25.543Y49.340 I-0.746
G01 Z-1.050 F30
G03 F360
X25.543Y49.340 I-0.746
G01 Z-1.200 F30
G03 F360
X25.543Y49.340 I-0.746
G01 Z-1.350 F30
G03 F360
X25.543Y49.340 I-0.746
G01 Z-1.500 F30
G03 F360
X25.543Y49.340 I-0.746
G01 Z-1.600 F30
G03 F360
X25.543Y49.340 I-0.746
G00 Z1.000
G00 X25.543Y28.512
G01 Z-0.150 F30
G03 F360
X25.543Y28.512 I-0.746
G01 Z-0.300 F30
G03 F360
X25.543Y28.512 I-0.746
G01 Z-0.450 F30
G03 F360
X25.543Y28.512 I-0.746
G01 Z-0.600 F30
G03 F360
X25.543Y28.512 I-0.746
G01 Z-0.750 F30
G03 F360
X25.543Y28.512 I-0.746
G01 Z-0.900 F30
G03 F360
X25.543Y28.512 I-0.746
G01 Z-1.050 F30
G03 F360
X25.543Y28.512 I-0.746
G01 Z-1.200 F30
G03 F360
X25.543Y28.512 I-0.746
G01 Z-1.350 F30
G03 F360
X25.543Y28.512 I-0.746
G01 Z-1.500 F30
G03 F360
X25.543Y28.512 I-0.746
G01 Z-1.600 F30
G03 F360
X25.543Y28.512 I-0.746
G00 Z1.000
G00 X28.591Y28.512
G01 Z-0.150 F30
G03 F360
X28.591Y28.512 I-0.746
G01 Z-0.300 F30
G03 F360
X28.591Y28.512 I-0.746
G01 Z-0.450 F30
G03 F360
X28.591Y28.512 I-0.746
G01 Z-0.600 F30
G03 F360
X28.591Y28.512 I-0.746
G01 Z-0.750 F30
G03 F360
X28.591Y28.512 I-0.746
G01 Z-0.900 F30
G03 F360
X28.591Y28.512 I-0.746
G01 Z-1.050 F30
G03 F360
X28.591Y28.512 I-0.746
G01 Z-1.200 F30
G03 F360
X28.591Y28.512 I-0.746
G01 Z-1.350 F30
G03 F360
X28.591Y28.512 I-0.746
G01 Z-1.500 F30
G03 F360
X28.591Y28.512 I-0.746
G01 Z-1.600 F30
G03 F360
X28.591Y28.512 I-0.746
(-->HOLE IS TOO SMALL, I CAN'T CUT THAT!!)
G00 Z1.000
G00 X37.749Y37.338
G01 Z-0.150 F30
G03 F360
X37.749Y37.338 I0.000
(-->HOLE IS TOO SMALL, I CAN'T CUT THAT!!)
G01 Z-0.300 F30
G03 F360
X37.749Y37.338 I0.000
(-->HOLE IS TOO SMALL, I CAN'T CUT THAT!!)
G01 Z-0.450 F30
G03 F360
X37.749Y37.338 I0.000
(-->HOLE IS TOO SMALL, I CAN'T CUT THAT!!)
G01 Z-0.600 F30
G03 F360
X37.749Y37.338 I0.000
(-->HOLE IS TOO SMALL, I CAN'T CUT THAT!!)
G01 Z-0.750 F30
G03 F360
X37.749Y37.338 I0.000
(-->HOLE IS TOO SMALL, I CAN'T CUT THAT!!)
G01 Z-0.900 F30
G03 F360
X37.749Y37.338 I0.000
(-->HOLE IS TOO SMALL, I CAN'T CUT THAT!!)
G01 Z-1.050 F30
G03 F360
X37.749Y37.338 I0.000
(-->HOLE IS TOO SMALL, I CAN'T CUT THAT!!)
G01 Z-1.200 F30
G03 F360
X37.749Y37.338 I0.000
(-->HOLE IS TOO SMALL, I CAN'T CUT THAT!!)
G01 Z-1.350 F30
G03 F360
X37.749Y37.338 I0.000
(-->HOLE IS TOO SMALL, I CAN'T CUT THAT!!)
G01 Z-1.500 F30
G03 F360
X37.749Y37.338 I0.000
(-->HOLE IS TOO SMALL, I CAN'T CUT THAT!!)
G01 Z-1.600 F30
G03 F360
X37.749Y37.338 I0.000
(-->HOLE IS TOO SMALL, I CAN'T CUT THAT!!)
G00 Z1.000
G00 X17.683Y19.558
G01 Z-0.150 F30
G03 F360
X17.683Y19.558 I0.000
(-->HOLE IS TOO SMALL, I CAN'T CUT THAT!!)
G01 Z-0.300 F30
G03 F360
X17.683Y19.558 I0.000
(-->HOLE IS TOO SMALL, I CAN'T CUT THAT!!)
G01 Z-0.450 F30
G03 F360
X17.683Y19.558 I0.000
(-->HOLE IS TOO SMALL, I CAN'T CUT THAT!!)
G01 Z-0.600 F30
G03 F360
X17.683Y19.558 I0.000
(-->HOLE IS TOO SMALL, I CAN'T CUT THAT!!)
G01 Z-0.750 F30
G03 F360
X17.683Y19.558 I0.000
(-->HOLE IS TOO SMALL, I CAN'T CUT THAT!!)
G01 Z-0.900 F30
G03 F360
X17.683Y19.558 I0.000
(-->HOLE IS TOO SMALL, I CAN'T CUT THAT!!)
G01 Z-1.050 F30
G03 F360
X17.683Y19.558 I0.000
(-->HOLE IS TOO SMALL, I CAN'T CUT THAT!!)
G01 Z-1.200 F30
G03 F360
X17.683Y19.558 I0.000
(-->HOLE IS TOO SMALL, I CAN'T CUT THAT!!)
G01 Z-1.350 F30
G03 F360
X17.683Y19.558 I0.000
(-->HOLE IS TOO SMALL, I CAN'T CUT THAT!!)
G01 Z-1.500 F30
G03 F360
X17.683Y19.558 I0.000
(-->HOLE IS TOO SMALL, I CAN'T CUT THAT!!)
G01 Z-1.600 F30
G03 F360
X17.683Y19.558 I0.000
(-->HOLE IS TOO SMALL, I CAN'T CUT THAT!!)
G00 Z1.000
G00 X9.809Y25.146
G01 Z-0.150 F30
G03 F360
X9.809Y25.146 I0.000
(-->HOLE IS TOO SMALL, I CAN'T CUT THAT!!)
G01 Z-0.300 F30
G03 F360
X9.809Y25.146 I0.000
(-->HOLE IS TOO SMALL, I CAN'T CUT THAT!!)
G01 Z-0.450 F30
G03 F360
X9.809Y25.146 I0.000
(-->HOLE IS TOO SMALL, I CAN'T CUT THAT!!)
G01 Z-0.600 F30
G03 F360
X9.809Y25.146 I0.000
(-->HOLE IS TOO SMALL, I CAN'T CUT THAT!!)
G01 Z-0.750 F30
G03 F360
X9.809Y25.146 I0.000
(-->HOLE IS TOO SMALL, I CAN'T CUT THAT!!)
G01 Z-0.900 F30
G03 F360
X9.809Y25.146 I0.000
(-->HOLE IS TOO SMALL, I CAN'T CUT THAT!!)
G01 Z-1.050 F30
G03 F360
X9.809Y25.146 I0.000
(-->HOLE IS TOO SMALL, I CAN'T CUT THAT!!)
G01 Z-1.200 F30
G03 F360
X9.809Y25.146 I0.000
(-->HOLE IS TOO SMALL, I CAN'T CUT THAT!!)
G01 Z-1.350 F30
G03 F360
X9.809Y25.146 I0.000
(-->HOLE IS TOO SMALL, I CAN'T CUT THAT!!)
G01 Z-1.500 F30
G03 F360
X9.809Y25.146 I0.000
(-->HOLE IS TOO SMALL, I CAN'T CUT THAT!!)
G01 Z-1.600 F30
G03 F360
X9.809Y25.146 I0.000
(-->HOLE IS TOO SMALL, I CAN'T CUT THAT!!)
G00 Z1.000
G00 X55.021Y49.276
G01 Z-0.150 F30
G03 F360
X55.021Y49.276 I0.000
(-->HOLE IS TOO SMALL, I CAN'T CUT THAT!!)
G01 Z-0.300 F30
G03 F360
X55.021Y49.276 I0.000
(-->HOLE IS TOO SMALL, I CAN'T CUT THAT!!)
G01 Z-0.450 F30
G03 F360
X55.021Y49.276 I0.000
(-->HOLE IS TOO SMALL, I CAN'T CUT THAT!!)
G01 Z-0.600 F30
G03 F360
X55.021Y49.276 I0.000
(-->HOLE IS TOO SMALL, I CAN'T CUT THAT!!)
G01 Z-0.750 F30
G03 F360
X55.021Y49.276 I0.000
(-->HOLE IS TOO SMALL, I CAN'T CUT THAT!!)
G01 Z-0.900 F30
G03 F360
X55.021Y49.276 I0.000
(-->HOLE IS TOO SMALL, I CAN'T CUT THAT!!)
G01 Z-1.050 F30
G03 F360
X55.021Y49.276 I0.000
(-->HOLE IS TOO SMALL, I CAN'T CUT THAT!!)
G01 Z-1.200 F30
G03 F360
X55.021Y49.276 I0.000
(-->HOLE IS TOO SMALL, I CAN'T CUT THAT!!)
G01 Z-1.350 F30
G03 F360
X55.021Y49.276 I0.000
(-->HOLE IS TOO SMALL, I CAN'T CUT THAT!!)
G01 Z-1.500 F30
G03 F360
X55.021Y49.276 I0.000
(-->HOLE IS TOO SMALL, I CAN'T CUT THAT!!)
G01 Z-1.600 F30
G03 F360
X55.021Y49.276 I0.000
(-->HOLE IS TOO SMALL, I CAN'T CUT THAT!!)
G00 Z1.000
G00 X38.003Y26.416
G01 Z-0.150 F30
G03 F360
X38.003Y26.416 I0.000
(-->HOLE IS TOO SMALL, I CAN'T CUT THAT!!)
G01 Z-0.300 F30
G03 F360
X38.003Y26.416 I0.000
(-->HOLE IS TOO SMALL, I CAN'T CUT THAT!!)
G01 Z-0.450 F30
G03 F360
X38.003Y26.416 I0.000
(-->HOLE IS TOO SMALL, I CAN'T CUT THAT!!)
G01 Z-0.600 F30
G03 F360
X38.003Y26.416 I0.000
(-->HOLE IS TOO SMALL, I CAN'T CUT THAT!!)
G01 Z-0.750 F30
G03 F360
X38.003Y26.416 I0.000
(-->HOLE IS TOO SMALL, I CAN'T CUT THAT!!)
G01 Z-0.900 F30
G03 F360
X38.003Y26.416 I0.000
(-->HOLE IS TOO SMALL, I CAN'T CUT THAT!!)
G01 Z-1.050 F30
G03 F360
X38.003Y26.416 I0.000
(-->HOLE IS TOO SMALL, I CAN'T CUT THAT!!)
G01 Z-1.200 F30
G03 F360
X38.003Y26.416 I0.000
(-->HOLE IS TOO SMALL, I CAN'T CUT THAT!!)
G01 Z-1.350 F30
G03 F360
X38.003Y26.416 I0.000
(-->HOLE IS TOO SMALL, I CAN'T CUT THAT!!)
G01 Z-1.500 F30
G03 F360
X38.003Y26.416 I0.000
(-->HOLE IS TOO SMALL, I CAN'T CUT THAT!!)
G01 Z-1.600 F30
G03 F360
X38.003Y26.416 I0.000
G00 Z1.000
M05
G04 P4000
G00 X0Y0
