(RS-274 Compatible G-code generated for UCCNC controller and Stepcraft 2 Mill)
(Created by in EagleCAD with the stepcraft.ulp 0.2.)
(File: "receiver_shield.brd" created on: 3/29/16 7:38 PM)
(Use a 1/32inch Bit)

G90 G94 G49
G21
G00 Z5
G00 X0Y0
S19500 M03
G04 P4000
(-->next line out of position. Retracting, and repositioning)
G00 Z1.000
G00 X4.128Y0.318
(-->Plunging, then Cutting Line)
G01 Z-0.150 F30
G01 X66.358Y0.318 F360
(-->next line out of position. Retracting, and repositioning)
G00 Z1.000
G00 X66.358Y57.785
(-->Plunging, then Cutting Line)
G01 Z-0.150 F30
G01 X4.128Y57.785 F360
G03
X0.794Y54.451 R3.334
(-->Cutting Line)
G01 X0.794Y3.651 F360
G03
X4.128Y0.318 R3.334
(-->next line out of position. Retracting, and repositioning)
G00 Z1.000
G00 X66.358Y57.785
(-->Plunging, then Cutting Line)
G01 Z-0.150 F30
G01 X68.421Y55.721 F360
(-->Cutting Line)
G01 X68.421Y43.021 F360
(-->Cutting Line)
G01 X70.961Y40.481 F360
(-->Cutting Line)
G01 X70.961Y7.461 F360
(-->Cutting Line)
G01 X68.421Y4.921 F360
(-->Cutting Line)
G01 X68.421Y2.381 F360
G02
X66.358Y0.318 R2.064
(-->next line out of position. Retracting, and repositioning)
G00 Z1.000
G00 X4.128Y0.318
(-->Plunging, then Cutting Line)
G01 Z-0.300 F30
G01 X66.358Y0.318 F360
(-->next line out of position. Retracting, and repositioning)
G00 Z1.000
G00 X66.358Y57.785
(-->Plunging, then Cutting Line)
G01 Z-0.300 F30
G01 X4.128Y57.785 F360
G03
X0.794Y54.451 R3.334
(-->Cutting Line)
G01 X0.794Y3.651 F360
G03
X4.128Y0.318 R3.334
(-->next line out of position. Retracting, and repositioning)
G00 Z1.000
G00 X66.358Y57.785
(-->Plunging, then Cutting Line)
G01 Z-0.300 F30
G01 X68.421Y55.721 F360
(-->Cutting Line)
G01 X68.421Y43.021 F360
(-->Cutting Line)
G01 X70.961Y40.481 F360
(-->Cutting Line)
G01 X70.961Y7.461 F360
(-->Cutting Line)
G01 X68.421Y4.921 F360
(-->Cutting Line)
G01 X68.421Y2.381 F360
G02
X66.358Y0.318 R2.064
(-->next line out of position. Retracting, and repositioning)
G00 Z1.000
G00 X4.128Y0.318
(-->Plunging, then Cutting Line)
G01 Z-0.450 F30
G01 X66.358Y0.318 F360
(-->next line out of position. Retracting, and repositioning)
G00 Z1.000
G00 X66.358Y57.785
(-->Plunging, then Cutting Line)
G01 Z-0.450 F30
G01 X4.128Y57.785 F360
G03
X0.794Y54.451 R3.334
(-->Cutting Line)
G01 X0.794Y3.651 F360
G03
X4.128Y0.318 R3.334
(-->next line out of position. Retracting, and repositioning)
G00 Z1.000
G00 X66.358Y57.785
(-->Plunging, then Cutting Line)
G01 Z-0.450 F30
G01 X68.421Y55.721 F360
(-->Cutting Line)
G01 X68.421Y43.021 F360
(-->Cutting Line)
G01 X70.961Y40.481 F360
(-->Cutting Line)
G01 X70.961Y7.461 F360
(-->Cutting Line)
G01 X68.421Y4.921 F360
(-->Cutting Line)
G01 X68.421Y2.381 F360
G02
X66.358Y0.318 R2.064
(-->next line out of position. Retracting, and repositioning)
G00 Z1.000
G00 X4.128Y0.318
(-->Plunging, then Cutting Line)
G01 Z-0.600 F30
G01 X66.358Y0.318 F360
(-->next line out of position. Retracting, and repositioning)
G00 Z1.000
G00 X66.358Y57.785
(-->Plunging, then Cutting Line)
G01 Z-0.600 F30
G01 X4.128Y57.785 F360
G03
X0.794Y54.451 R3.334
(-->Cutting Line)
G01 X0.794Y3.651 F360
G03
X4.128Y0.318 R3.334
(-->next line out of position. Retracting, and repositioning)
G00 Z1.000
G00 X66.358Y57.785
(-->Plunging, then Cutting Line)
G01 Z-0.600 F30
G01 X68.421Y55.721 F360
(-->Cutting Line)
G01 X68.421Y43.021 F360
(-->Cutting Line)
G01 X70.961Y40.481 F360
(-->Cutting Line)
G01 X70.961Y7.461 F360
(-->Cutting Line)
G01 X68.421Y4.921 F360
(-->Cutting Line)
G01 X68.421Y2.381 F360
G02
X66.358Y0.318 R2.064
(-->next line out of position. Retracting, and repositioning)
G00 Z1.000
G00 X4.128Y0.318
(-->Plunging, then Cutting Line)
G01 Z-0.750 F30
G01 X66.358Y0.318 F360
(-->next line out of position. Retracting, and repositioning)
G00 Z1.000
G00 X66.358Y57.785
(-->Plunging, then Cutting Line)
G01 Z-0.750 F30
G01 X4.128Y57.785 F360
G03
X0.794Y54.451 R3.334
(-->Cutting Line)
G01 X0.794Y3.651 F360
G03
X4.128Y0.318 R3.334
(-->next line out of position. Retracting, and repositioning)
G00 Z1.000
G00 X66.358Y57.785
(-->Plunging, then Cutting Line)
G01 Z-0.750 F30
G01 X68.421Y55.721 F360
(-->Cutting Line)
G01 X68.421Y43.021 F360
(-->Cutting Line)
G01 X70.961Y40.481 F360
(-->Cutting Line)
G01 X70.961Y7.461 F360
(-->Cutting Line)
G01 X68.421Y4.921 F360
(-->Cutting Line)
G01 X68.421Y2.381 F360
G02
X66.358Y0.318 R2.064
(-->next line out of position. Retracting, and repositioning)
G00 Z1.000
G00 X4.128Y0.318
(-->Plunging, then Cutting Line)
G01 Z-0.900 F30
G01 X66.358Y0.318 F360
(-->next line out of position. Retracting, and repositioning)
G00 Z1.000
G00 X66.358Y57.785
(-->Plunging, then Cutting Line)
G01 Z-0.900 F30
G01 X4.128Y57.785 F360
G03
X0.794Y54.451 R3.334
(-->Cutting Line)
G01 X0.794Y3.651 F360
G03
X4.128Y0.318 R3.334
(-->next line out of position. Retracting, and repositioning)
G00 Z1.000
G00 X66.358Y57.785
(-->Plunging, then Cutting Line)
G01 Z-0.900 F30
G01 X68.421Y55.721 F360
(-->Cutting Line)
G01 X68.421Y43.021 F360
(-->Cutting Line)
G01 X70.961Y40.481 F360
(-->Cutting Line)
G01 X70.961Y7.461 F360
(-->Cutting Line)
G01 X68.421Y4.921 F360
(-->Cutting Line)
G01 X68.421Y2.381 F360
G02
X66.358Y0.318 R2.064
(-->next line out of position. Retracting, and repositioning)
G00 Z1.000
G00 X4.128Y0.318
(-->Plunging, then Cutting Line)
G01 Z-1.050 F30
G01 X66.358Y0.318 F360
(-->next line out of position. Retracting, and repositioning)
G00 Z1.000
G00 X66.358Y57.785
(-->Plunging, then Cutting Line)
G01 Z-1.050 F30
G01 X4.128Y57.785 F360
G03
X0.794Y54.451 R3.334
(-->Cutting Line)
G01 X0.794Y3.651 F360
G03
X4.128Y0.318 R3.334
(-->next line out of position. Retracting, and repositioning)
G00 Z1.000
G00 X66.358Y57.785
(-->Plunging, then Cutting Line)
G01 Z-1.050 F30
G01 X68.421Y55.721 F360
(-->Cutting Line)
G01 X68.421Y43.021 F360
(-->Cutting Line)
G01 X70.961Y40.481 F360
(-->Cutting Line)
G01 X70.961Y7.461 F360
(-->Cutting Line)
G01 X68.421Y4.921 F360
(-->Cutting Line)
G01 X68.421Y2.381 F360
G02
X66.358Y0.318 R2.064
(-->next line out of position. Retracting, and repositioning)
G00 Z1.000
G00 X4.128Y0.318
(-->Plunging, then Cutting Line)
G01 Z-1.200 F30
G01 X66.358Y0.318 F360
(-->next line out of position. Retracting, and repositioning)
G00 Z1.000
G00 X66.358Y57.785
(-->Plunging, then Cutting Line)
G01 Z-1.200 F30
G01 X4.128Y57.785 F360
G03
X0.794Y54.451 R3.334
(-->Cutting Line)
G01 X0.794Y3.651 F360
G03
X4.128Y0.318 R3.334
(-->next line out of position. Retracting, and repositioning)
G00 Z1.000
G00 X66.358Y57.785
(-->Plunging, then Cutting Line)
G01 Z-1.200 F30
G01 X68.421Y55.721 F360
(-->Cutting Line)
G01 X68.421Y43.021 F360
(-->Cutting Line)
G01 X70.961Y40.481 F360
(-->Cutting Line)
G01 X70.961Y7.461 F360
(-->Cutting Line)
G01 X68.421Y4.921 F360
(-->Cutting Line)
G01 X68.421Y2.381 F360
G02
X66.358Y0.318 R2.064
(-->next line out of position. Retracting, and repositioning)
G00 Z1.000
G00 X4.128Y0.318
(-->Plunging, then Cutting Line)
G01 Z-1.350 F30
G01 X66.358Y0.318 F360
(-->next line out of position. Retracting, and repositioning)
G00 Z1.000
G00 X66.358Y57.785
(-->Plunging, then Cutting Line)
G01 Z-1.350 F30
G01 X4.128Y57.785 F360
G03
X0.794Y54.451 R3.334
(-->Cutting Line)
G01 X0.794Y3.651 F360
G03
X4.128Y0.318 R3.334
(-->next line out of position. Retracting, and repositioning)
G00 Z1.000
G00 X66.358Y57.785
(-->Plunging, then Cutting Line)
G01 Z-1.350 F30
G01 X68.421Y55.721 F360
(-->Cutting Line)
G01 X68.421Y43.021 F360
(-->Cutting Line)
G01 X70.961Y40.481 F360
(-->Cutting Line)
G01 X70.961Y7.461 F360
(-->Cutting Line)
G01 X68.421Y4.921 F360
(-->Cutting Line)
G01 X68.421Y2.381 F360
G02
X66.358Y0.318 R2.064
(-->next line out of position. Retracting, and repositioning)
G00 Z1.000
G00 X4.128Y0.318
(-->Plunging, then Cutting Line)
G01 Z-1.500 F30
G01 X66.358Y0.318 F360
(-->next line out of position. Retracting, and repositioning)
G00 Z1.000
G00 X66.358Y57.785
(-->Plunging, then Cutting Line)
G01 Z-1.500 F30
G01 X4.128Y57.785 F360
G03
X0.794Y54.451 R3.334
(-->Cutting Line)
G01 X0.794Y3.651 F360
G03
X4.128Y0.318 R3.334
(-->next line out of position. Retracting, and repositioning)
G00 Z1.000
G00 X66.358Y57.785
(-->Plunging, then Cutting Line)
G01 Z-1.500 F30
G01 X68.421Y55.721 F360
(-->Cutting Line)
G01 X68.421Y43.021 F360
(-->Cutting Line)
G01 X70.961Y40.481 F360
(-->Cutting Line)
G01 X70.961Y7.461 F360
(-->Cutting Line)
G01 X68.421Y4.921 F360
(-->Cutting Line)
G01 X68.421Y2.381 F360
G02
X66.358Y0.318 R2.064
(-->next line out of position. Retracting, and repositioning)
G00 Z1.000
G00 X4.128Y0.318
(-->Plunging, then Cutting Line)
G01 Z-1.600 F30
G01 X66.358Y0.318 F360
(-->next line out of position. Retracting, and repositioning)
G00 Z1.000
G00 X66.358Y57.785
(-->Plunging, then Cutting Line)
G01 Z-1.600 F30
G01 X4.128Y57.785 F360
G03
X0.794Y54.451 R3.334
(-->Cutting Line)
G01 X0.794Y3.651 F360
G03
X4.128Y0.318 R3.334
(-->next line out of position. Retracting, and repositioning)
G00 Z1.000
G00 X66.358Y57.785
(-->Plunging, then Cutting Line)
G01 Z-1.600 F30
G01 X68.421Y55.721 F360
(-->Cutting Line)
G01 X68.421Y43.021 F360
(-->Cutting Line)
G01 X70.961Y40.481 F360
(-->Cutting Line)
G01 X70.961Y7.461 F360
(-->Cutting Line)
G01 X68.421Y4.921 F360
(-->Cutting Line)
G01 X68.421Y2.381 F360
G02
X66.358Y0.318 R2.064
G00 Z1.000
M05
G04 P4000
G00 X0Y0
