(RS-274 Compatible G-code generated for UCCNC controller and Stepcraft 2 Mill)
(Created by in EagleCAD with the stepcraft.ulp 0.2.)
(File: "receiver_shield.brd" created on: 3/29/16 7:38 PM)
(Use a 1/64inch Bit)

G90 G94 G49
G21
G00 Z5
G00 X0Y0
S19500 M03
G04 P4000
(-->next line out of position. Retracting, and repositioning)
G00 Z1.000
G00 X52.324Y41.148
(-->Plunging, then Cutting Line)
G01 Z-0.050 F12
G01 X52.324Y35.560 F144
(-->Cutting Line)
G01 X50.038Y35.560 F144
(-->next line out of position. Retracting, and repositioning)
G00 Z1.000
G00 X58.420Y42.164
(-->Plunging, then Cutting Line)
G01 Z-0.050 F12
G01 X58.420Y30.480 F144
(-->next line out of position. Retracting, and repositioning)
G00 Z1.000
G00 X60.452Y41.148
(-->Plunging, then Cutting Line)
G01 Z-0.050 F12
G01 X60.452Y35.560 F144
(-->next line out of position. Retracting, and repositioning)
G00 Z1.000
G00 X62.230Y41.148
(-->Plunging, then Cutting Line)
G01 Z-0.050 F12
G01 X62.230Y35.560 F144
(-->next line out of position. Retracting, and repositioning)
G00 Z1.000
G00 X64.262Y41.148
(-->Plunging, then Cutting Line)
G01 Z-0.050 F12
G01 X64.262Y35.560 F144
(-->next line out of position. Retracting, and repositioning)
G00 Z1.000
G00 X50.292Y22.352
(-->Plunging, then Cutting Line)
G01 Z-0.050 F12
G01 X50.292Y13.716 F144
(-->next line out of position. Retracting, and repositioning)
G00 Z1.000
G00 X52.324Y22.352
(-->Plunging, then Cutting Line)
G01 Z-0.050 F12
G01 X52.324Y15.494 F144
(-->next line out of position. Retracting, and repositioning)
G00 Z1.000
G00 X60.452Y41.148
(-->Plunging, then Cutting Line)
G01 Z-0.050 F12
G01 X59.944Y41.656 F144
(-->Cutting Line)
G01 X59.944Y43.180 F144
(-->Cutting Line)
G01 X60.452Y43.688 F144
(-->Cutting Line)
G01 X60.960Y43.688 F144
(-->Cutting Line)
G01 X62.230Y43.688 F144
(-->Cutting Line)
G01 X62.738Y43.180 F144
(-->Cutting Line)
G01 X62.738Y41.656 F144
(-->Cutting Line)
G01 X62.230Y41.148 F144
(-->next line out of position. Retracting, and repositioning)
G00 Z1.000
G00 X60.452Y35.560
(-->Plunging, then Cutting Line)
G01 Z-0.050 F12
G01 X62.230Y35.560 F144
(-->next line out of position. Retracting, and repositioning)
G00 Z1.000
G00 X54.356Y41.148
(-->Plunging, then Cutting Line)
G01 Z-0.050 F12
G01 X52.324Y41.148 F144
(-->next line out of position. Retracting, and repositioning)
G00 Z1.000
G00 X34.290Y54.356
(-->Plunging, then Cutting Line)
G01 Z-0.050 F12
G01 X34.290Y22.098 F144
(-->Cutting Line)
G01 X36.830Y22.098 F144
(-->Cutting Line)
G01 X36.830Y22.606 F144
(-->Cutting Line)
G01 X36.830Y28.702 F144
(-->next line out of position. Retracting, and repositioning)
G00 Z1.000
G00 X36.830Y35.560
(-->Plunging, then Cutting Line)
G01 Z-0.050 F12
G01 X36.830Y45.466 F144
(-->Cutting Line)
G01 X36.830Y48.006 F144
(-->next line out of position. Retracting, and repositioning)
G00 Z1.000
G00 X39.370Y54.356
(-->Plunging, then Cutting Line)
G01 Z-0.050 F12
G01 X39.370Y51.816 F144
(-->next line out of position. Retracting, and repositioning)
G00 Z1.000
G00 X53.594Y51.816
(-->Plunging, then Cutting Line)
G01 Z-0.050 F12
G01 X51.054Y51.816 F144
(-->Cutting Line)
G01 X48.514Y51.816 F144
(-->Cutting Line)
G01 X46.228Y51.816 F144
(-->Cutting Line)
G01 X45.720Y52.324 F144
(-->Cutting Line)
G01 X45.720Y54.864 F144
(-->Cutting Line)
G01 X45.720Y56.134 F144
(-->next line out of position. Retracting, and repositioning)
G00 Z1.000
G00 X39.370Y54.356
(-->Plunging, then Cutting Line)
G01 Z-0.050 F12
G01 X41.910Y54.356 F144
(-->Cutting Line)
G01 X44.450Y54.356 F144
(-->Cutting Line)
G01 X44.450Y51.816 F144
(-->Cutting Line)
G01 X41.910Y51.816 F144
(-->Cutting Line)
G01 X39.370Y51.816 F144
(-->next line out of position. Retracting, and repositioning)
G00 Z1.000
G00 X41.910Y54.356
(-->Plunging, then Cutting Line)
G01 Z-0.050 F12
G01 X41.910Y51.816 F144
(-->next line out of position. Retracting, and repositioning)
G00 Z1.000
G00 X31.750Y54.356
(-->Plunging, then Cutting Line)
G01 Z-0.050 F12
G01 X31.750Y21.082 F144
(-->next line out of position. Retracting, and repositioning)
G00 Z1.000
G00 X29.210Y56.134
(-->Plunging, then Cutting Line)
G01 Z-0.050 F12
G01 X45.720Y56.134 F144
(-->next line out of position. Retracting, and repositioning)
G00 Z1.000
G00 X50.292Y22.352
(-->Plunging, then Cutting Line)
G01 Z-0.050 F12
G01 X52.324Y22.352 F144
(-->next line out of position. Retracting, and repositioning)
G00 Z1.000
G00 X52.324Y15.494
(-->Plunging, then Cutting Line)
G01 Z-0.050 F12
G01 X67.310Y15.494 F144
(-->Cutting Line)
G01 X68.580Y16.764 F144
(-->Cutting Line)
G01 X68.580Y40.386 F144
(-->Cutting Line)
G01 X59.944Y49.022 F144
(-->Cutting Line)
G01 X58.674Y50.292 F144
(-->Cutting Line)
G01 X58.674Y52.070 F144
(-->Cutting Line)
G01 X58.674Y54.864 F144
(-->Cutting Line)
G01 X61.214Y54.864 F144
(-->Cutting Line)
G01 X61.214Y51.816 F144
(-->Cutting Line)
G01 X61.214Y51.054 F144
(-->Cutting Line)
G01 X68.326Y43.942 F144
(-->Cutting Line)
G01 X68.326Y42.926 F144
(-->Cutting Line)
G01 X70.866Y40.386 F144
(-->Cutting Line)
G01 X70.866Y15.748 F144
(-->Cutting Line)
G01 X67.818Y12.700 F144
(-->Cutting Line)
G01 X51.308Y12.700 F144
(-->Cutting Line)
G01 X50.292Y13.716 F144
(-->next line out of position. Retracting, and repositioning)
G00 Z1.000
G00 X64.262Y24.638
(-->Plunging, then Cutting Line)
G01 Z-0.050 F12
G01 X60.452Y28.448 F144
(-->Cutting Line)
G01 X60.452Y35.560 F144
(-->next line out of position. Retracting, and repositioning)
G00 Z1.000
G00 X62.230Y23.114
(-->Plunging, then Cutting Line)
G01 Z-0.050 F12
G01 X58.420Y26.924 F144
(-->Cutting Line)
G01 X47.752Y26.924 F144
(-->Cutting Line)
G01 X47.752Y17.272 F144
(-->Cutting Line)
G01 X45.466Y14.986 F144
(-->Cutting Line)
G01 X40.894Y14.986 F144
(-->Cutting Line)
G01 X26.416Y14.986 F144
(-->Cutting Line)
G01 X24.130Y17.272 F144
(-->Cutting Line)
G01 X24.130Y25.146 F144
(-->Cutting Line)
G01 X17.526Y25.146 F144
(-->Cutting Line)
G01 X15.494Y27.178 F144
(-->Cutting Line)
G01 X15.494Y31.242 F144
(-->Cutting Line)
G01 X15.494Y34.290 F144
(-->Cutting Line)
G01 X14.224Y34.290 F144
(-->Cutting Line)
G01 X14.224Y33.782 F144
(-->Cutting Line)
G01 X9.652Y33.782 F144
(-->Cutting Line)
G01 X9.652Y38.608 F144
(-->Cutting Line)
G01 X12.954Y41.910 F144
(-->Cutting Line)
G01 X12.954Y47.244 F144
(-->Cutting Line)
G01 X13.716Y47.244 F144
(-->Cutting Line)
G01 X16.510Y47.244 F144
(-->Cutting Line)
G01 X16.510Y48.006 F144
(-->Cutting Line)
G01 X18.034Y48.006 F144
(-->Cutting Line)
G01 X18.034Y44.196 F144
(-->Cutting Line)
G01 X16.510Y44.196 F144
(-->Cutting Line)
G01 X16.510Y46.482 F144
(-->Cutting Line)
G01 X14.478Y46.482 F144
(-->Cutting Line)
G01 X14.478Y39.878 F144
(-->Cutting Line)
G01 X13.716Y39.116 F144
(-->Cutting Line)
G01 X11.938Y39.116 F144
(-->Cutting Line)
G01 X10.668Y37.846 F144
(-->Cutting Line)
G01 X10.668Y35.560 F144
(-->Cutting Line)
G01 X12.192Y35.560 F144
(-->Cutting Line)
G01 X16.764Y35.560 F144
(-->Cutting Line)
G01 X16.764Y34.036 F144
(-->Cutting Line)
G01 X16.764Y31.242 F144
(-->Cutting Line)
G01 X16.764Y30.226 F144
(-->Cutting Line)
G01 X17.272Y29.718 F144
(-->Cutting Line)
G01 X17.272Y27.178 F144
(-->Cutting Line)
G01 X18.034Y26.416 F144
(-->Cutting Line)
G01 X23.114Y26.416 F144
(-->Cutting Line)
G01 X26.670Y26.416 F144
(-->Cutting Line)
G01 X26.670Y17.526 F144
(-->Cutting Line)
G01 X27.686Y16.510 F144
(-->Cutting Line)
G01 X43.942Y16.510 F144
(-->Cutting Line)
G01 X45.974Y18.542 F144
(-->Cutting Line)
G01 X45.974Y21.082 F144
(-->Cutting Line)
G01 X45.974Y28.702 F144
(-->Cutting Line)
G01 X56.642Y28.702 F144
(-->Cutting Line)
G01 X58.420Y30.480 F144
(-->next line out of position. Retracting, and repositioning)
G00 Z1.000
G00 X38.354Y3.556
(-->Plunging, then Cutting Line)
G01 Z-0.050 F12
G01 X40.894Y3.556 F144
(-->Cutting Line)
G01 X40.894Y14.986 F144
(-->next line out of position. Retracting, and repositioning)
G00 Z1.000
G00 X38.354Y3.556
(-->Plunging, then Cutting Line)
G01 Z-0.050 F12
G01 X38.354Y6.350 F144
(-->Cutting Line)
G01 X38.354Y12.192 F144
(-->Cutting Line)
G01 X37.084Y13.462 F144
(-->Cutting Line)
G01 X19.304Y13.462 F144
(-->Cutting Line)
G01 X16.510Y16.256 F144
(-->Cutting Line)
G01 X16.510Y23.876 F144
(-->Cutting Line)
G01 X7.874Y32.512 F144
(-->Cutting Line)
G01 X7.874Y39.370 F144
(-->Cutting Line)
G01 X11.430Y42.926 F144
(-->Cutting Line)
G01 X11.430Y53.848 F144
(-->Cutting Line)
G01 X14.478Y53.848 F144
(-->Cutting Line)
G01 X14.478Y51.562 F144
(-->Cutting Line)
G01 X14.224Y51.308 F144
(-->Cutting Line)
G01 X14.224Y49.276 F144
(-->Cutting Line)
G01 X13.716Y48.768 F144
(-->Cutting Line)
G01 X13.716Y47.244 F144
(-->next line out of position. Retracting, and repositioning)
G00 Z1.000
G00 X15.494Y31.242
(-->Plunging, then Cutting Line)
G01 Z-0.050 F12
G01 X14.224Y31.242 F144
(-->Cutting Line)
G01 X14.224Y33.782 F144
(-->next line out of position. Retracting, and repositioning)
G00 Z1.000
G00 X15.494Y41.910
(-->Plunging, then Cutting Line)
G01 Z-0.050 F12
G01 X15.494Y37.338 F144
(-->Cutting Line)
G01 X12.192Y37.338 F144
(-->Cutting Line)
G01 X12.192Y35.560 F144
(-->next line out of position. Retracting, and repositioning)
G00 Z1.000
G00 X15.494Y41.910
(-->Plunging, then Cutting Line)
G01 Z-0.050 F12
G01 X16.510Y42.926 F144
(-->Cutting Line)
G01 X16.510Y44.196 F144
(-->next line out of position. Retracting, and repositioning)
G00 Z1.000
G00 X16.764Y35.560
(-->Plunging, then Cutting Line)
G01 Z-0.050 F12
G01 X16.764Y37.084 F144
(-->Cutting Line)
G01 X16.764Y41.148 F144
(-->Cutting Line)
G01 X17.780Y42.164 F144
(-->Cutting Line)
G01 X18.796Y42.164 F144
(-->Cutting Line)
G01 X19.812Y43.180 F144
(-->Cutting Line)
G01 X19.812Y48.006 F144
(-->Cutting Line)
G01 X18.034Y48.006 F144
(-->next line out of position. Retracting, and repositioning)
G00 Z1.000
G00 X21.590Y54.356
(-->Plunging, then Cutting Line)
G01 Z-0.050 F12
G01 X21.590Y52.070 F144
(-->Cutting Line)
G01 X21.590Y49.784 F144
(-->Cutting Line)
G01 X19.812Y48.006 F144
(-->next line out of position. Retracting, and repositioning)
G00 Z1.000
G00 X21.590Y54.356
(-->Plunging, then Cutting Line)
G01 Z-0.050 F12
G01 X18.796Y54.356 F144
(-->Cutting Line)
G01 X18.796Y49.022 F144
(-->Cutting Line)
G01 X17.272Y49.022 F144
(-->Cutting Line)
G01 X17.272Y51.308 F144
(-->Cutting Line)
G01 X14.224Y51.308 F144
(-->next line out of position. Retracting, and repositioning)
G00 Z1.000
G00 X21.590Y52.070
(-->Plunging, then Cutting Line)
G01 Z-0.050 F12
G01 X24.130Y52.070 F144
(-->Cutting Line)
G01 X24.130Y54.610 F144
(-->Cutting Line)
G01 X24.130Y55.372 F144
(-->Cutting Line)
G01 X16.002Y55.372 F144
(-->Cutting Line)
G01 X14.478Y53.848 F144
(-->next line out of position. Retracting, and repositioning)
G00 Z1.000
G00 X24.130Y52.070
(-->Plunging, then Cutting Line)
G01 Z-0.050 F12
G01 X26.670Y52.070 F144
(-->Cutting Line)
G01 X26.670Y54.610 F144
(-->Cutting Line)
G01 X24.130Y54.610 F144
(-->next line out of position. Retracting, and repositioning)
G00 Z1.000
G00 X30.480Y25.908
(-->Plunging, then Cutting Line)
G01 Z-0.050 F12
G01 X29.210Y24.638 F144
(-->Cutting Line)
G01 X29.210Y21.336 F144
(-->Cutting Line)
G01 X30.734Y19.812 F144
(-->Cutting Line)
G01 X43.180Y19.812 F144
(-->Cutting Line)
G01 X44.450Y21.082 F144
(-->Cutting Line)
G01 X45.974Y21.082 F144
(-->next line out of position. Retracting, and repositioning)
G00 Z1.000
G00 X45.974Y28.702
(-->Plunging, then Cutting Line)
G01 Z-0.050 F12
G01 X45.974Y29.718 F144
(-->Cutting Line)
G01 X43.942Y29.718 F144
(-->Cutting Line)
G01 X43.942Y24.638 F144
(-->Cutting Line)
G01 X43.180Y23.876 F144
(-->Cutting Line)
G01 X43.180Y21.844 F144
(-->Cutting Line)
G01 X42.418Y21.082 F144
(-->Cutting Line)
G01 X31.750Y21.082 F144
(-->next line out of position. Retracting, and repositioning)
G00 Z1.000
G00 X34.290Y54.356
(-->Plunging, then Cutting Line)
G01 Z-0.050 F12
G01 X31.750Y54.356 F144
(-->next line out of position. Retracting, and repositioning)
G00 Z1.000
G00 X36.830Y48.006
(-->Plunging, then Cutting Line)
G01 Z-0.050 F12
G01 X36.068Y48.768 F144
(-->Cutting Line)
G01 X36.068Y52.324 F144
(-->Cutting Line)
G01 X36.576Y52.832 F144
(-->Cutting Line)
G01 X36.576Y54.356 F144
(-->Cutting Line)
G01 X34.290Y54.356 F144
(-->next line out of position. Retracting, and repositioning)
G00 Z1.000
G00 X36.830Y45.466
(-->Plunging, then Cutting Line)
G01 Z-0.050 F12
G01 X39.116Y45.466 F144
(-->Cutting Line)
G01 X39.116Y47.498 F144
(-->Cutting Line)
G01 X37.338Y49.276 F144
(-->Cutting Line)
G01 X37.338Y54.356 F144
(-->Cutting Line)
G01 X39.370Y54.356 F144
(-->next line out of position. Retracting, and repositioning)
G00 Z1.000
G00 X39.370Y51.816
(-->Plunging, then Cutting Line)
G01 Z-0.050 F12
G01 X39.370Y49.784 F144
(-->Cutting Line)
G01 X41.402Y47.752 F144
(-->Cutting Line)
G01 X49.276Y47.752 F144
(-->Cutting Line)
G01 X50.800Y46.228 F144
(-->Cutting Line)
G01 X50.800Y43.942 F144
(-->Cutting Line)
G01 X49.276Y43.942 F144
(-->Cutting Line)
G01 X49.276Y45.466 F144
(-->Cutting Line)
G01 X44.196Y45.466 F144
(-->Cutting Line)
G01 X39.116Y45.466 F144
(-->next line out of position. Retracting, and repositioning)
G00 Z1.000
G00 X50.800Y43.942
(-->Plunging, then Cutting Line)
G01 Z-0.050 F12
G01 X51.308Y43.942 F144
(-->Cutting Line)
G01 X52.578Y45.212 F144
(-->Cutting Line)
G01 X54.356Y45.212 F144
(-->Cutting Line)
G01 X55.372Y46.228 F144
(-->Cutting Line)
G01 X59.944Y46.228 F144
(-->Cutting Line)
G01 X60.960Y45.212 F144
(-->Cutting Line)
G01 X60.960Y43.688 F144
(-->next line out of position. Retracting, and repositioning)
G00 Z1.000
G00 X58.420Y42.164
(-->Plunging, then Cutting Line)
G01 Z-0.050 F12
G01 X57.404Y43.180 F144
(-->Cutting Line)
G01 X57.404Y44.704 F144
(-->Cutting Line)
G01 X55.626Y44.704 F144
(-->Cutting Line)
G01 X54.356Y43.434 F144
(-->Cutting Line)
G01 X52.578Y43.434 F144
(-->Cutting Line)
G01 X52.070Y42.926 F144
(-->Cutting Line)
G01 X50.038Y42.926 F144
(-->Cutting Line)
G01 X50.038Y35.560 F144
(-->Cutting Line)
G01 X43.942Y35.560 F144
(-->Cutting Line)
G01 X43.942Y36.830 F144
(-->Cutting Line)
G01 X46.482Y36.830 F144
(-->Cutting Line)
G01 X46.482Y38.354 F144
(-->Cutting Line)
G01 X44.196Y38.354 F144
(-->Cutting Line)
G01 X44.196Y45.466 F144
(-->next line out of position. Retracting, and repositioning)
G00 Z1.000
G00 X54.356Y41.148
(-->Plunging, then Cutting Line)
G01 Z-0.050 F12
G01 X54.356Y43.434 F144
(-->next line out of position. Retracting, and repositioning)
G00 Z1.000
G00 X54.356Y41.148
(-->Plunging, then Cutting Line)
G01 Z-0.050 F12
G01 X54.356Y35.560 F144
(-->Cutting Line)
G01 X53.340Y34.544 F144
(-->Cutting Line)
G01 X44.958Y34.544 F144
(-->Cutting Line)
G01 X41.910Y34.544 F144
(-->Cutting Line)
G01 X41.910Y36.576 F144
(-->Cutting Line)
G01 X41.910Y38.354 F144
(-->Cutting Line)
G01 X44.196Y38.354 F144
(-->next line out of position. Retracting, and repositioning)
G00 Z1.000
G00 X41.910Y36.576
(-->Plunging, then Cutting Line)
G01 Z-0.050 F12
G01 X39.624Y36.576 F144
(-->Cutting Line)
G01 X38.608Y35.560 F144
(-->Cutting Line)
G01 X36.830Y35.560 F144
(-->next line out of position. Retracting, and repositioning)
G00 Z1.000
G00 X54.356Y41.148
(-->Plunging, then Cutting Line)
G01 Z-0.050 F12
G01 X56.388Y41.148 F144
(-->Cutting Line)
G01 X56.388Y33.528 F144
(-->Cutting Line)
G01 X54.102Y31.242 F144
(-->Cutting Line)
G01 X45.974Y31.242 F144
(-->Cutting Line)
G01 X45.974Y29.718 F144
(-->next line out of position. Retracting, and repositioning)
G00 Z1.000
G00 X39.370Y25.654
(-->Plunging, then Cutting Line)
G01 Z-0.050 F12
G01 X39.370Y22.606 F144
(-->Cutting Line)
G01 X41.910Y22.606 F144
(-->Cutting Line)
G01 X41.910Y25.654 F144
(-->Cutting Line)
G01 X39.370Y25.654 F144
(-->next line out of position. Retracting, and repositioning)
G00 Z1.000
G00 X39.370Y22.606
(-->Plunging, then Cutting Line)
G01 Z-0.050 F12
G01 X36.830Y22.606 F144
(-->next line out of position. Retracting, and repositioning)
G00 Z1.000
G00 X41.910Y25.654
(-->Plunging, then Cutting Line)
G01 Z-0.050 F12
G01 X41.910Y28.702 F144
(-->Cutting Line)
G01 X36.830Y28.702 F144
(-->next line out of position. Retracting, and repositioning)
G00 Z1.000
G00 X44.958Y34.544
(-->Plunging, then Cutting Line)
G01 Z-0.050 F12
G01 X44.958Y33.020 F144
(-->Cutting Line)
G01 X36.830Y33.020 F144
(-->Cutting Line)
G01 X36.830Y28.702 F144
(-->next line out of position. Retracting, and repositioning)
G00 Z1.000
G00 X18.034Y40.640
(-->Plunging, then Cutting Line)
G01 Z-0.050 F12
G01 X18.034Y37.084 F144
(-->Cutting Line)
G01 X16.764Y37.084 F144
(-->next line out of position. Retracting, and repositioning)
G00 Z1.000
G00 X18.034Y40.640
(-->Plunging, then Cutting Line)
G01 Z-0.050 F12
G01 X18.288Y40.894 F144
(-->Cutting Line)
G01 X21.590Y40.894 F144
(-->Cutting Line)
G01 X25.400Y44.704 F144
(-->Cutting Line)
G01 X25.400Y47.244 F144
(-->next line out of position. Retracting, and repositioning)
G00 Z1.000
G00 X29.464Y50.800
(-->Plunging, then Cutting Line)
G01 Z-0.050 F12
G01 X23.114Y50.800 F144
(-->Cutting Line)
G01 X23.114Y47.498 F144
(-->Cutting Line)
G01 X24.130Y47.498 F144
(-->Cutting Line)
G01 X24.130Y45.212 F144
(-->Cutting Line)
G01 X22.098Y43.180 F144
(-->Cutting Line)
G01 X19.812Y43.180 F144
(-->next line out of position. Retracting, and repositioning)
G00 Z1.000
G00 X25.400Y47.244
(-->Plunging, then Cutting Line)
G01 Z-0.050 F12
G01 X29.464Y47.244 F144
(-->Cutting Line)
G01 X29.464Y50.800 F144
(-->next line out of position. Retracting, and repositioning)
G00 Z1.000
G00 X29.210Y56.134
(-->Plunging, then Cutting Line)
G01 Z-0.050 F12
G01 X29.210Y52.578 F144
(-->Cutting Line)
G01 X29.972Y51.816 F144
(-->Cutting Line)
G01 X30.480Y51.816 F144
(-->Cutting Line)
G01 X30.480Y45.974 F144
(-->Cutting Line)
G01 X29.718Y45.212 F144
(-->next line out of position. Retracting, and repositioning)
G00 Z1.000
G00 X30.480Y25.908
(-->Plunging, then Cutting Line)
G01 Z-0.050 F12
G01 X30.480Y31.496 F144
(-->Cutting Line)
G01 X29.718Y32.258 F144
(-->Cutting Line)
G01 X29.718Y45.212 F144
(-->next line out of position. Retracting, and repositioning)
G00 Z1.000
G00 X26.670Y26.416
(-->Plunging, then Cutting Line)
G01 Z-0.050 F12
G01 X26.670Y26.924 F144
(-->Cutting Line)
G01 X29.464Y26.924 F144
(-->Cutting Line)
G01 X29.464Y30.226 F144
(-->Cutting Line)
G01 X23.114Y30.226 F144
(-->Cutting Line)
G01 X23.114Y26.416 F144
(-->next line out of position. Retracting, and repositioning)
G00 Z1.000
G00 X16.764Y34.036
(-->Plunging, then Cutting Line)
G01 Z-0.050 F12
G01 X18.034Y34.036 F144
(-->Cutting Line)
G01 X18.034Y31.242 F144
(-->Cutting Line)
G01 X16.764Y31.242 F144
(-->next line out of position. Retracting, and repositioning)
G00 Z1.000
G00 X18.034Y34.036
(-->Plunging, then Cutting Line)
G01 Z-0.050 F12
G01 X19.304Y34.036 F144
(-->Cutting Line)
G01 X19.304Y31.242 F144
(-->Cutting Line)
G01 X18.034Y31.242 F144
(-->next line out of position. Retracting, and repositioning)
G00 Z1.000
G00 X19.304Y40.132
(-->Plunging, then Cutting Line)
G01 Z-0.050 F12
G01 X19.304Y37.338 F144
(-->next line out of position. Retracting, and repositioning)
G00 Z1.000
G00 X45.720Y54.864
(-->Plunging, then Cutting Line)
G01 Z-0.050 F12
G01 X48.514Y54.864 F144
(-->Cutting Line)
G01 X51.054Y54.864 F144
(-->Cutting Line)
G01 X53.594Y54.864 F144
(-->Cutting Line)
G01 X56.134Y54.864 F144
(-->Cutting Line)
G01 X58.674Y54.864 F144
(-->next line out of position. Retracting, and repositioning)
G00 Z1.000
G00 X61.214Y54.864
(-->Plunging, then Cutting Line)
G01 Z-0.050 F12
G01 X63.754Y54.864 F144
(-->Cutting Line)
G01 X66.294Y54.864 F144
(-->Cutting Line)
G01 X66.294Y51.816 F144
(-->Cutting Line)
G01 X63.754Y51.816 F144
(-->Cutting Line)
G01 X61.214Y51.816 F144
(-->next line out of position. Retracting, and repositioning)
G00 Z1.000
G00 X63.754Y54.864
(-->Plunging, then Cutting Line)
G01 Z-0.050 F12
G01 X63.754Y51.816 F144
(-->next line out of position. Retracting, and repositioning)
G00 Z1.000
G00 X53.848Y51.816
(-->Plunging, then Cutting Line)
G01 Z-0.050 F12
G01 X53.848Y48.260 F144
(-->Cutting Line)
G01 X59.182Y48.260 F144
(-->Cutting Line)
G01 X59.944Y49.022 F144
(-->next line out of position. Retracting, and repositioning)
G00 Z1.000
G00 X56.134Y54.864
(-->Plunging, then Cutting Line)
G01 Z-0.050 F12
G01 X56.134Y52.070 F144
(-->Cutting Line)
G01 X58.674Y52.070 F144
(-->next line out of position. Retracting, and repositioning)
G00 Z1.000
G00 X53.848Y51.816
(-->Plunging, then Cutting Line)
G01 Z-0.050 F12
G01 X53.594Y51.816 F144
(-->Cutting Line)
G01 X53.594Y54.864 F144
(-->next line out of position. Retracting, and repositioning)
G00 Z1.000
G00 X51.054Y54.864
(-->Plunging, then Cutting Line)
G01 Z-0.050 F12
G01 X51.054Y51.816 F144
(-->next line out of position. Retracting, and repositioning)
G00 Z1.000
G00 X48.514Y54.864
(-->Plunging, then Cutting Line)
G01 Z-0.050 F12
G01 X48.514Y51.816 F144
(-->next line out of position. Retracting, and repositioning)
G00 Z1.000
G00 X62.230Y23.114
(-->Plunging, then Cutting Line)
G01 Z-0.050 F12
G01 X62.230Y17.018 F144
(-->Cutting Line)
G01 X64.262Y17.018 F144
(-->Cutting Line)
G01 X64.262Y24.638 F144
(-->next line out of position. Retracting, and repositioning)
G00 Z1.000
G00 X38.354Y6.350
(-->Plunging, then Cutting Line)
G01 Z-0.050 F12
G01 X35.814Y6.350 F144
(-->Cutting Line)
G01 X33.274Y6.350 F144
(-->Cutting Line)
G01 X30.734Y6.350 F144
(-->Cutting Line)
G01 X28.194Y6.350 F144
(-->Cutting Line)
G01 X28.194Y3.556 F144
(-->Cutting Line)
G01 X30.734Y3.556 F144
(-->Cutting Line)
G01 X33.274Y3.556 F144
(-->Cutting Line)
G01 X35.814Y3.556 F144
(-->Cutting Line)
G01 X38.354Y3.556 F144
(-->next line out of position. Retracting, and repositioning)
G00 Z1.000
G00 X50.800Y6.350
(-->Plunging, then Cutting Line)
G01 Z-0.050 F12
G01 X53.594Y6.350 F144
(-->Cutting Line)
G01 X56.134Y6.350 F144
(-->Cutting Line)
G01 X58.674Y6.350 F144
(-->Cutting Line)
G01 X61.214Y6.350 F144
(-->Cutting Line)
G01 X63.754Y6.350 F144
(-->Cutting Line)
G01 X66.548Y6.350 F144
(-->Cutting Line)
G01 X66.548Y3.302 F144
(-->Cutting Line)
G01 X63.754Y3.302 F144
(-->Cutting Line)
G01 X61.214Y3.302 F144
(-->Cutting Line)
G01 X58.674Y3.302 F144
(-->Cutting Line)
G01 X56.134Y3.302 F144
(-->Cutting Line)
G01 X53.594Y3.302 F144
(-->Cutting Line)
G01 X50.800Y3.302 F144
(-->Cutting Line)
G01 X50.800Y6.350 F144
(-->next line out of position. Retracting, and repositioning)
G00 Z1.000
G00 X53.594Y6.350
(-->Plunging, then Cutting Line)
G01 Z-0.050 F12
G01 X53.594Y3.302 F144
(-->next line out of position. Retracting, and repositioning)
G00 Z1.000
G00 X56.134Y3.302
(-->Plunging, then Cutting Line)
G01 Z-0.050 F12
G01 X56.134Y6.350 F144
(-->next line out of position. Retracting, and repositioning)
G00 Z1.000
G00 X58.674Y6.350
(-->Plunging, then Cutting Line)
G01 Z-0.050 F12
G01 X58.674Y3.302 F144
(-->next line out of position. Retracting, and repositioning)
G00 Z1.000
G00 X61.214Y6.350
(-->Plunging, then Cutting Line)
G01 Z-0.050 F12
G01 X61.214Y3.302 F144
(-->next line out of position. Retracting, and repositioning)
G00 Z1.000
G00 X63.754Y6.350
(-->Plunging, then Cutting Line)
G01 Z-0.050 F12
G01 X63.754Y3.302 F144
(-->next line out of position. Retracting, and repositioning)
G00 Z1.000
G00 X45.974Y6.858
(-->Plunging, then Cutting Line)
G01 Z-0.050 F12
G01 X45.974Y2.794 F144
(-->Cutting Line)
G01 X48.768Y2.794 F144
(-->Cutting Line)
G01 X48.768Y6.858 F144
(-->Cutting Line)
G01 X45.974Y6.858 F144
(-->next line out of position. Retracting, and repositioning)
G00 Z1.000
G00 X43.434Y6.858
(-->Plunging, then Cutting Line)
G01 Z-0.050 F12
G01 X43.434Y3.048 F144
(-->next line out of position. Retracting, and repositioning)
G00 Z1.000
G00 X35.814Y6.350
(-->Plunging, then Cutting Line)
G01 Z-0.050 F12
G01 X35.814Y3.556 F144
(-->next line out of position. Retracting, and repositioning)
G00 Z1.000
G00 X33.274Y6.350
(-->Plunging, then Cutting Line)
G01 Z-0.050 F12
G01 X33.274Y3.556 F144
(-->next line out of position. Retracting, and repositioning)
G00 Z1.000
G00 X30.734Y6.350
(-->Plunging, then Cutting Line)
G01 Z-0.050 F12
G01 X30.734Y3.556 F144
(-->next line out of position. Retracting, and repositioning)
G00 Z1.000
G00 X8.382Y26.416
(-->Plunging, then Cutting Line)
G01 Z-0.050 F12
G01 X11.684Y26.416 F144
(-->Cutting Line)
G01 X11.684Y22.606 F144
(-->Cutting Line)
G01 X8.128Y22.606 F144
G00 Z1.000
M05
G04 P4000
G00 X0Y0
