(RS-274 Compatible G-code generated for UCCNC controller and Stepcraft 2 Mill)
(Created by in EagleCAD with the stepcraft.ulp 0.2.)
(File: was created on: 5/20/16 5:36 PM)
SHRINK_WIDTH: 0.070000

G90 G94 G49
G00 Z5.000
G00 X15.715 Y35.305 F1500
G00 Z0.000 F500
G01 X15.715 Y35.305 F1500
G01 X15.715 Y34.015 F1500
G01 X17.305 Y34.015 F1500
G01 X17.305 Y35.305 F1500
G01 X15.715 Y35.305 F1500
G00 Z1.000 F500
G00 X15.715 Y35.305 F1500
G00 Z0.000 F500
G01 X15.715 Y35.305 F1500
G01 X15.715 Y34.015 F1500
G01 X17.305 Y34.015 F1500
G01 X17.305 Y35.305 F1500
G01 X15.715 Y35.305 F1500
G00 Z1.000 F500

G00 X15.715 Y37.105 F1500
G00 Z0.000 F500
G01 X15.715 Y37.105 F1500
G01 X15.715 Y35.815 F1500
G01 X17.305 Y35.815 F1500
G01 X17.305 Y37.105 F1500
G01 X15.715 Y37.105 F1500
G00 Z1.000 F500
G00 X15.715 Y37.105 F1500
G00 Z0.000 F500
G01 X15.715 Y37.105 F1500
G01 X15.715 Y35.815 F1500
G01 X17.305 Y35.815 F1500
G01 X17.305 Y37.105 F1500
G01 X15.715 Y37.105 F1500
G00 Z1.000 F500

G00 X18.255 Y35.305 F1500
G00 Z0.000 F500
G01 X18.255 Y35.305 F1500
G01 X18.255 Y34.015 F1500
G01 X19.845 Y34.015 F1500
G01 X19.845 Y35.305 F1500
G01 X18.255 Y35.305 F1500
G00 Z1.000 F500
G00 X18.255 Y35.305 F1500
G00 Z0.000 F500
G01 X18.255 Y35.305 F1500
G01 X18.255 Y34.015 F1500
G01 X19.845 Y34.015 F1500
G01 X19.845 Y35.305 F1500
G01 X18.255 Y35.305 F1500
G00 Z1.000 F500

G00 X18.255 Y37.105 F1500
G00 Z0.000 F500
G01 X18.255 Y37.105 F1500
G01 X18.255 Y35.815 F1500
G01 X19.845 Y35.815 F1500
G01 X19.845 Y37.105 F1500
G01 X18.255 Y37.105 F1500
G00 Z1.000 F500
G00 X18.255 Y37.105 F1500
G00 Z0.000 F500
G01 X18.255 Y37.105 F1500
G01 X18.255 Y35.815 F1500
G01 X19.845 Y35.815 F1500
G01 X19.845 Y37.105 F1500
G01 X18.255 Y37.105 F1500
G00 Z1.000 F500

G00 X27.370 Y20.065 F1500
G00 Z0.000 F500
G01 X27.370 Y20.065 F1500
G01 X27.370 Y18.975 F1500
G01 X28.510 Y18.975 F1500
G01 X28.510 Y20.065 F1500
G01 X27.370 Y20.065 F1500
G00 Z1.000 F500
G00 X27.370 Y20.065 F1500
G00 Z0.000 F500
G01 X27.370 Y20.065 F1500
G01 X27.370 Y18.975 F1500
G01 X28.510 Y18.975 F1500
G01 X28.510 Y20.065 F1500
G01 X27.370 Y20.065 F1500
G00 Z1.000 F500

G00 X27.370 Y21.665 F1500
G00 Z0.000 F500
G01 X27.370 Y21.665 F1500
G01 X27.370 Y20.575 F1500
G01 X28.510 Y20.575 F1500
G01 X28.510 Y21.665 F1500
G01 X27.370 Y21.665 F1500
G00 Z1.000 F500
G00 X27.370 Y21.665 F1500
G00 Z0.000 F500
G01 X27.370 Y21.665 F1500
G01 X27.370 Y20.575 F1500
G01 X28.510 Y20.575 F1500
G01 X28.510 Y21.665 F1500
G01 X27.370 Y21.665 F1500
G00 Z1.000 F500

G00 X25.970 Y19.305 F1500
G00 Z0.000 F500
G01 X25.970 Y19.305 F1500
G01 X25.970 Y20.395 F1500
G01 X24.830 Y20.395 F1500
G01 X24.830 Y19.305 F1500
G01 X25.970 Y19.305 F1500
G00 Z1.000 F500
G00 X25.970 Y19.305 F1500
G00 Z0.000 F500
G01 X25.970 Y19.305 F1500
G01 X25.970 Y20.395 F1500
G01 X24.830 Y20.395 F1500
G01 X24.830 Y19.305 F1500
G01 X25.970 Y19.305 F1500
G00 Z1.000 F500

G00 X25.970 Y17.705 F1500
G00 Z0.000 F500
G01 X25.970 Y17.705 F1500
G01 X25.970 Y18.795 F1500
G01 X24.830 Y18.795 F1500
G01 X24.830 Y17.705 F1500
G01 X25.970 Y17.705 F1500
G00 Z1.000 F500
G00 X25.970 Y17.705 F1500
G00 Z0.000 F500
G01 X25.970 Y17.705 F1500
G01 X25.970 Y18.795 F1500
G01 X24.830 Y18.795 F1500
G01 X24.830 Y17.705 F1500
G01 X25.970 Y17.705 F1500
G00 Z1.000 F500

G00 X6.920 Y26.925 F1500
G00 Z0.000 F500
G01 X6.920 Y26.925 F1500
G01 X6.920 Y28.015 F1500
G01 X5.780 Y28.015 F1500
G01 X5.780 Y26.925 F1500
G01 X6.920 Y26.925 F1500
G00 Z1.000 F500
G00 X6.920 Y26.925 F1500
G00 Z0.000 F500
G01 X6.920 Y26.925 F1500
G01 X6.920 Y28.015 F1500
G01 X5.780 Y28.015 F1500
G01 X5.780 Y26.925 F1500
G01 X6.920 Y26.925 F1500
G00 Z1.000 F500

G00 X6.920 Y25.325 F1500
G00 Z0.000 F500
G01 X6.920 Y25.325 F1500
G01 X6.920 Y26.415 F1500
G01 X5.780 Y26.415 F1500
G01 X5.780 Y25.325 F1500
G01 X6.920 Y25.325 F1500
G00 Z1.000 F500
G00 X6.920 Y25.325 F1500
G00 Z0.000 F500
G01 X6.920 Y25.325 F1500
G01 X6.920 Y26.415 F1500
G01 X5.780 Y26.415 F1500
G01 X5.780 Y25.325 F1500
G01 X6.920 Y25.325 F1500
G00 Z1.000 F500

G00 X13.400 Y35.305 F1500
G00 Z0.000 F500
G01 X13.400 Y35.305 F1500
G01 X13.400 Y34.215 F1500
G01 X14.540 Y34.215 F1500
G01 X14.540 Y35.305 F1500
G01 X13.400 Y35.305 F1500
G00 Z1.000 F500
G00 X13.400 Y35.305 F1500
G00 Z0.000 F500
G01 X13.400 Y35.305 F1500
G01 X13.400 Y34.215 F1500
G01 X14.540 Y34.215 F1500
G01 X14.540 Y35.305 F1500
G01 X13.400 Y35.305 F1500
G00 Z1.000 F500

G00 X13.400 Y36.905 F1500
G00 Z0.000 F500
G01 X13.400 Y36.905 F1500
G01 X13.400 Y35.815 F1500
G01 X14.540 Y35.815 F1500
G01 X14.540 Y36.905 F1500
G01 X13.400 Y36.905 F1500
G00 Z1.000 F500
G00 X13.400 Y36.905 F1500
G00 Z0.000 F500
G01 X13.400 Y36.905 F1500
G01 X13.400 Y35.815 F1500
G01 X14.540 Y35.815 F1500
G01 X14.540 Y36.905 F1500
G01 X13.400 Y36.905 F1500
G00 Z1.000 F500

G00 X21.020 Y35.305 F1500
G00 Z0.000 F500
G01 X21.020 Y35.305 F1500
G01 X21.020 Y34.215 F1500
G01 X22.160 Y34.215 F1500
G01 X22.160 Y35.305 F1500
G01 X21.020 Y35.305 F1500
G00 Z1.000 F500
G00 X21.020 Y35.305 F1500
G00 Z0.000 F500
G01 X21.020 Y35.305 F1500
G01 X21.020 Y34.215 F1500
G01 X22.160 Y34.215 F1500
G01 X22.160 Y35.305 F1500
G01 X21.020 Y35.305 F1500
G00 Z1.000 F500

G00 X21.020 Y36.905 F1500
G00 Z0.000 F500
G01 X21.020 Y36.905 F1500
G01 X21.020 Y35.815 F1500
G01 X22.160 Y35.815 F1500
G01 X22.160 Y36.905 F1500
G01 X21.020 Y36.905 F1500
G00 Z1.000 F500
G00 X21.020 Y36.905 F1500
G00 Z0.000 F500
G01 X21.020 Y36.905 F1500
G01 X21.020 Y35.815 F1500
G01 X22.160 Y35.815 F1500
G01 X22.160 Y36.905 F1500
G01 X21.020 Y36.905 F1500
G00 Z1.000 F500

G00 X14.008 Y24.664 F1500
G00 Z0.000 F500
G01 X14.008 Y24.664 F1500
G01 X14.948 Y24.664 F1500
G01 X14.948 Y25.604 F1500
G01 X14.008 Y25.604 F1500
G01 X14.008 Y24.664 F1500
G00 Z1.000 F500
G00 X14.008 Y24.664 F1500
G00 Z0.000 F500
G01 X14.008 Y24.664 F1500
G01 X14.948 Y24.664 F1500
G01 X14.948 Y25.604 F1500
G01 X14.008 Y25.604 F1500
G01 X14.008 Y24.664 F1500
G00 Z1.000 F500

G00 X14.008 Y23.164 F1500
G00 Z0.000 F500
G01 X14.008 Y23.164 F1500
G01 X14.948 Y23.164 F1500
G01 X14.948 Y24.104 F1500
G01 X14.008 Y24.104 F1500
G01 X14.008 Y23.164 F1500
G00 Z1.000 F500
G00 X14.008 Y23.164 F1500
G00 Z0.000 F500
G01 X14.008 Y23.164 F1500
G01 X14.948 Y23.164 F1500
G01 X14.948 Y24.104 F1500
G01 X14.008 Y24.104 F1500
G01 X14.008 Y23.164 F1500
G00 Z1.000 F500

G00 X30.000 Y21.110 F1500
G00 Z0.000 F500
G01 X30.000 Y21.110 F1500
G01 X29.060 Y21.110 F1500
G01 X29.060 Y20.070 F1500
G01 X30.000 Y20.070 F1500
G01 X30.000 Y21.110 F1500
G00 Z1.000 F500
G00 X30.000 Y21.110 F1500
G00 Z0.000 F500
G01 X30.000 Y21.110 F1500
G01 X29.060 Y21.110 F1500
G01 X29.060 Y20.070 F1500
G01 X30.000 Y20.070 F1500
G01 X30.000 Y21.110 F1500
G00 Z1.000 F500

G00 X31.900 Y21.110 F1500
G00 Z0.000 F500
G01 X31.900 Y21.110 F1500
G01 X30.960 Y21.110 F1500
G01 X30.960 Y20.070 F1500
G01 X31.900 Y20.070 F1500
G01 X31.900 Y21.110 F1500
G00 Z1.000 F500
G00 X31.900 Y21.110 F1500
G00 Z0.000 F500
G01 X31.900 Y21.110 F1500
G01 X30.960 Y21.110 F1500
G01 X30.960 Y20.070 F1500
G01 X31.900 Y20.070 F1500
G01 X31.900 Y21.110 F1500
G00 Z1.000 F500

G00 X30.950 Y23.210 F1500
G00 Z0.000 F500
G01 X30.950 Y23.210 F1500
G01 X30.010 Y23.210 F1500
G01 X30.010 Y22.170 F1500
G01 X30.950 Y22.170 F1500
G01 X30.950 Y23.210 F1500
G00 Z1.000 F500
G00 X30.950 Y23.210 F1500
G00 Z0.000 F500
G01 X30.950 Y23.210 F1500
G01 X30.010 Y23.210 F1500
G01 X30.010 Y22.170 F1500
G01 X30.950 Y22.170 F1500
G01 X30.950 Y23.210 F1500
G00 Z1.000 F500

G00 X21.020 Y30.225 F1500
G00 Z0.000 F500
G01 X21.020 Y30.225 F1500
G01 X21.020 Y29.135 F1500
G01 X22.160 Y29.135 F1500
G01 X22.160 Y30.225 F1500
G01 X21.020 Y30.225 F1500
G00 Z1.000 F500
G00 X21.020 Y30.225 F1500
G00 Z0.000 F500
G01 X21.020 Y30.225 F1500
G01 X21.020 Y29.135 F1500
G01 X22.160 Y29.135 F1500
G01 X22.160 Y30.225 F1500
G01 X21.020 Y30.225 F1500
G00 Z1.000 F500

G00 X21.020 Y31.825 F1500
G00 Z0.000 F500
G01 X21.020 Y31.825 F1500
G01 X21.020 Y30.735 F1500
G01 X22.160 Y30.735 F1500
G01 X22.160 Y31.825 F1500
G01 X21.020 Y31.825 F1500
G00 Z1.000 F500
G00 X21.020 Y31.825 F1500
G00 Z0.000 F500
G01 X21.020 Y31.825 F1500
G01 X21.020 Y30.735 F1500
G01 X22.160 Y30.735 F1500
G01 X22.160 Y31.825 F1500
G01 X21.020 Y31.825 F1500
G00 Z1.000 F500

G00 X23.560 Y30.225 F1500
G00 Z0.000 F500
G01 X23.560 Y30.225 F1500
G01 X23.560 Y29.135 F1500
G01 X24.700 Y29.135 F1500
G01 X24.700 Y30.225 F1500
G01 X23.560 Y30.225 F1500
G00 Z1.000 F500
G00 X23.560 Y30.225 F1500
G00 Z0.000 F500
G01 X23.560 Y30.225 F1500
G01 X23.560 Y29.135 F1500
G01 X24.700 Y29.135 F1500
G01 X24.700 Y30.225 F1500
G01 X23.560 Y30.225 F1500
G00 Z1.000 F500

G00 X23.560 Y31.825 F1500
G00 Z0.000 F500
G01 X23.560 Y31.825 F1500
G01 X23.560 Y30.735 F1500
G01 X24.700 Y30.735 F1500
G01 X24.700 Y31.825 F1500
G01 X23.560 Y31.825 F1500
G00 Z1.000 F500
G00 X23.560 Y31.825 F1500
G00 Z0.000 F500
G01 X23.560 Y31.825 F1500
G01 X23.560 Y30.735 F1500
G01 X24.700 Y30.735 F1500
G01 X24.700 Y31.825 F1500
G01 X23.560 Y31.825 F1500
G00 Z1.000 F500

G00 X32.450 Y20.065 F1500
G00 Z0.000 F500
G01 X32.450 Y20.065 F1500
G01 X32.450 Y18.975 F1500
G01 X33.590 Y18.975 F1500
G01 X33.590 Y20.065 F1500
G01 X32.450 Y20.065 F1500
G00 Z1.000 F500
G00 X32.450 Y20.065 F1500
G00 Z0.000 F500
G01 X32.450 Y20.065 F1500
G01 X32.450 Y18.975 F1500
G01 X33.590 Y18.975 F1500
G01 X33.590 Y20.065 F1500
G01 X32.450 Y20.065 F1500
G00 Z1.000 F500

G00 X32.450 Y21.665 F1500
G00 Z0.000 F500
G01 X32.450 Y21.665 F1500
G01 X32.450 Y20.575 F1500
G01 X33.590 Y20.575 F1500
G01 X33.590 Y21.665 F1500
G01 X32.450 Y21.665 F1500
G00 Z1.000 F500
G00 X32.450 Y21.665 F1500
G00 Z0.000 F500
G01 X32.450 Y21.665 F1500
G01 X32.450 Y20.575 F1500
G01 X33.590 Y20.575 F1500
G01 X33.590 Y21.665 F1500
G01 X32.450 Y21.665 F1500
G00 Z1.000 F500

G00 X30.542 Y25.655 F1500
G00 Z0.000 F500
G01 X30.542 Y25.655 F1500
G01 X30.542 Y26.745 F1500
G01 X29.402 Y26.745 F1500
G01 X29.402 Y25.655 F1500
G01 X30.542 Y25.655 F1500
G00 Z1.000 F500
G00 X30.542 Y25.655 F1500
G00 Z0.000 F500
G01 X30.542 Y25.655 F1500
G01 X30.542 Y26.745 F1500
G01 X29.402 Y26.745 F1500
G01 X29.402 Y25.655 F1500
G01 X30.542 Y25.655 F1500
G00 Z1.000 F500

G00 X30.542 Y24.055 F1500
G00 Z0.000 F500
G01 X30.542 Y24.055 F1500
G01 X30.542 Y25.145 F1500
G01 X29.402 Y25.145 F1500
G01 X29.402 Y24.055 F1500
G01 X30.542 Y24.055 F1500
G00 Z1.000 F500
G00 X30.542 Y24.055 F1500
G00 Z0.000 F500
G01 X30.542 Y24.055 F1500
G01 X30.542 Y25.145 F1500
G01 X29.402 Y25.145 F1500
G01 X29.402 Y24.055 F1500
G01 X30.542 Y24.055 F1500
G00 Z1.000 F500

G00 X9.460 Y26.925 F1500
G00 Z0.000 F500
G01 X9.460 Y26.925 F1500
G01 X9.460 Y28.015 F1500
G01 X8.320 Y28.015 F1500
G01 X8.320 Y26.925 F1500
G01 X9.460 Y26.925 F1500
G00 Z1.000 F500
G00 X9.460 Y26.925 F1500
G00 Z0.000 F500
G01 X9.460 Y26.925 F1500
G01 X9.460 Y28.015 F1500
G01 X8.320 Y28.015 F1500
G01 X8.320 Y26.925 F1500
G01 X9.460 Y26.925 F1500
G00 Z1.000 F500

G00 X9.460 Y25.325 F1500
G00 Z0.000 F500
G01 X9.460 Y25.325 F1500
G01 X9.460 Y26.415 F1500
G01 X8.320 Y26.415 F1500
G01 X8.320 Y25.325 F1500
G01 X9.460 Y25.325 F1500
G00 Z1.000 F500
G00 X9.460 Y25.325 F1500
G00 Z0.000 F500
G01 X9.460 Y25.325 F1500
G01 X9.460 Y26.415 F1500
G01 X8.320 Y26.415 F1500
G01 X8.320 Y25.325 F1500
G01 X9.460 Y25.325 F1500
G00 Z1.000 F500

G00 X11.683 Y27.748 F1500
G00 Z0.000 F500
G01 X11.683 Y27.748 F1500
G01 X10.593 Y27.748 F1500
G01 X10.593 Y26.608 F1500
G01 X11.683 Y26.608 F1500
G01 X11.683 Y27.748 F1500
G00 Z1.000 F500
G00 X11.683 Y27.748 F1500
G00 Z0.000 F500
G01 X11.683 Y27.748 F1500
G01 X10.593 Y27.748 F1500
G01 X10.593 Y26.608 F1500
G01 X11.683 Y26.608 F1500
G01 X11.683 Y27.748 F1500
G00 Z1.000 F500

G00 X13.283 Y27.748 F1500
G00 Z0.000 F500
G01 X13.283 Y27.748 F1500
G01 X12.193 Y27.748 F1500
G01 X12.193 Y26.608 F1500
G01 X13.283 Y26.608 F1500
G01 X13.283 Y27.748 F1500
G00 Z1.000 F500
G00 X13.283 Y27.748 F1500
G00 Z0.000 F500
G01 X13.283 Y27.748 F1500
G01 X12.193 Y27.748 F1500
G01 X12.193 Y26.608 F1500
G01 X13.283 Y26.608 F1500
G01 X13.283 Y27.748 F1500
G00 Z1.000 F500

G00 X33.590 Y25.655 F1500
G00 Z0.000 F500
G01 X33.590 Y25.655 F1500
G01 X33.590 Y26.745 F1500
G01 X32.450 Y26.745 F1500
G01 X32.450 Y25.655 F1500
G01 X33.590 Y25.655 F1500
G00 Z1.000 F500
G00 X33.590 Y25.655 F1500
G00 Z0.000 F500
G01 X33.590 Y25.655 F1500
G01 X33.590 Y26.745 F1500
G01 X32.450 Y26.745 F1500
G01 X32.450 Y25.655 F1500
G01 X33.590 Y25.655 F1500
G00 Z1.000 F500

G00 X33.590 Y24.055 F1500
G00 Z0.000 F500
G01 X33.590 Y24.055 F1500
G01 X33.590 Y25.145 F1500
G01 X32.450 Y25.145 F1500
G01 X32.450 Y24.055 F1500
G01 X33.590 Y24.055 F1500
G00 Z1.000 F500
G00 X33.590 Y24.055 F1500
G00 Z0.000 F500
G01 X33.590 Y24.055 F1500
G01 X33.590 Y25.145 F1500
G01 X32.450 Y25.145 F1500
G01 X32.450 Y24.055 F1500
G01 X33.590 Y24.055 F1500
G00 Z1.000 F500

G00 X15.462 Y22.199 F1500
G00 Z0.000 F500
G01 X15.462 Y22.199 F1500
G01 X14.052 Y22.199 F1500
G01 X14.052 Y21.501 F1500
G01 X15.462 Y21.501 F1500
G01 X15.462 Y22.199 F1500
G00 Z1.000 F500
G00 X15.462 Y22.199 F1500
G00 Z0.000 F500
G01 X15.462 Y22.199 F1500
G01 X14.052 Y22.199 F1500
G01 X14.052 Y21.501 F1500
G01 X15.462 Y21.501 F1500
G01 X15.462 Y22.199 F1500
G00 Z1.000 F500

G00 X15.462 Y21.399 F1500
G00 Z0.000 F500
G01 X15.462 Y21.399 F1500
G01 X14.052 Y21.399 F1500
G01 X14.052 Y20.701 F1500
G01 X15.462 Y20.701 F1500
G01 X15.462 Y21.399 F1500
G00 Z1.000 F500
G00 X15.462 Y21.399 F1500
G00 Z0.000 F500
G01 X15.462 Y21.399 F1500
G01 X14.052 Y21.399 F1500
G01 X14.052 Y20.701 F1500
G01 X15.462 Y20.701 F1500
G01 X15.462 Y21.399 F1500
G00 Z1.000 F500

G00 X15.462 Y20.599 F1500
G00 Z0.000 F500
G01 X15.462 Y20.599 F1500
G01 X14.052 Y20.599 F1500
G01 X14.052 Y19.901 F1500
G01 X15.462 Y19.901 F1500
G01 X15.462 Y20.599 F1500
G00 Z1.000 F500
G00 X15.462 Y20.599 F1500
G00 Z0.000 F500
G01 X15.462 Y20.599 F1500
G01 X14.052 Y20.599 F1500
G01 X14.052 Y19.901 F1500
G01 X15.462 Y19.901 F1500
G01 X15.462 Y20.599 F1500
G00 Z1.000 F500

G00 X15.462 Y19.799 F1500
G00 Z0.000 F500
G01 X15.462 Y19.799 F1500
G01 X14.052 Y19.799 F1500
G01 X14.052 Y19.101 F1500
G01 X15.462 Y19.101 F1500
G01 X15.462 Y19.799 F1500
G00 Z1.000 F500
G00 X15.462 Y19.799 F1500
G00 Z0.000 F500
G01 X15.462 Y19.799 F1500
G01 X14.052 Y19.799 F1500
G01 X14.052 Y19.101 F1500
G01 X15.462 Y19.101 F1500
G01 X15.462 Y19.799 F1500
G00 Z1.000 F500

G00 X15.462 Y18.999 F1500
G00 Z0.000 F500
G01 X15.462 Y18.999 F1500
G01 X14.052 Y18.999 F1500
G01 X14.052 Y18.301 F1500
G01 X15.462 Y18.301 F1500
G01 X15.462 Y18.999 F1500
G00 Z1.000 F500
G00 X15.462 Y18.999 F1500
G00 Z0.000 F500
G01 X15.462 Y18.999 F1500
G01 X14.052 Y18.999 F1500
G01 X14.052 Y18.301 F1500
G01 X15.462 Y18.301 F1500
G01 X15.462 Y18.999 F1500
G00 Z1.000 F500

G00 X15.462 Y18.199 F1500
G00 Z0.000 F500
G01 X15.462 Y18.199 F1500
G01 X14.052 Y18.199 F1500
G01 X14.052 Y17.501 F1500
G01 X15.462 Y17.501 F1500
G01 X15.462 Y18.199 F1500
G00 Z1.000 F500
G00 X15.462 Y18.199 F1500
G00 Z0.000 F500
G01 X15.462 Y18.199 F1500
G01 X14.052 Y18.199 F1500
G01 X14.052 Y17.501 F1500
G01 X15.462 Y17.501 F1500
G01 X15.462 Y18.199 F1500
G00 Z1.000 F500

G00 X15.462 Y17.399 F1500
G00 Z0.000 F500
G01 X15.462 Y17.399 F1500
G01 X14.052 Y17.399 F1500
G01 X14.052 Y16.701 F1500
G01 X15.462 Y16.701 F1500
G01 X15.462 Y17.399 F1500
G00 Z1.000 F500
G00 X15.462 Y17.399 F1500
G00 Z0.000 F500
G01 X15.462 Y17.399 F1500
G01 X14.052 Y17.399 F1500
G01 X14.052 Y16.701 F1500
G01 X15.462 Y16.701 F1500
G01 X15.462 Y17.399 F1500
G00 Z1.000 F500

G00 X15.462 Y16.599 F1500
G00 Z0.000 F500
G01 X15.462 Y16.599 F1500
G01 X14.052 Y16.599 F1500
G01 X14.052 Y15.901 F1500
G01 X15.462 Y15.901 F1500
G01 X15.462 Y16.599 F1500
G00 Z1.000 F500
G00 X15.462 Y16.599 F1500
G00 Z0.000 F500
G01 X15.462 Y16.599 F1500
G01 X14.052 Y16.599 F1500
G01 X14.052 Y15.901 F1500
G01 X15.462 Y15.901 F1500
G01 X15.462 Y16.599 F1500
G00 Z1.000 F500

G00 X16.599 Y15.462 F1500
G00 Z0.000 F500
G01 X16.599 Y15.462 F1500
G01 X15.901 Y15.462 F1500
G01 X15.901 Y14.052 F1500
G01 X16.599 Y14.052 F1500
G01 X16.599 Y15.462 F1500
G00 Z1.000 F500
G00 X16.599 Y15.462 F1500
G00 Z0.000 F500
G01 X16.599 Y15.462 F1500
G01 X15.901 Y15.462 F1500
G01 X15.901 Y14.052 F1500
G01 X16.599 Y14.052 F1500
G01 X16.599 Y15.462 F1500
G00 Z1.000 F500

G00 X17.399 Y15.462 F1500
G00 Z0.000 F500
G01 X17.399 Y15.462 F1500
G01 X16.701 Y15.462 F1500
G01 X16.701 Y14.052 F1500
G01 X17.399 Y14.052 F1500
G01 X17.399 Y15.462 F1500
G00 Z1.000 F500
G00 X17.399 Y15.462 F1500
G00 Z0.000 F500
G01 X17.399 Y15.462 F1500
G01 X16.701 Y15.462 F1500
G01 X16.701 Y14.052 F1500
G01 X17.399 Y14.052 F1500
G01 X17.399 Y15.462 F1500
G00 Z1.000 F500

G00 X18.199 Y15.462 F1500
G00 Z0.000 F500
G01 X18.199 Y15.462 F1500
G01 X17.501 Y15.462 F1500
G01 X17.501 Y14.052 F1500
G01 X18.199 Y14.052 F1500
G01 X18.199 Y15.462 F1500
G00 Z1.000 F500
G00 X18.199 Y15.462 F1500
G00 Z0.000 F500
G01 X18.199 Y15.462 F1500
G01 X17.501 Y15.462 F1500
G01 X17.501 Y14.052 F1500
G01 X18.199 Y14.052 F1500
G01 X18.199 Y15.462 F1500
G00 Z1.000 F500

G00 X18.999 Y15.462 F1500
G00 Z0.000 F500
G01 X18.999 Y15.462 F1500
G01 X18.301 Y15.462 F1500
G01 X18.301 Y14.052 F1500
G01 X18.999 Y14.052 F1500
G01 X18.999 Y15.462 F1500
G00 Z1.000 F500
G00 X18.999 Y15.462 F1500
G00 Z0.000 F500
G01 X18.999 Y15.462 F1500
G01 X18.301 Y15.462 F1500
G01 X18.301 Y14.052 F1500
G01 X18.999 Y14.052 F1500
G01 X18.999 Y15.462 F1500
G00 Z1.000 F500

G00 X19.799 Y15.462 F1500
G00 Z0.000 F500
G01 X19.799 Y15.462 F1500
G01 X19.101 Y15.462 F1500
G01 X19.101 Y14.052 F1500
G01 X19.799 Y14.052 F1500
G01 X19.799 Y15.462 F1500
G00 Z1.000 F500
G00 X19.799 Y15.462 F1500
G00 Z0.000 F500
G01 X19.799 Y15.462 F1500
G01 X19.101 Y15.462 F1500
G01 X19.101 Y14.052 F1500
G01 X19.799 Y14.052 F1500
G01 X19.799 Y15.462 F1500
G00 Z1.000 F500

G00 X20.599 Y15.462 F1500
G00 Z0.000 F500
G01 X20.599 Y15.462 F1500
G01 X19.901 Y15.462 F1500
G01 X19.901 Y14.052 F1500
G01 X20.599 Y14.052 F1500
G01 X20.599 Y15.462 F1500
G00 Z1.000 F500
G00 X20.599 Y15.462 F1500
G00 Z0.000 F500
G01 X20.599 Y15.462 F1500
G01 X19.901 Y15.462 F1500
G01 X19.901 Y14.052 F1500
G01 X20.599 Y14.052 F1500
G01 X20.599 Y15.462 F1500
G00 Z1.000 F500

G00 X21.399 Y15.462 F1500
G00 Z0.000 F500
G01 X21.399 Y15.462 F1500
G01 X20.701 Y15.462 F1500
G01 X20.701 Y14.052 F1500
G01 X21.399 Y14.052 F1500
G01 X21.399 Y15.462 F1500
G00 Z1.000 F500
G00 X21.399 Y15.462 F1500
G00 Z0.000 F500
G01 X21.399 Y15.462 F1500
G01 X20.701 Y15.462 F1500
G01 X20.701 Y14.052 F1500
G01 X21.399 Y14.052 F1500
G01 X21.399 Y15.462 F1500
G00 Z1.000 F500

G00 X22.199 Y15.462 F1500
G00 Z0.000 F500
G01 X22.199 Y15.462 F1500
G01 X21.501 Y15.462 F1500
G01 X21.501 Y14.052 F1500
G01 X22.199 Y14.052 F1500
G01 X22.199 Y15.462 F1500
G00 Z1.000 F500
G00 X22.199 Y15.462 F1500
G00 Z0.000 F500
G01 X22.199 Y15.462 F1500
G01 X21.501 Y15.462 F1500
G01 X21.501 Y14.052 F1500
G01 X22.199 Y14.052 F1500
G01 X22.199 Y15.462 F1500
G00 Z1.000 F500

G00 X24.048 Y16.599 F1500
G00 Z0.000 F500
G01 X24.048 Y16.599 F1500
G01 X22.638 Y16.599 F1500
G01 X22.638 Y15.901 F1500
G01 X24.048 Y15.901 F1500
G01 X24.048 Y16.599 F1500
G00 Z1.000 F500
G00 X24.048 Y16.599 F1500
G00 Z0.000 F500
G01 X24.048 Y16.599 F1500
G01 X22.638 Y16.599 F1500
G01 X22.638 Y15.901 F1500
G01 X24.048 Y15.901 F1500
G01 X24.048 Y16.599 F1500
G00 Z1.000 F500

G00 X24.048 Y17.399 F1500
G00 Z0.000 F500
G01 X24.048 Y17.399 F1500
G01 X22.638 Y17.399 F1500
G01 X22.638 Y16.701 F1500
G01 X24.048 Y16.701 F1500
G01 X24.048 Y17.399 F1500
G00 Z1.000 F500
G00 X24.048 Y17.399 F1500
G00 Z0.000 F500
G01 X24.048 Y17.399 F1500
G01 X22.638 Y17.399 F1500
G01 X22.638 Y16.701 F1500
G01 X24.048 Y16.701 F1500
G01 X24.048 Y17.399 F1500
G00 Z1.000 F500

G00 X24.048 Y18.199 F1500
G00 Z0.000 F500
G01 X24.048 Y18.199 F1500
G01 X22.638 Y18.199 F1500
G01 X22.638 Y17.501 F1500
G01 X24.048 Y17.501 F1500
G01 X24.048 Y18.199 F1500
G00 Z1.000 F500
G00 X24.048 Y18.199 F1500
G00 Z0.000 F500
G01 X24.048 Y18.199 F1500
G01 X22.638 Y18.199 F1500
G01 X22.638 Y17.501 F1500
G01 X24.048 Y17.501 F1500
G01 X24.048 Y18.199 F1500
G00 Z1.000 F500

G00 X24.048 Y18.999 F1500
G00 Z0.000 F500
G01 X24.048 Y18.999 F1500
G01 X22.638 Y18.999 F1500
G01 X22.638 Y18.301 F1500
G01 X24.048 Y18.301 F1500
G01 X24.048 Y18.999 F1500
G00 Z1.000 F500
G00 X24.048 Y18.999 F1500
G00 Z0.000 F500
G01 X24.048 Y18.999 F1500
G01 X22.638 Y18.999 F1500
G01 X22.638 Y18.301 F1500
G01 X24.048 Y18.301 F1500
G01 X24.048 Y18.999 F1500
G00 Z1.000 F500

G00 X24.048 Y19.799 F1500
G00 Z0.000 F500
G01 X24.048 Y19.799 F1500
G01 X22.638 Y19.799 F1500
G01 X22.638 Y19.101 F1500
G01 X24.048 Y19.101 F1500
G01 X24.048 Y19.799 F1500
G00 Z1.000 F500
G00 X24.048 Y19.799 F1500
G00 Z0.000 F500
G01 X24.048 Y19.799 F1500
G01 X22.638 Y19.799 F1500
G01 X22.638 Y19.101 F1500
G01 X24.048 Y19.101 F1500
G01 X24.048 Y19.799 F1500
G00 Z1.000 F500

G00 X24.048 Y20.599 F1500
G00 Z0.000 F500
G01 X24.048 Y20.599 F1500
G01 X22.638 Y20.599 F1500
G01 X22.638 Y19.901 F1500
G01 X24.048 Y19.901 F1500
G01 X24.048 Y20.599 F1500
G00 Z1.000 F500
G00 X24.048 Y20.599 F1500
G00 Z0.000 F500
G01 X24.048 Y20.599 F1500
G01 X22.638 Y20.599 F1500
G01 X22.638 Y19.901 F1500
G01 X24.048 Y19.901 F1500
G01 X24.048 Y20.599 F1500
G00 Z1.000 F500

G00 X24.048 Y21.399 F1500
G00 Z0.000 F500
G01 X24.048 Y21.399 F1500
G01 X22.638 Y21.399 F1500
G01 X22.638 Y20.701 F1500
G01 X24.048 Y20.701 F1500
G01 X24.048 Y21.399 F1500
G00 Z1.000 F500
G00 X24.048 Y21.399 F1500
G00 Z0.000 F500
G01 X24.048 Y21.399 F1500
G01 X22.638 Y21.399 F1500
G01 X22.638 Y20.701 F1500
G01 X24.048 Y20.701 F1500
G01 X24.048 Y21.399 F1500
G00 Z1.000 F500

G00 X24.048 Y22.199 F1500
G00 Z0.000 F500
G01 X24.048 Y22.199 F1500
G01 X22.638 Y22.199 F1500
G01 X22.638 Y21.501 F1500
G01 X24.048 Y21.501 F1500
G01 X24.048 Y22.199 F1500
G00 Z1.000 F500
G00 X24.048 Y22.199 F1500
G00 Z0.000 F500
G01 X24.048 Y22.199 F1500
G01 X22.638 Y22.199 F1500
G01 X22.638 Y21.501 F1500
G01 X24.048 Y21.501 F1500
G01 X24.048 Y22.199 F1500
G00 Z1.000 F500

G00 X22.199 Y24.048 F1500
G00 Z0.000 F500
G01 X22.199 Y24.048 F1500
G01 X21.501 Y24.048 F1500
G01 X21.501 Y22.638 F1500
G01 X22.199 Y22.638 F1500
G01 X22.199 Y24.048 F1500
G00 Z1.000 F500
G00 X22.199 Y24.048 F1500
G00 Z0.000 F500
G01 X22.199 Y24.048 F1500
G01 X21.501 Y24.048 F1500
G01 X21.501 Y22.638 F1500
G01 X22.199 Y22.638 F1500
G01 X22.199 Y24.048 F1500
G00 Z1.000 F500

G00 X21.399 Y24.048 F1500
G00 Z0.000 F500
G01 X21.399 Y24.048 F1500
G01 X20.701 Y24.048 F1500
G01 X20.701 Y22.638 F1500
G01 X21.399 Y22.638 F1500
G01 X21.399 Y24.048 F1500
G00 Z1.000 F500
G00 X21.399 Y24.048 F1500
G00 Z0.000 F500
G01 X21.399 Y24.048 F1500
G01 X20.701 Y24.048 F1500
G01 X20.701 Y22.638 F1500
G01 X21.399 Y22.638 F1500
G01 X21.399 Y24.048 F1500
G00 Z1.000 F500

G00 X20.599 Y24.048 F1500
G00 Z0.000 F500
G01 X20.599 Y24.048 F1500
G01 X19.901 Y24.048 F1500
G01 X19.901 Y22.638 F1500
G01 X20.599 Y22.638 F1500
G01 X20.599 Y24.048 F1500
G00 Z1.000 F500
G00 X20.599 Y24.048 F1500
G00 Z0.000 F500
G01 X20.599 Y24.048 F1500
G01 X19.901 Y24.048 F1500
G01 X19.901 Y22.638 F1500
G01 X20.599 Y22.638 F1500
G01 X20.599 Y24.048 F1500
G00 Z1.000 F500

G00 X19.799 Y24.048 F1500
G00 Z0.000 F500
G01 X19.799 Y24.048 F1500
G01 X19.101 Y24.048 F1500
G01 X19.101 Y22.638 F1500
G01 X19.799 Y22.638 F1500
G01 X19.799 Y24.048 F1500
G00 Z1.000 F500
G00 X19.799 Y24.048 F1500
G00 Z0.000 F500
G01 X19.799 Y24.048 F1500
G01 X19.101 Y24.048 F1500
G01 X19.101 Y22.638 F1500
G01 X19.799 Y22.638 F1500
G01 X19.799 Y24.048 F1500
G00 Z1.000 F500

G00 X18.999 Y24.048 F1500
G00 Z0.000 F500
G01 X18.999 Y24.048 F1500
G01 X18.301 Y24.048 F1500
G01 X18.301 Y22.638 F1500
G01 X18.999 Y22.638 F1500
G01 X18.999 Y24.048 F1500
G00 Z1.000 F500
G00 X18.999 Y24.048 F1500
G00 Z0.000 F500
G01 X18.999 Y24.048 F1500
G01 X18.301 Y24.048 F1500
G01 X18.301 Y22.638 F1500
G01 X18.999 Y22.638 F1500
G01 X18.999 Y24.048 F1500
G00 Z1.000 F500

G00 X18.199 Y24.048 F1500
G00 Z0.000 F500
G01 X18.199 Y24.048 F1500
G01 X17.501 Y24.048 F1500
G01 X17.501 Y22.638 F1500
G01 X18.199 Y22.638 F1500
G01 X18.199 Y24.048 F1500
G00 Z1.000 F500
G00 X18.199 Y24.048 F1500
G00 Z0.000 F500
G01 X18.199 Y24.048 F1500
G01 X17.501 Y24.048 F1500
G01 X17.501 Y22.638 F1500
G01 X18.199 Y22.638 F1500
G01 X18.199 Y24.048 F1500
G00 Z1.000 F500

G00 X17.399 Y24.048 F1500
G00 Z0.000 F500
G01 X17.399 Y24.048 F1500
G01 X16.701 Y24.048 F1500
G01 X16.701 Y22.638 F1500
G01 X17.399 Y22.638 F1500
G01 X17.399 Y24.048 F1500
G00 Z1.000 F500
G00 X17.399 Y24.048 F1500
G00 Z0.000 F500
G01 X17.399 Y24.048 F1500
G01 X16.701 Y24.048 F1500
G01 X16.701 Y22.638 F1500
G01 X17.399 Y22.638 F1500
G01 X17.399 Y24.048 F1500
G00 Z1.000 F500

G00 X16.599 Y24.048 F1500
G00 Z0.000 F500
G01 X16.599 Y24.048 F1500
G01 X15.901 Y24.048 F1500
G01 X15.901 Y22.638 F1500
G01 X16.599 Y22.638 F1500
G01 X16.599 Y24.048 F1500
G00 Z1.000 F500
G00 X16.599 Y24.048 F1500
G00 Z0.000 F500
G01 X16.599 Y24.048 F1500
G01 X15.901 Y24.048 F1500
G01 X15.901 Y22.638 F1500
G01 X16.599 Y22.638 F1500
G01 X16.599 Y24.048 F1500
G00 Z1.000 F500

G00 X17.090 Y29.160 F1500
G00 Z0.000 F500
G01 X17.090 Y29.160 F1500
G01 X18.330 Y29.160 F1500
G01 X18.330 Y29.900 F1500
G01 X17.090 Y29.900 F1500
G01 X17.090 Y29.160 F1500
G00 Z1.000 F500
G00 X17.090 Y29.160 F1500
G00 Z0.000 F500
G01 X17.090 Y29.160 F1500
G01 X18.330 Y29.160 F1500
G01 X18.330 Y29.900 F1500
G01 X17.090 Y29.900 F1500
G01 X17.090 Y29.160 F1500
G00 Z1.000 F500

G00 X17.090 Y30.110 F1500
G00 Z0.000 F500
G01 X17.090 Y30.110 F1500
G01 X18.330 Y30.110 F1500
G01 X18.330 Y30.850 F1500
G01 X17.090 Y30.850 F1500
G01 X17.090 Y30.110 F1500
G00 Z1.000 F500
G00 X17.090 Y30.110 F1500
G00 Z0.000 F500
G01 X17.090 Y30.110 F1500
G01 X18.330 Y30.110 F1500
G01 X18.330 Y30.850 F1500
G01 X17.090 Y30.850 F1500
G01 X17.090 Y30.110 F1500
G00 Z1.000 F500

G00 X17.090 Y31.060 F1500
G00 Z0.000 F500
G01 X17.090 Y31.060 F1500
G01 X18.330 Y31.060 F1500
G01 X18.330 Y31.800 F1500
G01 X17.090 Y31.800 F1500
G01 X17.090 Y31.060 F1500
G00 Z1.000 F500
G00 X17.090 Y31.060 F1500
G00 Z0.000 F500
G01 X17.090 Y31.060 F1500
G01 X18.330 Y31.060 F1500
G01 X18.330 Y31.800 F1500
G01 X17.090 Y31.800 F1500
G01 X17.090 Y31.060 F1500
G00 Z1.000 F500

G00 X14.690 Y31.060 F1500
G00 Z0.000 F500
G01 X14.690 Y31.060 F1500
G01 X15.930 Y31.060 F1500
G01 X15.930 Y31.800 F1500
G01 X14.690 Y31.800 F1500
G01 X14.690 Y31.060 F1500
G00 Z1.000 F500
G00 X14.690 Y31.060 F1500
G00 Z0.000 F500
G01 X14.690 Y31.060 F1500
G01 X15.930 Y31.060 F1500
G01 X15.930 Y31.800 F1500
G01 X14.690 Y31.800 F1500
G01 X14.690 Y31.060 F1500
G00 Z1.000 F500

G00 X14.690 Y29.160 F1500
G00 Z0.000 F500
G01 X14.690 Y29.160 F1500
G01 X15.930 Y29.160 F1500
G01 X15.930 Y29.900 F1500
G01 X14.690 Y29.900 F1500
G01 X14.690 Y29.160 F1500
G00 Z1.000 F500
G00 X14.690 Y29.160 F1500
G00 Z0.000 F500
G01 X14.690 Y29.160 F1500
G01 X15.930 Y29.160 F1500
G01 X15.930 Y29.900 F1500
G01 X14.690 Y29.900 F1500
G01 X14.690 Y29.160 F1500
G00 Z1.000 F500

G00 X29.191 Y33.725 F1500
G00 Z0.000 F500
G01 X29.191 Y33.725 F1500
G01 X29.191 Y32.264 F1500
G01 X29.890 Y32.264 F1500
G01 X29.890 Y33.725 F1500
G01 X29.191 Y33.725 F1500
G00 Z1.000 F500
G00 X29.191 Y33.725 F1500
G00 Z0.000 F500
G01 X29.191 Y33.725 F1500
G01 X29.191 Y32.264 F1500
G01 X29.890 Y32.264 F1500
G01 X29.890 Y33.725 F1500
G01 X29.191 Y33.725 F1500
G00 Z1.000 F500

G00 X30.131 Y33.725 F1500
G00 Z0.000 F500
G01 X30.131 Y33.725 F1500
G01 X30.131 Y32.264 F1500
G01 X30.829 Y32.264 F1500
G01 X30.829 Y33.725 F1500
G01 X30.131 Y33.725 F1500
G00 Z1.000 F500
G00 X30.131 Y33.725 F1500
G00 Z0.000 F500
G01 X30.131 Y33.725 F1500
G01 X30.131 Y32.264 F1500
G01 X30.829 Y32.264 F1500
G01 X30.829 Y33.725 F1500
G01 X30.131 Y33.725 F1500
G00 Z1.000 F500

G00 X31.070 Y33.725 F1500
G00 Z0.000 F500
G01 X31.070 Y33.725 F1500
G01 X31.070 Y32.264 F1500
G01 X31.769 Y32.264 F1500
G01 X31.769 Y33.725 F1500
G01 X31.070 Y33.725 F1500
G00 Z1.000 F500
G00 X31.070 Y33.725 F1500
G00 Z0.000 F500
G01 X31.070 Y33.725 F1500
G01 X31.070 Y32.264 F1500
G01 X31.769 Y32.264 F1500
G01 X31.769 Y33.725 F1500
G01 X31.070 Y33.725 F1500
G00 Z1.000 F500

G00 X31.070 Y36.316 F1500
G00 Z0.000 F500
G01 X31.070 Y36.316 F1500
G01 X31.070 Y34.855 F1500
G01 X31.769 Y34.855 F1500
G01 X31.769 Y36.316 F1500
G01 X31.070 Y36.316 F1500
G00 Z1.000 F500
G00 X31.070 Y36.316 F1500
G00 Z0.000 F500
G01 X31.070 Y36.316 F1500
G01 X31.070 Y34.855 F1500
G01 X31.769 Y34.855 F1500
G01 X31.769 Y36.316 F1500
G01 X31.070 Y36.316 F1500
G00 Z1.000 F500

G00 X30.131 Y36.316 F1500
G00 Z0.000 F500
G01 X30.131 Y36.316 F1500
G01 X30.131 Y34.855 F1500
G01 X30.829 Y34.855 F1500
G01 X30.829 Y36.316 F1500
G01 X30.131 Y36.316 F1500
G00 Z1.000 F500
G00 X30.131 Y36.316 F1500
G00 Z0.000 F500
G01 X30.131 Y36.316 F1500
G01 X30.131 Y34.855 F1500
G01 X30.829 Y34.855 F1500
G01 X30.829 Y36.316 F1500
G01 X30.131 Y36.316 F1500
G00 Z1.000 F500

G00 X29.191 Y36.316 F1500
G00 Z0.000 F500
G01 X29.191 Y36.316 F1500
G01 X29.191 Y34.855 F1500
G01 X29.890 Y34.855 F1500
G01 X29.890 Y36.316 F1500
G01 X29.191 Y36.316 F1500
G00 Z1.000 F500
G00 X29.191 Y36.316 F1500
G00 Z0.000 F500
G01 X29.191 Y36.316 F1500
G01 X29.191 Y34.855 F1500
G01 X29.890 Y34.855 F1500
G01 X29.890 Y36.316 F1500
G01 X29.191 Y36.316 F1500
G00 Z1.000 F500

G00 X13.100 Y29.950 F1500
G00 Z0.000 F500
G01 X13.100 Y29.950 F1500
G01 X9.760 Y29.950 F1500
G01 X9.760 Y28.810 F1500
G01 X13.100 Y28.810 F1500
G01 X13.100 Y29.950 F1500
G00 Z1.000 F500
G00 X13.100 Y29.950 F1500
G00 Z0.000 F500
G01 X13.100 Y29.950 F1500
G01 X9.760 Y29.950 F1500
G01 X9.760 Y28.810 F1500
G01 X13.100 Y28.810 F1500
G01 X13.100 Y29.950 F1500
G00 Z1.000 F500

G00 X13.100 Y32.150 F1500
G00 Z0.000 F500
G01 X13.100 Y32.150 F1500
G01 X9.760 Y32.150 F1500
G01 X9.760 Y31.010 F1500
G01 X13.100 Y31.010 F1500
G01 X13.100 Y32.150 F1500
G00 Z1.000 F500
G00 X13.100 Y32.150 F1500
G00 Z0.000 F500
G01 X13.100 Y32.150 F1500
G01 X9.760 Y32.150 F1500
G01 X9.760 Y31.010 F1500
G01 X13.100 Y31.010 F1500
G01 X13.100 Y32.150 F1500
G00 Z1.000 F500

G00 X0.000 Y2.540 F1500
(-->next line out of position. Retracting, and repositioning)
G00 Z1.000
G00 X0.000Y36.830
(-->Plunging, then Cutting Line)
G01 Z0.000 F500
G01 X0.000Y2.540 F1500
G03
X2.540Y0.000 R2.540
G00 X33.020 Y0.000 F1500
(-->Cutting Line)
G01 X33.020Y0.000 F1500
G03
X35.560Y2.540 R2.540
G00 X35.560 Y36.830 F1500
(-->Cutting Line)
G01 X35.560Y36.830 F1500
G03
X33.020Y39.370 R2.540
G00 X2.540 Y39.370 F1500
(-->Cutting Line)
G01 X2.540Y39.370 F1500
G03
X0.000Y36.830 R2.540
G00 Z5.000
G00 X0Y0