(RS-274 Compatible G-code generated for UCCNC controller and Stepcraft 2 Mill)
(Created by in EagleCAD with the stepcraft.ulp 0.2.)
(File: "sensor_v4.brd" created on: 4/26/16 7:52 AM)
(Use a 1/32inch Bit)

G90 G94 G49
G21
G00 Z5
G00 X0Y0
S19500 M03
G04 P4000
G00 Z1.000
G00 X9.255Y6.604
G01 Z-0.150 F30
G03 F360
X9.255Y6.604 I-0.111
G01 Z-0.300 F30
G03 F360
X9.255Y6.604 I-0.111
G01 Z-0.450 F30
G03 F360
X9.255Y6.604 I-0.111
G01 Z-0.600 F30
G03 F360
X9.255Y6.604 I-0.111
G01 Z-0.750 F30
G03 F360
X9.255Y6.604 I-0.111
G01 Z-0.900 F30
G03 F360
X9.255Y6.604 I-0.111
G01 Z-1.050 F30
G03 F360
X9.255Y6.604 I-0.111
G01 Z-1.200 F30
G03 F360
X9.255Y6.604 I-0.111
G01 Z-1.350 F30
G03 F360
X9.255Y6.604 I-0.111
G01 Z-1.500 F30
G03 F360
X9.255Y6.604 I-0.111
G01 Z-1.600 F30
G03 F360
X9.255Y6.604 I-0.111
G00 Z1.000
G00 X9.255Y4.064
G01 Z-0.150 F30
G03 F360
X9.255Y4.064 I-0.111
G01 Z-0.300 F30
G03 F360
X9.255Y4.064 I-0.111
G01 Z-0.450 F30
G03 F360
X9.255Y4.064 I-0.111
G01 Z-0.600 F30
G03 F360
X9.255Y4.064 I-0.111
G01 Z-0.750 F30
G03 F360
X9.255Y4.064 I-0.111
G01 Z-0.900 F30
G03 F360
X9.255Y4.064 I-0.111
G01 Z-1.050 F30
G03 F360
X9.255Y4.064 I-0.111
G01 Z-1.200 F30
G03 F360
X9.255Y4.064 I-0.111
G01 Z-1.350 F30
G03 F360
X9.255Y4.064 I-0.111
G01 Z-1.500 F30
G03 F360
X9.255Y4.064 I-0.111
G01 Z-1.600 F30
G03 F360
X9.255Y4.064 I-0.111
G00 Z1.000
G00 X6.715Y6.604
G01 Z-0.150 F30
G03 F360
X6.715Y6.604 I-0.111
G01 Z-0.300 F30
G03 F360
X6.715Y6.604 I-0.111
G01 Z-0.450 F30
G03 F360
X6.715Y6.604 I-0.111
G01 Z-0.600 F30
G03 F360
X6.715Y6.604 I-0.111
G01 Z-0.750 F30
G03 F360
X6.715Y6.604 I-0.111
G01 Z-0.900 F30
G03 F360
X6.715Y6.604 I-0.111
G01 Z-1.050 F30
G03 F360
X6.715Y6.604 I-0.111
G01 Z-1.200 F30
G03 F360
X6.715Y6.604 I-0.111
G01 Z-1.350 F30
G03 F360
X6.715Y6.604 I-0.111
G01 Z-1.500 F30
G03 F360
X6.715Y6.604 I-0.111
G01 Z-1.600 F30
G03 F360
X6.715Y6.604 I-0.111
G00 Z1.000
G00 X6.715Y4.064
G01 Z-0.150 F30
G03 F360
X6.715Y4.064 I-0.111
G01 Z-0.300 F30
G03 F360
X6.715Y4.064 I-0.111
G01 Z-0.450 F30
G03 F360
X6.715Y4.064 I-0.111
G01 Z-0.600 F30
G03 F360
X6.715Y4.064 I-0.111
G01 Z-0.750 F30
G03 F360
X6.715Y4.064 I-0.111
G01 Z-0.900 F30
G03 F360
X6.715Y4.064 I-0.111
G01 Z-1.050 F30
G03 F360
X6.715Y4.064 I-0.111
G01 Z-1.200 F30
G03 F360
X6.715Y4.064 I-0.111
G01 Z-1.350 F30
G03 F360
X6.715Y4.064 I-0.111
G01 Z-1.500 F30
G03 F360
X6.715Y4.064 I-0.111
G01 Z-1.600 F30
G03 F360
X6.715Y4.064 I-0.111
G00 Z1.000
G00 X4.175Y6.604
G01 Z-0.150 F30
G03 F360
X4.175Y6.604 I-0.111
G01 Z-0.300 F30
G03 F360
X4.175Y6.604 I-0.111
G01 Z-0.450 F30
G03 F360
X4.175Y6.604 I-0.111
G01 Z-0.600 F30
G03 F360
X4.175Y6.604 I-0.111
G01 Z-0.750 F30
G03 F360
X4.175Y6.604 I-0.111
G01 Z-0.900 F30
G03 F360
X4.175Y6.604 I-0.111
G01 Z-1.050 F30
G03 F360
X4.175Y6.604 I-0.111
G01 Z-1.200 F30
G03 F360
X4.175Y6.604 I-0.111
G01 Z-1.350 F30
G03 F360
X4.175Y6.604 I-0.111
G01 Z-1.500 F30
G03 F360
X4.175Y6.604 I-0.111
G01 Z-1.600 F30
G03 F360
X4.175Y6.604 I-0.111
G00 Z1.000
G00 X4.175Y4.064
G01 Z-0.150 F30
G03 F360
X4.175Y4.064 I-0.111
G01 Z-0.300 F30
G03 F360
X4.175Y4.064 I-0.111
G01 Z-0.450 F30
G03 F360
X4.175Y4.064 I-0.111
G01 Z-0.600 F30
G03 F360
X4.175Y4.064 I-0.111
G01 Z-0.750 F30
G03 F360
X4.175Y4.064 I-0.111
G01 Z-0.900 F30
G03 F360
X4.175Y4.064 I-0.111
G01 Z-1.050 F30
G03 F360
X4.175Y4.064 I-0.111
G01 Z-1.200 F30
G03 F360
X4.175Y4.064 I-0.111
G01 Z-1.350 F30
G03 F360
X4.175Y4.064 I-0.111
G01 Z-1.500 F30
G03 F360
X4.175Y4.064 I-0.111
G01 Z-1.600 F30
G03 F360
X4.175Y4.064 I-0.111
G00 Z1.000
G00 X29.067Y26.543
G01 Z-0.150 F30
G03 F360
X29.067Y26.543 I-0.111
G01 Z-0.300 F30
G03 F360
X29.067Y26.543 I-0.111
G01 Z-0.450 F30
G03 F360
X29.067Y26.543 I-0.111
G01 Z-0.600 F30
G03 F360
X29.067Y26.543 I-0.111
G01 Z-0.750 F30
G03 F360
X29.067Y26.543 I-0.111
G01 Z-0.900 F30
G03 F360
X29.067Y26.543 I-0.111
G01 Z-1.050 F30
G03 F360
X29.067Y26.543 I-0.111
G01 Z-1.200 F30
G03 F360
X29.067Y26.543 I-0.111
G01 Z-1.350 F30
G03 F360
X29.067Y26.543 I-0.111
G01 Z-1.500 F30
G03 F360
X29.067Y26.543 I-0.111
G01 Z-1.600 F30
G03 F360
X29.067Y26.543 I-0.111
G00 Z1.000
G00 X10.322Y30.480
G01 Z-0.150 F30
G03 F360
X10.322Y30.480 I-0.162
G01 Z-0.300 F30
G03 F360
X10.322Y30.480 I-0.162
G01 Z-0.450 F30
G03 F360
X10.322Y30.480 I-0.162
G01 Z-0.600 F30
G03 F360
X10.322Y30.480 I-0.162
G01 Z-0.750 F30
G03 F360
X10.322Y30.480 I-0.162
G01 Z-0.900 F30
G03 F360
X10.322Y30.480 I-0.162
G01 Z-1.050 F30
G03 F360
X10.322Y30.480 I-0.162
G01 Z-1.200 F30
G03 F360
X10.322Y30.480 I-0.162
G01 Z-1.350 F30
G03 F360
X10.322Y30.480 I-0.162
G01 Z-1.500 F30
G03 F360
X10.322Y30.480 I-0.162
G01 Z-1.600 F30
G03 F360
X10.322Y30.480 I-0.162
G00 Z1.000
G00 X10.322Y33.020
G01 Z-0.150 F30
G03 F360
X10.322Y33.020 I-0.162
G01 Z-0.300 F30
G03 F360
X10.322Y33.020 I-0.162
G01 Z-0.450 F30
G03 F360
X10.322Y33.020 I-0.162
G01 Z-0.600 F30
G03 F360
X10.322Y33.020 I-0.162
G01 Z-0.750 F30
G03 F360
X10.322Y33.020 I-0.162
G01 Z-0.900 F30
G03 F360
X10.322Y33.020 I-0.162
G01 Z-1.050 F30
G03 F360
X10.322Y33.020 I-0.162
G01 Z-1.200 F30
G03 F360
X10.322Y33.020 I-0.162
G01 Z-1.350 F30
G03 F360
X10.322Y33.020 I-0.162
G01 Z-1.500 F30
G03 F360
X10.322Y33.020 I-0.162
G01 Z-1.600 F30
G03 F360
X10.322Y33.020 I-0.162
G00 Z1.000
G00 X10.322Y35.560
G01 Z-0.150 F30
G03 F360
X10.322Y35.560 I-0.162
G01 Z-0.300 F30
G03 F360
X10.322Y35.560 I-0.162
G01 Z-0.450 F30
G03 F360
X10.322Y35.560 I-0.162
G01 Z-0.600 F30
G03 F360
X10.322Y35.560 I-0.162
G01 Z-0.750 F30
G03 F360
X10.322Y35.560 I-0.162
G01 Z-0.900 F30
G03 F360
X10.322Y35.560 I-0.162
G01 Z-1.050 F30
G03 F360
X10.322Y35.560 I-0.162
G01 Z-1.200 F30
G03 F360
X10.322Y35.560 I-0.162
G01 Z-1.350 F30
G03 F360
X10.322Y35.560 I-0.162
G01 Z-1.500 F30
G03 F360
X10.322Y35.560 I-0.162
G01 Z-1.600 F30
G03 F360
X10.322Y35.560 I-0.162
G00 Z1.000
G00 X10.322Y38.100
G01 Z-0.150 F30
G03 F360
X10.322Y38.100 I-0.162
G01 Z-0.300 F30
G03 F360
X10.322Y38.100 I-0.162
G01 Z-0.450 F30
G03 F360
X10.322Y38.100 I-0.162
G01 Z-0.600 F30
G03 F360
X10.322Y38.100 I-0.162
G01 Z-0.750 F30
G03 F360
X10.322Y38.100 I-0.162
G01 Z-0.900 F30
G03 F360
X10.322Y38.100 I-0.162
G01 Z-1.050 F30
G03 F360
X10.322Y38.100 I-0.162
G01 Z-1.200 F30
G03 F360
X10.322Y38.100 I-0.162
G01 Z-1.350 F30
G03 F360
X10.322Y38.100 I-0.162
G01 Z-1.500 F30
G03 F360
X10.322Y38.100 I-0.162
G01 Z-1.600 F30
G03 F360
X10.322Y38.100 I-0.162
G00 Z1.000
G00 X10.322Y40.640
G01 Z-0.150 F30
G03 F360
X10.322Y40.640 I-0.162
G01 Z-0.300 F30
G03 F360
X10.322Y40.640 I-0.162
G01 Z-0.450 F30
G03 F360
X10.322Y40.640 I-0.162
G01 Z-0.600 F30
G03 F360
X10.322Y40.640 I-0.162
G01 Z-0.750 F30
G03 F360
X10.322Y40.640 I-0.162
G01 Z-0.900 F30
G03 F360
X10.322Y40.640 I-0.162
G01 Z-1.050 F30
G03 F360
X10.322Y40.640 I-0.162
G01 Z-1.200 F30
G03 F360
X10.322Y40.640 I-0.162
G01 Z-1.350 F30
G03 F360
X10.322Y40.640 I-0.162
G01 Z-1.500 F30
G03 F360
X10.322Y40.640 I-0.162
G01 Z-1.600 F30
G03 F360
X10.322Y40.640 I-0.162
G00 Z1.000
G00 X10.322Y43.180
G01 Z-0.150 F30
G03 F360
X10.322Y43.180 I-0.162
G01 Z-0.300 F30
G03 F360
X10.322Y43.180 I-0.162
G01 Z-0.450 F30
G03 F360
X10.322Y43.180 I-0.162
G01 Z-0.600 F30
G03 F360
X10.322Y43.180 I-0.162
G01 Z-0.750 F30
G03 F360
X10.322Y43.180 I-0.162
G01 Z-0.900 F30
G03 F360
X10.322Y43.180 I-0.162
G01 Z-1.050 F30
G03 F360
X10.322Y43.180 I-0.162
G01 Z-1.200 F30
G03 F360
X10.322Y43.180 I-0.162
G01 Z-1.350 F30
G03 F360
X10.322Y43.180 I-0.162
G01 Z-1.500 F30
G03 F360
X10.322Y43.180 I-0.162
G01 Z-1.600 F30
G03 F360
X10.322Y43.180 I-0.162
G00 Z1.000
G00 X33.004Y51.435
G01 Z-0.150 F30
G03 F360
X33.004Y51.435 I-0.111
G01 Z-0.300 F30
G03 F360
X33.004Y51.435 I-0.111
G01 Z-0.450 F30
G03 F360
X33.004Y51.435 I-0.111
G01 Z-0.600 F30
G03 F360
X33.004Y51.435 I-0.111
G01 Z-0.750 F30
G03 F360
X33.004Y51.435 I-0.111
G01 Z-0.900 F30
G03 F360
X33.004Y51.435 I-0.111
G01 Z-1.050 F30
G03 F360
X33.004Y51.435 I-0.111
G01 Z-1.200 F30
G03 F360
X33.004Y51.435 I-0.111
G01 Z-1.350 F30
G03 F360
X33.004Y51.435 I-0.111
G01 Z-1.500 F30
G03 F360
X33.004Y51.435 I-0.111
G01 Z-1.600 F30
G03 F360
X33.004Y51.435 I-0.111
G00 Z1.000
G00 X30.464Y51.435
G01 Z-0.150 F30
G03 F360
X30.464Y51.435 I-0.111
G01 Z-0.300 F30
G03 F360
X30.464Y51.435 I-0.111
G01 Z-0.450 F30
G03 F360
X30.464Y51.435 I-0.111
G01 Z-0.600 F30
G03 F360
X30.464Y51.435 I-0.111
G01 Z-0.750 F30
G03 F360
X30.464Y51.435 I-0.111
G01 Z-0.900 F30
G03 F360
X30.464Y51.435 I-0.111
G01 Z-1.050 F30
G03 F360
X30.464Y51.435 I-0.111
G01 Z-1.200 F30
G03 F360
X30.464Y51.435 I-0.111
G01 Z-1.350 F30
G03 F360
X30.464Y51.435 I-0.111
G01 Z-1.500 F30
G03 F360
X30.464Y51.435 I-0.111
G01 Z-1.600 F30
G03 F360
X30.464Y51.435 I-0.111
G00 Z1.000
G00 X27.924Y51.435
G01 Z-0.150 F30
G03 F360
X27.924Y51.435 I-0.111
G01 Z-0.300 F30
G03 F360
X27.924Y51.435 I-0.111
G01 Z-0.450 F30
G03 F360
X27.924Y51.435 I-0.111
G01 Z-0.600 F30
G03 F360
X27.924Y51.435 I-0.111
G01 Z-0.750 F30
G03 F360
X27.924Y51.435 I-0.111
G01 Z-0.900 F30
G03 F360
X27.924Y51.435 I-0.111
G01 Z-1.050 F30
G03 F360
X27.924Y51.435 I-0.111
G01 Z-1.200 F30
G03 F360
X27.924Y51.435 I-0.111
G01 Z-1.350 F30
G03 F360
X27.924Y51.435 I-0.111
G01 Z-1.500 F30
G03 F360
X27.924Y51.435 I-0.111
G01 Z-1.600 F30
G03 F360
X27.924Y51.435 I-0.111
G00 Z1.000
G00 X10.335Y57.658
G01 Z-0.150 F30
G03 F360
X10.335Y57.658 I-0.048
G01 Z-0.300 F30
G03 F360
X10.335Y57.658 I-0.048
G01 Z-0.450 F30
G03 F360
X10.335Y57.658 I-0.048
G01 Z-0.600 F30
G03 F360
X10.335Y57.658 I-0.048
G01 Z-0.750 F30
G03 F360
X10.335Y57.658 I-0.048
G01 Z-0.900 F30
G03 F360
X10.335Y57.658 I-0.048
G01 Z-1.050 F30
G03 F360
X10.335Y57.658 I-0.048
G01 Z-1.200 F30
G03 F360
X10.335Y57.658 I-0.048
G01 Z-1.350 F30
G03 F360
X10.335Y57.658 I-0.048
G01 Z-1.500 F30
G03 F360
X10.335Y57.658 I-0.048
G01 Z-1.600 F30
G03 F360
X10.335Y57.658 I-0.048
G00 Z1.000
G00 X25.321Y57.658
G01 Z-0.150 F30
G03 F360
X25.321Y57.658 I-0.048
G01 Z-0.300 F30
G03 F360
X25.321Y57.658 I-0.048
G01 Z-0.450 F30
G03 F360
X25.321Y57.658 I-0.048
G01 Z-0.600 F30
G03 F360
X25.321Y57.658 I-0.048
G01 Z-0.750 F30
G03 F360
X25.321Y57.658 I-0.048
G01 Z-0.900 F30
G03 F360
X25.321Y57.658 I-0.048
G01 Z-1.050 F30
G03 F360
X25.321Y57.658 I-0.048
G01 Z-1.200 F30
G03 F360
X25.321Y57.658 I-0.048
G01 Z-1.350 F30
G03 F360
X25.321Y57.658 I-0.048
G01 Z-1.500 F30
G03 F360
X25.321Y57.658 I-0.048
G01 Z-1.600 F30
G03 F360
X25.321Y57.658 I-0.048
(-->HOLE IS TOO SMALL, I CAN'T CUT THAT!!)
G00 Z1.000
G00 X13.275Y15.875
G01 Z-0.150 F30
G03 F360
X13.275Y15.875 I0.000
(-->HOLE IS TOO SMALL, I CAN'T CUT THAT!!)
G01 Z-0.300 F30
G03 F360
X13.275Y15.875 I0.000
(-->HOLE IS TOO SMALL, I CAN'T CUT THAT!!)
G01 Z-0.450 F30
G03 F360
X13.275Y15.875 I0.000
(-->HOLE IS TOO SMALL, I CAN'T CUT THAT!!)
G01 Z-0.600 F30
G03 F360
X13.275Y15.875 I0.000
(-->HOLE IS TOO SMALL, I CAN'T CUT THAT!!)
G01 Z-0.750 F30
G03 F360
X13.275Y15.875 I0.000
(-->HOLE IS TOO SMALL, I CAN'T CUT THAT!!)
G01 Z-0.900 F30
G03 F360
X13.275Y15.875 I0.000
(-->HOLE IS TOO SMALL, I CAN'T CUT THAT!!)
G01 Z-1.050 F30
G03 F360
X13.275Y15.875 I0.000
(-->HOLE IS TOO SMALL, I CAN'T CUT THAT!!)
G01 Z-1.200 F30
G03 F360
X13.275Y15.875 I0.000
(-->HOLE IS TOO SMALL, I CAN'T CUT THAT!!)
G01 Z-1.350 F30
G03 F360
X13.275Y15.875 I0.000
(-->HOLE IS TOO SMALL, I CAN'T CUT THAT!!)
G01 Z-1.500 F30
G03 F360
X13.275Y15.875 I0.000
(-->HOLE IS TOO SMALL, I CAN'T CUT THAT!!)
G01 Z-1.600 F30
G03 F360
X13.275Y15.875 I0.000
(-->HOLE IS TOO SMALL, I CAN'T CUT THAT!!)
G00 Z1.000
G00 X15.434Y39.370
G01 Z-0.150 F30
G03 F360
X15.434Y39.370 I0.000
(-->HOLE IS TOO SMALL, I CAN'T CUT THAT!!)
G01 Z-0.300 F30
G03 F360
X15.434Y39.370 I0.000
(-->HOLE IS TOO SMALL, I CAN'T CUT THAT!!)
G01 Z-0.450 F30
G03 F360
X15.434Y39.370 I0.000
(-->HOLE IS TOO SMALL, I CAN'T CUT THAT!!)
G01 Z-0.600 F30
G03 F360
X15.434Y39.370 I0.000
(-->HOLE IS TOO SMALL, I CAN'T CUT THAT!!)
G01 Z-0.750 F30
G03 F360
X15.434Y39.370 I0.000
(-->HOLE IS TOO SMALL, I CAN'T CUT THAT!!)
G01 Z-0.900 F30
G03 F360
X15.434Y39.370 I0.000
(-->HOLE IS TOO SMALL, I CAN'T CUT THAT!!)
G01 Z-1.050 F30
G03 F360
X15.434Y39.370 I0.000
(-->HOLE IS TOO SMALL, I CAN'T CUT THAT!!)
G01 Z-1.200 F30
G03 F360
X15.434Y39.370 I0.000
(-->HOLE IS TOO SMALL, I CAN'T CUT THAT!!)
G01 Z-1.350 F30
G03 F360
X15.434Y39.370 I0.000
(-->HOLE IS TOO SMALL, I CAN'T CUT THAT!!)
G01 Z-1.500 F30
G03 F360
X15.434Y39.370 I0.000
(-->HOLE IS TOO SMALL, I CAN'T CUT THAT!!)
G01 Z-1.600 F30
G03 F360
X15.434Y39.370 I0.000
(-->HOLE IS TOO SMALL, I CAN'T CUT THAT!!)
G00 Z1.000
G00 X10.735Y26.797
G01 Z-0.150 F30
G03 F360
X10.735Y26.797 I0.000
(-->HOLE IS TOO SMALL, I CAN'T CUT THAT!!)
G01 Z-0.300 F30
G03 F360
X10.735Y26.797 I0.000
(-->HOLE IS TOO SMALL, I CAN'T CUT THAT!!)
G01 Z-0.450 F30
G03 F360
X10.735Y26.797 I0.000
(-->HOLE IS TOO SMALL, I CAN'T CUT THAT!!)
G01 Z-0.600 F30
G03 F360
X10.735Y26.797 I0.000
(-->HOLE IS TOO SMALL, I CAN'T CUT THAT!!)
G01 Z-0.750 F30
G03 F360
X10.735Y26.797 I0.000
(-->HOLE IS TOO SMALL, I CAN'T CUT THAT!!)
G01 Z-0.900 F30
G03 F360
X10.735Y26.797 I0.000
(-->HOLE IS TOO SMALL, I CAN'T CUT THAT!!)
G01 Z-1.050 F30
G03 F360
X10.735Y26.797 I0.000
(-->HOLE IS TOO SMALL, I CAN'T CUT THAT!!)
G01 Z-1.200 F30
G03 F360
X10.735Y26.797 I0.000
(-->HOLE IS TOO SMALL, I CAN'T CUT THAT!!)
G01 Z-1.350 F30
G03 F360
X10.735Y26.797 I0.000
(-->HOLE IS TOO SMALL, I CAN'T CUT THAT!!)
G01 Z-1.500 F30
G03 F360
X10.735Y26.797 I0.000
(-->HOLE IS TOO SMALL, I CAN'T CUT THAT!!)
G01 Z-1.600 F30
G03 F360
X10.735Y26.797 I0.000
(-->HOLE IS TOO SMALL, I CAN'T CUT THAT!!)
G00 Z1.000
G00 X14.164Y44.704
G01 Z-0.150 F30
G03 F360
X14.164Y44.704 I0.000
(-->HOLE IS TOO SMALL, I CAN'T CUT THAT!!)
G01 Z-0.300 F30
G03 F360
X14.164Y44.704 I0.000
(-->HOLE IS TOO SMALL, I CAN'T CUT THAT!!)
G01 Z-0.450 F30
G03 F360
X14.164Y44.704 I0.000
(-->HOLE IS TOO SMALL, I CAN'T CUT THAT!!)
G01 Z-0.600 F30
G03 F360
X14.164Y44.704 I0.000
(-->HOLE IS TOO SMALL, I CAN'T CUT THAT!!)
G01 Z-0.750 F30
G03 F360
X14.164Y44.704 I0.000
(-->HOLE IS TOO SMALL, I CAN'T CUT THAT!!)
G01 Z-0.900 F30
G03 F360
X14.164Y44.704 I0.000
(-->HOLE IS TOO SMALL, I CAN'T CUT THAT!!)
G01 Z-1.050 F30
G03 F360
X14.164Y44.704 I0.000
(-->HOLE IS TOO SMALL, I CAN'T CUT THAT!!)
G01 Z-1.200 F30
G03 F360
X14.164Y44.704 I0.000
(-->HOLE IS TOO SMALL, I CAN'T CUT THAT!!)
G01 Z-1.350 F30
G03 F360
X14.164Y44.704 I0.000
(-->HOLE IS TOO SMALL, I CAN'T CUT THAT!!)
G01 Z-1.500 F30
G03 F360
X14.164Y44.704 I0.000
(-->HOLE IS TOO SMALL, I CAN'T CUT THAT!!)
G01 Z-1.600 F30
G03 F360
X14.164Y44.704 I0.000
(-->HOLE IS TOO SMALL, I CAN'T CUT THAT!!)
G00 Z1.000
G00 X5.936Y12.700
G01 Z-0.150 F30
G03 F360
X5.936Y12.700 I0.000
(-->HOLE IS TOO SMALL, I CAN'T CUT THAT!!)
G01 Z-0.300 F30
G03 F360
X5.936Y12.700 I0.000
(-->HOLE IS TOO SMALL, I CAN'T CUT THAT!!)
G01 Z-0.450 F30
G03 F360
X5.936Y12.700 I0.000
(-->HOLE IS TOO SMALL, I CAN'T CUT THAT!!)
G01 Z-0.600 F30
G03 F360
X5.936Y12.700 I0.000
(-->HOLE IS TOO SMALL, I CAN'T CUT THAT!!)
G01 Z-0.750 F30
G03 F360
X5.936Y12.700 I0.000
(-->HOLE IS TOO SMALL, I CAN'T CUT THAT!!)
G01 Z-0.900 F30
G03 F360
X5.936Y12.700 I0.000
(-->HOLE IS TOO SMALL, I CAN'T CUT THAT!!)
G01 Z-1.050 F30
G03 F360
X5.936Y12.700 I0.000
(-->HOLE IS TOO SMALL, I CAN'T CUT THAT!!)
G01 Z-1.200 F30
G03 F360
X5.936Y12.700 I0.000
(-->HOLE IS TOO SMALL, I CAN'T CUT THAT!!)
G01 Z-1.350 F30
G03 F360
X5.936Y12.700 I0.000
(-->HOLE IS TOO SMALL, I CAN'T CUT THAT!!)
G01 Z-1.500 F30
G03 F360
X5.936Y12.700 I0.000
(-->HOLE IS TOO SMALL, I CAN'T CUT THAT!!)
G01 Z-1.600 F30
G03 F360
X5.936Y12.700 I0.000
(-->HOLE IS TOO SMALL, I CAN'T CUT THAT!!)
G00 Z1.000
G00 X11.714Y10.287
G01 Z-0.150 F30
G03 F360
X11.714Y10.287 I0.000
(-->HOLE IS TOO SMALL, I CAN'T CUT THAT!!)
G01 Z-0.300 F30
G03 F360
X11.714Y10.287 I0.000
(-->HOLE IS TOO SMALL, I CAN'T CUT THAT!!)
G01 Z-0.450 F30
G03 F360
X11.714Y10.287 I0.000
(-->HOLE IS TOO SMALL, I CAN'T CUT THAT!!)
G01 Z-0.600 F30
G03 F360
X11.714Y10.287 I0.000
(-->HOLE IS TOO SMALL, I CAN'T CUT THAT!!)
G01 Z-0.750 F30
G03 F360
X11.714Y10.287 I0.000
(-->HOLE IS TOO SMALL, I CAN'T CUT THAT!!)
G01 Z-0.900 F30
G03 F360
X11.714Y10.287 I0.000
(-->HOLE IS TOO SMALL, I CAN'T CUT THAT!!)
G01 Z-1.050 F30
G03 F360
X11.714Y10.287 I0.000
(-->HOLE IS TOO SMALL, I CAN'T CUT THAT!!)
G01 Z-1.200 F30
G03 F360
X11.714Y10.287 I0.000
(-->HOLE IS TOO SMALL, I CAN'T CUT THAT!!)
G01 Z-1.350 F30
G03 F360
X11.714Y10.287 I0.000
(-->HOLE IS TOO SMALL, I CAN'T CUT THAT!!)
G01 Z-1.500 F30
G03 F360
X11.714Y10.287 I0.000
(-->HOLE IS TOO SMALL, I CAN'T CUT THAT!!)
G01 Z-1.600 F30
G03 F360
X11.714Y10.287 I0.000
(-->HOLE IS TOO SMALL, I CAN'T CUT THAT!!)
G00 Z1.000
G00 X21.493Y52.832
G01 Z-0.150 F30
G03 F360
X21.493Y52.832 I0.000
(-->HOLE IS TOO SMALL, I CAN'T CUT THAT!!)
G01 Z-0.300 F30
G03 F360
X21.493Y52.832 I0.000
(-->HOLE IS TOO SMALL, I CAN'T CUT THAT!!)
G01 Z-0.450 F30
G03 F360
X21.493Y52.832 I0.000
(-->HOLE IS TOO SMALL, I CAN'T CUT THAT!!)
G01 Z-0.600 F30
G03 F360
X21.493Y52.832 I0.000
(-->HOLE IS TOO SMALL, I CAN'T CUT THAT!!)
G01 Z-0.750 F30
G03 F360
X21.493Y52.832 I0.000
(-->HOLE IS TOO SMALL, I CAN'T CUT THAT!!)
G01 Z-0.900 F30
G03 F360
X21.493Y52.832 I0.000
(-->HOLE IS TOO SMALL, I CAN'T CUT THAT!!)
G01 Z-1.050 F30
G03 F360
X21.493Y52.832 I0.000
(-->HOLE IS TOO SMALL, I CAN'T CUT THAT!!)
G01 Z-1.200 F30
G03 F360
X21.493Y52.832 I0.000
(-->HOLE IS TOO SMALL, I CAN'T CUT THAT!!)
G01 Z-1.350 F30
G03 F360
X21.493Y52.832 I0.000
(-->HOLE IS TOO SMALL, I CAN'T CUT THAT!!)
G01 Z-1.500 F30
G03 F360
X21.493Y52.832 I0.000
(-->HOLE IS TOO SMALL, I CAN'T CUT THAT!!)
G01 Z-1.600 F30
G03 F360
X21.493Y52.832 I0.000
(-->HOLE IS TOO SMALL, I CAN'T CUT THAT!!)
G00 Z1.000
G00 X30.256Y30.353
G01 Z-0.150 F30
G03 F360
X30.256Y30.353 I0.000
(-->HOLE IS TOO SMALL, I CAN'T CUT THAT!!)
G01 Z-0.300 F30
G03 F360
X30.256Y30.353 I0.000
(-->HOLE IS TOO SMALL, I CAN'T CUT THAT!!)
G01 Z-0.450 F30
G03 F360
X30.256Y30.353 I0.000
(-->HOLE IS TOO SMALL, I CAN'T CUT THAT!!)
G01 Z-0.600 F30
G03 F360
X30.256Y30.353 I0.000
(-->HOLE IS TOO SMALL, I CAN'T CUT THAT!!)
G01 Z-0.750 F30
G03 F360
X30.256Y30.353 I0.000
(-->HOLE IS TOO SMALL, I CAN'T CUT THAT!!)
G01 Z-0.900 F30
G03 F360
X30.256Y30.353 I0.000
(-->HOLE IS TOO SMALL, I CAN'T CUT THAT!!)
G01 Z-1.050 F30
G03 F360
X30.256Y30.353 I0.000
(-->HOLE IS TOO SMALL, I CAN'T CUT THAT!!)
G01 Z-1.200 F30
G03 F360
X30.256Y30.353 I0.000
(-->HOLE IS TOO SMALL, I CAN'T CUT THAT!!)
G01 Z-1.350 F30
G03 F360
X30.256Y30.353 I0.000
(-->HOLE IS TOO SMALL, I CAN'T CUT THAT!!)
G01 Z-1.500 F30
G03 F360
X30.256Y30.353 I0.000
(-->HOLE IS TOO SMALL, I CAN'T CUT THAT!!)
G01 Z-1.600 F30
G03 F360
X30.256Y30.353 I0.000
(-->HOLE IS TOO SMALL, I CAN'T CUT THAT!!)
G00 Z1.000
G00 X29.875Y48.006
G01 Z-0.150 F30
G03 F360
X29.875Y48.006 I0.000
(-->HOLE IS TOO SMALL, I CAN'T CUT THAT!!)
G01 Z-0.300 F30
G03 F360
X29.875Y48.006 I0.000
(-->HOLE IS TOO SMALL, I CAN'T CUT THAT!!)
G01 Z-0.450 F30
G03 F360
X29.875Y48.006 I0.000
(-->HOLE IS TOO SMALL, I CAN'T CUT THAT!!)
G01 Z-0.600 F30
G03 F360
X29.875Y48.006 I0.000
(-->HOLE IS TOO SMALL, I CAN'T CUT THAT!!)
G01 Z-0.750 F30
G03 F360
X29.875Y48.006 I0.000
(-->HOLE IS TOO SMALL, I CAN'T CUT THAT!!)
G01 Z-0.900 F30
G03 F360
X29.875Y48.006 I0.000
(-->HOLE IS TOO SMALL, I CAN'T CUT THAT!!)
G01 Z-1.050 F30
G03 F360
X29.875Y48.006 I0.000
(-->HOLE IS TOO SMALL, I CAN'T CUT THAT!!)
G01 Z-1.200 F30
G03 F360
X29.875Y48.006 I0.000
(-->HOLE IS TOO SMALL, I CAN'T CUT THAT!!)
G01 Z-1.350 F30
G03 F360
X29.875Y48.006 I0.000
(-->HOLE IS TOO SMALL, I CAN'T CUT THAT!!)
G01 Z-1.500 F30
G03 F360
X29.875Y48.006 I0.000
(-->HOLE IS TOO SMALL, I CAN'T CUT THAT!!)
G01 Z-1.600 F30
G03 F360
X29.875Y48.006 I0.000
(-->HOLE IS TOO SMALL, I CAN'T CUT THAT!!)
G00 Z1.000
G00 X23.398Y55.118
G01 Z-0.150 F30
G03 F360
X23.398Y55.118 I0.000
(-->HOLE IS TOO SMALL, I CAN'T CUT THAT!!)
G01 Z-0.300 F30
G03 F360
X23.398Y55.118 I0.000
(-->HOLE IS TOO SMALL, I CAN'T CUT THAT!!)
G01 Z-0.450 F30
G03 F360
X23.398Y55.118 I0.000
(-->HOLE IS TOO SMALL, I CAN'T CUT THAT!!)
G01 Z-0.600 F30
G03 F360
X23.398Y55.118 I0.000
(-->HOLE IS TOO SMALL, I CAN'T CUT THAT!!)
G01 Z-0.750 F30
G03 F360
X23.398Y55.118 I0.000
(-->HOLE IS TOO SMALL, I CAN'T CUT THAT!!)
G01 Z-0.900 F30
G03 F360
X23.398Y55.118 I0.000
(-->HOLE IS TOO SMALL, I CAN'T CUT THAT!!)
G01 Z-1.050 F30
G03 F360
X23.398Y55.118 I0.000
(-->HOLE IS TOO SMALL, I CAN'T CUT THAT!!)
G01 Z-1.200 F30
G03 F360
X23.398Y55.118 I0.000
(-->HOLE IS TOO SMALL, I CAN'T CUT THAT!!)
G01 Z-1.350 F30
G03 F360
X23.398Y55.118 I0.000
(-->HOLE IS TOO SMALL, I CAN'T CUT THAT!!)
G01 Z-1.500 F30
G03 F360
X23.398Y55.118 I0.000
(-->HOLE IS TOO SMALL, I CAN'T CUT THAT!!)
G01 Z-1.600 F30
G03 F360
X23.398Y55.118 I0.000
(-->HOLE IS TOO SMALL, I CAN'T CUT THAT!!)
G00 Z1.000
G00 X26.356Y41.656
G01 Z-0.150 F30
G03 F360
X26.356Y41.656 I0.000
(-->HOLE IS TOO SMALL, I CAN'T CUT THAT!!)
G01 Z-0.300 F30
G03 F360
X26.356Y41.656 I0.000
(-->HOLE IS TOO SMALL, I CAN'T CUT THAT!!)
G01 Z-0.450 F30
G03 F360
X26.356Y41.656 I0.000
(-->HOLE IS TOO SMALL, I CAN'T CUT THAT!!)
G01 Z-0.600 F30
G03 F360
X26.356Y41.656 I0.000
(-->HOLE IS TOO SMALL, I CAN'T CUT THAT!!)
G01 Z-0.750 F30
G03 F360
X26.356Y41.656 I0.000
(-->HOLE IS TOO SMALL, I CAN'T CUT THAT!!)
G01 Z-0.900 F30
G03 F360
X26.356Y41.656 I0.000
(-->HOLE IS TOO SMALL, I CAN'T CUT THAT!!)
G01 Z-1.050 F30
G03 F360
X26.356Y41.656 I0.000
(-->HOLE IS TOO SMALL, I CAN'T CUT THAT!!)
G01 Z-1.200 F30
G03 F360
X26.356Y41.656 I0.000
(-->HOLE IS TOO SMALL, I CAN'T CUT THAT!!)
G01 Z-1.350 F30
G03 F360
X26.356Y41.656 I0.000
(-->HOLE IS TOO SMALL, I CAN'T CUT THAT!!)
G01 Z-1.500 F30
G03 F360
X26.356Y41.656 I0.000
(-->HOLE IS TOO SMALL, I CAN'T CUT THAT!!)
G01 Z-1.600 F30
G03 F360
X26.356Y41.656 I0.000
(-->HOLE IS TOO SMALL, I CAN'T CUT THAT!!)
G00 Z1.000
G00 X16.196Y49.657
G01 Z-0.150 F30
G03 F360
X16.196Y49.657 I0.000
(-->HOLE IS TOO SMALL, I CAN'T CUT THAT!!)
G01 Z-0.300 F30
G03 F360
X16.196Y49.657 I0.000
(-->HOLE IS TOO SMALL, I CAN'T CUT THAT!!)
G01 Z-0.450 F30
G03 F360
X16.196Y49.657 I0.000
(-->HOLE IS TOO SMALL, I CAN'T CUT THAT!!)
G01 Z-0.600 F30
G03 F360
X16.196Y49.657 I0.000
(-->HOLE IS TOO SMALL, I CAN'T CUT THAT!!)
G01 Z-0.750 F30
G03 F360
X16.196Y49.657 I0.000
(-->HOLE IS TOO SMALL, I CAN'T CUT THAT!!)
G01 Z-0.900 F30
G03 F360
X16.196Y49.657 I0.000
(-->HOLE IS TOO SMALL, I CAN'T CUT THAT!!)
G01 Z-1.050 F30
G03 F360
X16.196Y49.657 I0.000
(-->HOLE IS TOO SMALL, I CAN'T CUT THAT!!)
G01 Z-1.200 F30
G03 F360
X16.196Y49.657 I0.000
(-->HOLE IS TOO SMALL, I CAN'T CUT THAT!!)
G01 Z-1.350 F30
G03 F360
X16.196Y49.657 I0.000
(-->HOLE IS TOO SMALL, I CAN'T CUT THAT!!)
G01 Z-1.500 F30
G03 F360
X16.196Y49.657 I0.000
(-->HOLE IS TOO SMALL, I CAN'T CUT THAT!!)
G01 Z-1.600 F30
G03 F360
X16.196Y49.657 I0.000
G00 Z1.000
M05
G04 P4000
G00 X0Y0
