(RS-274 Compatible G-code generated for UCCNC controller and Stepcraft 2 Mill)
(Created by in EagleCAD with the stepcraft.ulp 0.2.)
(File: was created on: 3/21/16 3:16 PM)
SHRINK_WIDTH: 0.200000

G90 G94 G49
G00 Z5.000
G00 X12.101 Y53.465 F1500
G00 Z0.000 F500
G01 X12.101 Y53.465 F1500
G01 X12.101 Y55.015 F1500
G01 X10.251 Y55.015 F1500
G01 X10.251 Y53.465 F1500
G01 X12.101 Y53.465 F1500
G00 Z4.000 F500
G00 X12.101 Y53.465 F1500
G00 Z0.000 F500
G01 X12.101 Y53.465 F1500
G01 X12.101 Y55.015 F1500
G01 X10.251 Y55.015 F1500
G01 X10.251 Y53.465 F1500
G01 X12.101 Y53.465 F1500
G00 Z4.000 F500

G00 X12.101 Y51.665 F1500
G00 Z0.000 F500
G01 X12.101 Y51.665 F1500
G01 X12.101 Y53.215 F1500
G01 X10.251 Y53.215 F1500
G01 X10.251 Y51.665 F1500
G01 X12.101 Y51.665 F1500
G00 Z4.000 F500
G00 X12.101 Y51.665 F1500
G00 Z0.000 F500
G01 X12.101 Y51.665 F1500
G01 X12.101 Y53.215 F1500
G01 X10.251 Y53.215 F1500
G01 X10.251 Y51.665 F1500
G01 X12.101 Y51.665 F1500
G00 Z4.000 F500

G00 X24.293 Y53.465 F1500
G00 Z0.000 F500
G01 X24.293 Y53.465 F1500
G01 X24.293 Y55.015 F1500
G01 X22.443 Y55.015 F1500
G01 X22.443 Y53.465 F1500
G01 X24.293 Y53.465 F1500
G00 Z4.000 F500
G00 X24.293 Y53.465 F1500
G00 Z0.000 F500
G01 X24.293 Y53.465 F1500
G01 X24.293 Y55.015 F1500
G01 X22.443 Y55.015 F1500
G01 X22.443 Y53.465 F1500
G01 X24.293 Y53.465 F1500
G00 Z4.000 F500

G00 X24.293 Y51.665 F1500
G00 Z0.000 F500
G01 X24.293 Y51.665 F1500
G01 X24.293 Y53.215 F1500
G01 X22.443 Y53.215 F1500
G01 X22.443 Y51.665 F1500
G01 X24.293 Y51.665 F1500
G00 Z4.000 F500
G00 X24.293 Y51.665 F1500
G00 Z0.000 F500
G01 X24.293 Y51.665 F1500
G01 X24.293 Y53.215 F1500
G01 X22.443 Y53.215 F1500
G01 X22.443 Y51.665 F1500
G01 X24.293 Y51.665 F1500
G00 Z4.000 F500

G00 X29.148 Y40.765 F1500
G00 Z0.000 F500
G01 X29.148 Y40.765 F1500
G01 X29.148 Y42.115 F1500
G01 X27.748 Y42.115 F1500
G01 X27.748 Y40.765 F1500
G01 X29.148 Y40.765 F1500
G00 Z4.000 F500
G00 X29.148 Y40.765 F1500
G00 Z0.000 F500
G01 X29.148 Y40.765 F1500
G01 X29.148 Y42.115 F1500
G01 X27.748 Y42.115 F1500
G01 X27.748 Y40.765 F1500
G01 X29.148 Y40.765 F1500
G00 Z4.000 F500

G00 X29.148 Y39.165 F1500
G00 Z0.000 F500
G01 X29.148 Y39.165 F1500
G01 X29.148 Y40.515 F1500
G01 X27.748 Y40.515 F1500
G01 X27.748 Y39.165 F1500
G01 X29.148 Y39.165 F1500
G00 Z4.000 F500
G00 X29.148 Y39.165 F1500
G00 Z0.000 F500
G01 X29.148 Y39.165 F1500
G01 X29.148 Y40.515 F1500
G01 X27.748 Y40.515 F1500
G01 X27.748 Y39.165 F1500
G01 X29.148 Y39.165 F1500
G00 Z4.000 F500

G00 X29.656 Y35.177 F1500
G00 Z0.000 F500
G01 X29.656 Y35.177 F1500
G01 X29.656 Y36.527 F1500
G01 X28.256 Y36.527 F1500
G01 X28.256 Y35.177 F1500
G01 X29.656 Y35.177 F1500
G00 Z4.000 F500
G00 X29.656 Y35.177 F1500
G00 Z0.000 F500
G01 X29.656 Y35.177 F1500
G01 X29.656 Y36.527 F1500
G01 X28.256 Y36.527 F1500
G01 X28.256 Y35.177 F1500
G01 X29.656 Y35.177 F1500
G00 Z4.000 F500

G00 X29.656 Y33.577 F1500
G00 Z0.000 F500
G01 X29.656 Y33.577 F1500
G01 X29.656 Y34.927 F1500
G01 X28.256 Y34.927 F1500
G01 X28.256 Y33.577 F1500
G01 X29.656 Y33.577 F1500
G00 Z4.000 F500
G00 X29.656 Y33.577 F1500
G00 Z0.000 F500
G01 X29.656 Y33.577 F1500
G01 X29.656 Y34.927 F1500
G01 X28.256 Y34.927 F1500
G01 X28.256 Y33.577 F1500
G01 X29.656 Y33.577 F1500
G00 Z4.000 F500

G00 X17.464 Y42.797 F1500
G00 Z0.000 F500
G01 X17.464 Y42.797 F1500
G01 X17.464 Y44.147 F1500
G01 X16.064 Y44.147 F1500
G01 X16.064 Y42.797 F1500
G01 X17.464 Y42.797 F1500
G00 Z4.000 F500
G00 X17.464 Y42.797 F1500
G00 Z0.000 F500
G01 X17.464 Y42.797 F1500
G01 X17.464 Y44.147 F1500
G01 X16.064 Y44.147 F1500
G01 X16.064 Y42.797 F1500
G01 X17.464 Y42.797 F1500
G00 Z4.000 F500

G00 X17.464 Y41.197 F1500
G00 Z0.000 F500
G01 X17.464 Y41.197 F1500
G01 X17.464 Y42.547 F1500
G01 X16.064 Y42.547 F1500
G01 X16.064 Y41.197 F1500
G01 X17.464 Y41.197 F1500
G00 Z4.000 F500
G00 X17.464 Y41.197 F1500
G00 Z0.000 F500
G01 X17.464 Y41.197 F1500
G01 X17.464 Y42.547 F1500
G01 X16.064 Y42.547 F1500
G01 X16.064 Y41.197 F1500
G01 X17.464 Y41.197 F1500
G00 Z4.000 F500

G00 X10.310 Y46.828 F1500
G00 Z0.000 F500
G01 X10.310 Y46.828 F1500
G01 X10.310 Y45.628 F1500
G01 X11.510 Y45.628 F1500
G01 X11.510 Y46.828 F1500
G01 X10.310 Y46.828 F1500
G00 Z4.000 F500
G00 X10.310 Y46.828 F1500
G00 Z0.000 F500
G01 X10.310 Y46.828 F1500
G01 X10.310 Y45.628 F1500
G01 X11.510 Y45.628 F1500
G01 X11.510 Y46.828 F1500
G01 X10.310 Y46.828 F1500
G00 Z4.000 F500

G00 X8.810 Y46.828 F1500
G00 Z0.000 F500
G01 X8.810 Y46.828 F1500
G01 X8.810 Y45.628 F1500
G01 X10.010 Y45.628 F1500
G01 X10.010 Y46.828 F1500
G01 X8.810 Y46.828 F1500
G00 Z4.000 F500
G00 X8.810 Y46.828 F1500
G00 Z0.000 F500
G01 X8.810 Y46.828 F1500
G01 X8.810 Y45.628 F1500
G01 X10.010 Y45.628 F1500
G01 X10.010 Y46.828 F1500
G01 X8.810 Y46.828 F1500
G00 Z4.000 F500

G00 X29.214 Y43.996 F1500
G00 Z0.000 F500
G01 X29.214 Y43.996 F1500
G01 X27.814 Y43.996 F1500
G01 X27.814 Y42.196 F1500
G01 X29.214 Y42.196 F1500
G01 X29.214 Y43.996 F1500
G00 Z4.000 F500
G00 X29.214 Y43.996 F1500
G00 Z0.000 F500
G01 X29.214 Y43.996 F1500
G01 X27.814 Y43.996 F1500
G01 X27.814 Y42.196 F1500
G01 X29.214 Y42.196 F1500
G01 X29.214 Y43.996 F1500
G00 Z4.000 F500

G00 X31.114 Y43.996 F1500
G00 Z0.000 F500
G01 X31.114 Y43.996 F1500
G01 X29.714 Y43.996 F1500
G01 X29.714 Y42.196 F1500
G01 X31.114 Y42.196 F1500
G01 X31.114 Y43.996 F1500
G00 Z4.000 F500
G00 X31.114 Y43.996 F1500
G00 Z0.000 F500
G01 X31.114 Y43.996 F1500
G01 X29.714 Y43.996 F1500
G01 X29.714 Y42.196 F1500
G01 X31.114 Y42.196 F1500
G01 X31.114 Y43.996 F1500
G00 Z4.000 F500

G00 X30.164 Y46.196 F1500
G00 Z0.000 F500
G01 X30.164 Y46.196 F1500
G01 X28.764 Y46.196 F1500
G01 X28.764 Y44.396 F1500
G01 X30.164 Y44.396 F1500
G01 X30.164 Y46.196 F1500
G00 Z4.000 F500
G00 X30.164 Y46.196 F1500
G00 Z0.000 F500
G01 X30.164 Y46.196 F1500
G01 X28.764 Y46.196 F1500
G01 X28.764 Y44.396 F1500
G01 X30.164 Y44.396 F1500
G01 X30.164 Y46.196 F1500
G00 Z4.000 F500

G00 X22.735 Y43.626 F1500
G00 Z0.000 F500
G01 X22.735 Y43.626 F1500
G01 X21.385 Y43.626 F1500
G01 X21.385 Y42.226 F1500
G01 X22.735 Y42.226 F1500
G01 X22.735 Y43.626 F1500
G00 Z4.000 F500
G00 X22.735 Y43.626 F1500
G00 Z0.000 F500
G01 X22.735 Y43.626 F1500
G01 X21.385 Y43.626 F1500
G01 X21.385 Y42.226 F1500
G01 X22.735 Y42.226 F1500
G01 X22.735 Y43.626 F1500
G00 Z4.000 F500

G00 X24.335 Y43.626 F1500
G00 Z0.000 F500
G01 X24.335 Y43.626 F1500
G01 X22.985 Y43.626 F1500
G01 X22.985 Y42.226 F1500
G01 X24.335 Y42.226 F1500
G01 X24.335 Y43.626 F1500
G00 Z4.000 F500
G00 X24.335 Y43.626 F1500
G00 Z0.000 F500
G01 X24.335 Y43.626 F1500
G01 X22.985 Y43.626 F1500
G01 X22.985 Y42.226 F1500
G01 X24.335 Y42.226 F1500
G01 X24.335 Y43.626 F1500
G00 Z4.000 F500

G00 X23.493 Y44.004 F1500
G00 Z0.000 F500
G01 X23.493 Y44.004 F1500
G01 X24.843 Y44.004 F1500
G01 X24.843 Y45.404 F1500
G01 X23.493 Y45.404 F1500
G01 X23.493 Y44.004 F1500
G00 Z4.000 F500
G00 X23.493 Y44.004 F1500
G00 Z0.000 F500
G01 X23.493 Y44.004 F1500
G01 X24.843 Y44.004 F1500
G01 X24.843 Y45.404 F1500
G01 X23.493 Y45.404 F1500
G01 X23.493 Y44.004 F1500
G00 Z4.000 F500

G00 X21.893 Y44.004 F1500
G00 Z0.000 F500
G01 X21.893 Y44.004 F1500
G01 X23.243 Y44.004 F1500
G01 X23.243 Y45.404 F1500
G01 X21.893 Y45.404 F1500
G01 X21.893 Y44.004 F1500
G00 Z4.000 F500
G00 X21.893 Y44.004 F1500
G00 Z0.000 F500
G01 X21.893 Y44.004 F1500
G01 X23.243 Y44.004 F1500
G01 X23.243 Y45.404 F1500
G01 X21.893 Y45.404 F1500
G01 X21.893 Y44.004 F1500
G00 Z4.000 F500

G00 X29.780 Y40.515 F1500
G00 Z0.000 F500
G01 X29.780 Y40.515 F1500
G01 X29.780 Y39.165 F1500
G01 X31.180 Y39.165 F1500
G01 X31.180 Y40.515 F1500
G01 X29.780 Y40.515 F1500
G00 Z4.000 F500
G00 X29.780 Y40.515 F1500
G00 Z0.000 F500
G01 X29.780 Y40.515 F1500
G01 X29.780 Y39.165 F1500
G01 X31.180 Y39.165 F1500
G01 X31.180 Y40.515 F1500
G01 X29.780 Y40.515 F1500
G00 Z4.000 F500

G00 X29.780 Y42.115 F1500
G00 Z0.000 F500
G01 X29.780 Y42.115 F1500
G01 X29.780 Y40.765 F1500
G01 X31.180 Y40.765 F1500
G01 X31.180 Y42.115 F1500
G01 X29.780 Y42.115 F1500
G00 Z4.000 F500
G00 X29.780 Y42.115 F1500
G00 Z0.000 F500
G01 X29.780 Y42.115 F1500
G01 X29.780 Y40.765 F1500
G01 X31.180 Y40.765 F1500
G01 X31.180 Y42.115 F1500
G01 X29.780 Y42.115 F1500
G00 Z4.000 F500

G00 X28.640 Y47.369 F1500
G00 Z0.000 F500
G01 X28.640 Y47.369 F1500
G01 X28.640 Y48.719 F1500
G01 X27.240 Y48.719 F1500
G01 X27.240 Y47.369 F1500
G01 X28.640 Y47.369 F1500
G00 Z4.000 F500
G00 X28.640 Y47.369 F1500
G00 Z0.000 F500
G01 X28.640 Y47.369 F1500
G01 X28.640 Y48.719 F1500
G01 X27.240 Y48.719 F1500
G01 X27.240 Y47.369 F1500
G01 X28.640 Y47.369 F1500
G00 Z4.000 F500

G00 X28.640 Y45.769 F1500
G00 Z0.000 F500
G01 X28.640 Y45.769 F1500
G01 X28.640 Y47.119 F1500
G01 X27.240 Y47.119 F1500
G01 X27.240 Y45.769 F1500
G01 X28.640 Y45.769 F1500
G00 Z4.000 F500
G00 X28.640 Y45.769 F1500
G00 Z0.000 F500
G01 X28.640 Y45.769 F1500
G01 X28.640 Y47.119 F1500
G01 X27.240 Y47.119 F1500
G01 X27.240 Y45.769 F1500
G01 X28.640 Y45.769 F1500
G00 Z4.000 F500

G00 X16.064 Y46.103 F1500
G00 Z0.000 F500
G01 X16.064 Y46.103 F1500
G01 X16.064 Y44.753 F1500
G01 X17.464 Y44.753 F1500
G01 X17.464 Y46.103 F1500
G01 X16.064 Y46.103 F1500
G00 Z4.000 F500
G00 X16.064 Y46.103 F1500
G00 Z0.000 F500
G01 X16.064 Y46.103 F1500
G01 X16.064 Y44.753 F1500
G01 X17.464 Y44.753 F1500
G01 X17.464 Y46.103 F1500
G01 X16.064 Y46.103 F1500
G00 Z4.000 F500

G00 X16.064 Y47.703 F1500
G00 Z0.000 F500
G01 X16.064 Y47.703 F1500
G01 X16.064 Y46.353 F1500
G01 X17.464 Y46.353 F1500
G01 X17.464 Y47.703 F1500
G01 X16.064 Y47.703 F1500
G00 Z4.000 F500
G00 X16.064 Y47.703 F1500
G00 Z0.000 F500
G01 X16.064 Y47.703 F1500
G01 X16.064 Y46.353 F1500
G01 X17.464 Y46.353 F1500
G01 X17.464 Y47.703 F1500
G01 X16.064 Y47.703 F1500
G00 Z4.000 F500

G00 X12.508 Y47.627 F1500
G00 Z0.000 F500
G01 X12.508 Y47.627 F1500
G01 X12.508 Y46.277 F1500
G01 X13.908 Y46.277 F1500
G01 X13.908 Y47.627 F1500
G01 X12.508 Y47.627 F1500
G00 Z4.000 F500
G00 X12.508 Y47.627 F1500
G00 Z0.000 F500
G01 X12.508 Y47.627 F1500
G01 X12.508 Y46.277 F1500
G01 X13.908 Y46.277 F1500
G01 X13.908 Y47.627 F1500
G01 X12.508 Y47.627 F1500
G00 Z4.000 F500

G00 X12.508 Y49.227 F1500
G00 Z0.000 F500
G01 X12.508 Y49.227 F1500
G01 X12.508 Y47.877 F1500
G01 X13.908 Y47.877 F1500
G01 X13.908 Y49.227 F1500
G01 X12.508 Y49.227 F1500
G00 Z4.000 F500
G00 X12.508 Y49.227 F1500
G00 Z0.000 F500
G01 X12.508 Y49.227 F1500
G01 X12.508 Y47.877 F1500
G01 X13.908 Y47.877 F1500
G01 X13.908 Y49.227 F1500
G01 X12.508 Y49.227 F1500
G00 Z4.000 F500

G00 X7.679 Y16.981 F1500
G00 Z0.000 F500
G01 X7.679 Y16.981 F1500
G01 X7.679 Y18.431 F1500
G01 X5.529 Y18.431 F1500
G01 X5.529 Y16.981 F1500
G01 X7.679 Y16.981 F1500
G00 Z4.000 F500
G00 X7.679 Y16.981 F1500
G00 Z0.000 F500
G01 X7.679 Y16.981 F1500
G01 X7.679 Y18.431 F1500
G01 X5.529 Y18.431 F1500
G01 X5.529 Y16.981 F1500
G01 X7.679 Y16.981 F1500
G00 Z4.000 F500

G00 X7.679 Y14.081 F1500
G00 Z0.000 F500
G01 X7.679 Y14.081 F1500
G01 X7.679 Y15.531 F1500
G01 X5.529 Y15.531 F1500
G01 X5.529 Y14.081 F1500
G01 X7.679 Y14.081 F1500
G00 Z4.000 F500
G00 X7.679 Y14.081 F1500
G00 Z0.000 F500
G01 X7.679 Y14.081 F1500
G01 X7.679 Y15.531 F1500
G01 X5.529 Y15.531 F1500
G01 X5.529 Y14.081 F1500
G01 X7.679 Y14.081 F1500
G00 Z4.000 F500

G00 X10.219 Y14.441 F1500
G00 Z0.000 F500
G01 X10.219 Y14.441 F1500
G01 X10.219 Y15.891 F1500
G01 X8.069 Y15.891 F1500
G01 X8.069 Y14.441 F1500
G01 X10.219 Y14.441 F1500
G00 Z4.000 F500
G00 X10.219 Y14.441 F1500
G00 Z0.000 F500
G01 X10.219 Y14.441 F1500
G01 X10.219 Y15.891 F1500
G01 X8.069 Y15.891 F1500
G01 X8.069 Y14.441 F1500
G01 X10.219 Y14.441 F1500
G00 Z4.000 F500

G00 X10.219 Y11.541 F1500
G00 Z0.000 F500
G01 X10.219 Y11.541 F1500
G01 X10.219 Y12.991 F1500
G01 X8.069 Y12.991 F1500
G01 X8.069 Y11.541 F1500
G01 X10.219 Y11.541 F1500
G00 Z4.000 F500
G00 X10.219 Y11.541 F1500
G00 Z0.000 F500
G01 X10.219 Y11.541 F1500
G01 X10.219 Y12.991 F1500
G01 X8.069 Y12.991 F1500
G01 X8.069 Y11.541 F1500
G01 X10.219 Y11.541 F1500
G00 Z4.000 F500

G00 X7.679 Y12.409 F1500
G00 Z0.000 F500
G01 X7.679 Y12.409 F1500
G01 X7.679 Y13.859 F1500
G01 X5.529 Y13.859 F1500
G01 X5.529 Y12.409 F1500
G01 X7.679 Y12.409 F1500
G00 Z4.000 F500
G00 X7.679 Y12.409 F1500
G00 Z0.000 F500
G01 X7.679 Y12.409 F1500
G01 X7.679 Y13.859 F1500
G01 X5.529 Y13.859 F1500
G01 X5.529 Y12.409 F1500
G01 X7.679 Y12.409 F1500
G00 Z4.000 F500

G00 X7.679 Y9.509 F1500
G00 Z0.000 F500
G01 X7.679 Y9.509 F1500
G01 X7.679 Y10.959 F1500
G01 X5.529 Y10.959 F1500
G01 X5.529 Y9.509 F1500
G01 X7.679 Y9.509 F1500
G00 Z4.000 F500
G00 X7.679 Y9.509 F1500
G00 Z0.000 F500
G01 X7.679 Y9.509 F1500
G01 X7.679 Y10.959 F1500
G01 X5.529 Y10.959 F1500
G01 X5.529 Y9.509 F1500
G01 X7.679 Y9.509 F1500
G00 Z4.000 F500

G00 X18.362 Y52.890 F1500
G00 Z0.000 F500
G01 X18.362 Y52.890 F1500
G01 X18.362 Y51.390 F1500
G01 X19.362 Y51.390 F1500
G01 X19.362 Y52.890 F1500
G01 X18.362 Y52.890 F1500
G00 Z4.000 F500
G00 X18.362 Y52.890 F1500
G00 Z0.000 F500
G01 X18.362 Y52.890 F1500
G01 X18.362 Y51.390 F1500
G01 X19.362 Y51.390 F1500
G01 X19.362 Y52.890 F1500
G01 X18.362 Y52.890 F1500
G00 Z4.000 F500

G00 X19.312 Y52.890 F1500
G00 Z0.000 F500
G01 X19.312 Y52.890 F1500
G01 X19.312 Y51.390 F1500
G01 X20.312 Y51.390 F1500
G01 X20.312 Y52.890 F1500
G01 X19.312 Y52.890 F1500
G00 Z4.000 F500
G00 X19.312 Y52.890 F1500
G00 Z0.000 F500
G01 X19.312 Y52.890 F1500
G01 X19.312 Y51.390 F1500
G01 X20.312 Y51.390 F1500
G01 X20.312 Y52.890 F1500
G01 X19.312 Y52.890 F1500
G00 Z4.000 F500

G00 X20.262 Y52.890 F1500
G00 Z0.000 F500
G01 X20.262 Y52.890 F1500
G01 X20.262 Y51.390 F1500
G01 X21.262 Y51.390 F1500
G01 X21.262 Y52.890 F1500
G01 X20.262 Y52.890 F1500
G00 Z4.000 F500
G00 X20.262 Y52.890 F1500
G00 Z0.000 F500
G01 X20.262 Y52.890 F1500
G01 X20.262 Y51.390 F1500
G01 X21.262 Y51.390 F1500
G01 X21.262 Y52.890 F1500
G01 X20.262 Y52.890 F1500
G00 Z4.000 F500

G00 X20.262 Y55.290 F1500
G00 Z0.000 F500
G01 X20.262 Y55.290 F1500
G01 X20.262 Y53.790 F1500
G01 X21.262 Y53.790 F1500
G01 X21.262 Y55.290 F1500
G01 X20.262 Y55.290 F1500
G00 Z4.000 F500
G00 X20.262 Y55.290 F1500
G00 Z0.000 F500
G01 X20.262 Y55.290 F1500
G01 X20.262 Y53.790 F1500
G01 X21.262 Y53.790 F1500
G01 X21.262 Y55.290 F1500
G01 X20.262 Y55.290 F1500
G00 Z4.000 F500

G00 X18.362 Y55.290 F1500
G00 Z0.000 F500
G01 X18.362 Y55.290 F1500
G01 X18.362 Y53.790 F1500
G01 X19.362 Y53.790 F1500
G01 X19.362 Y55.290 F1500
G01 X18.362 Y55.290 F1500
G00 Z4.000 F500
G00 X18.362 Y55.290 F1500
G00 Z0.000 F500
G01 X18.362 Y55.290 F1500
G01 X18.362 Y53.790 F1500
G01 X19.362 Y53.790 F1500
G01 X19.362 Y55.290 F1500
G01 X18.362 Y55.290 F1500
G00 Z4.000 F500

G00 X22.425 Y49.171 F1500
G00 Z0.000 F500
G01 X22.425 Y49.171 F1500
G01 X20.704 Y49.171 F1500
G01 X20.704 Y48.212 F1500
G01 X22.425 Y48.212 F1500
G01 X22.425 Y49.171 F1500
G00 Z4.000 F500
G00 X22.425 Y49.171 F1500
G00 Z0.000 F500
G01 X22.425 Y49.171 F1500
G01 X20.704 Y49.171 F1500
G01 X20.704 Y48.212 F1500
G01 X22.425 Y48.212 F1500
G01 X22.425 Y49.171 F1500
G00 Z4.000 F500

G00 X22.425 Y48.231 F1500
G00 Z0.000 F500
G01 X22.425 Y48.231 F1500
G01 X20.704 Y48.231 F1500
G01 X20.704 Y47.273 F1500
G01 X22.425 Y47.273 F1500
G01 X22.425 Y48.231 F1500
G00 Z4.000 F500
G00 X22.425 Y48.231 F1500
G00 Z0.000 F500
G01 X22.425 Y48.231 F1500
G01 X20.704 Y48.231 F1500
G01 X20.704 Y47.273 F1500
G01 X22.425 Y47.273 F1500
G01 X22.425 Y48.231 F1500
G00 Z4.000 F500

G00 X22.425 Y47.292 F1500
G00 Z0.000 F500
G01 X22.425 Y47.292 F1500
G01 X20.704 Y47.292 F1500
G01 X20.704 Y46.333 F1500
G01 X22.425 Y46.333 F1500
G01 X22.425 Y47.292 F1500
G00 Z4.000 F500
G00 X22.425 Y47.292 F1500
G00 Z0.000 F500
G01 X22.425 Y47.292 F1500
G01 X20.704 Y47.292 F1500
G01 X20.704 Y46.333 F1500
G01 X22.425 Y46.333 F1500
G01 X22.425 Y47.292 F1500
G00 Z4.000 F500

G00 X25.016 Y47.292 F1500
G00 Z0.000 F500
G01 X25.016 Y47.292 F1500
G01 X23.295 Y47.292 F1500
G01 X23.295 Y46.333 F1500
G01 X25.016 Y46.333 F1500
G01 X25.016 Y47.292 F1500
G00 Z4.000 F500
G00 X25.016 Y47.292 F1500
G00 Z0.000 F500
G01 X25.016 Y47.292 F1500
G01 X23.295 Y47.292 F1500
G01 X23.295 Y46.333 F1500
G01 X25.016 Y46.333 F1500
G01 X25.016 Y47.292 F1500
G00 Z4.000 F500

G00 X25.016 Y48.231 F1500
G00 Z0.000 F500
G01 X25.016 Y48.231 F1500
G01 X23.295 Y48.231 F1500
G01 X23.295 Y47.273 F1500
G01 X25.016 Y47.273 F1500
G01 X25.016 Y48.231 F1500
G00 Z4.000 F500
G00 X25.016 Y48.231 F1500
G00 Z0.000 F500
G01 X25.016 Y48.231 F1500
G01 X23.295 Y48.231 F1500
G01 X23.295 Y47.273 F1500
G01 X25.016 Y47.273 F1500
G01 X25.016 Y48.231 F1500
G00 Z4.000 F500

G00 X25.016 Y49.171 F1500
G00 Z0.000 F500
G01 X25.016 Y49.171 F1500
G01 X23.295 Y49.171 F1500
G01 X23.295 Y48.212 F1500
G01 X25.016 Y48.212 F1500
G01 X25.016 Y49.171 F1500
G00 Z4.000 F500
G00 X25.016 Y49.171 F1500
G00 Z0.000 F500
G01 X25.016 Y49.171 F1500
G01 X23.295 Y49.171 F1500
G01 X23.295 Y48.212 F1500
G01 X25.016 Y48.212 F1500
G01 X25.016 Y49.171 F1500
G00 Z4.000 F500

G00 X15.640 Y55.140 F1500
G00 Z0.000 F500
G01 X15.640 Y55.140 F1500
G01 X15.640 Y51.540 F1500
G01 X17.040 Y51.540 F1500
G01 X17.040 Y55.140 F1500
G01 X15.640 Y55.140 F1500
G00 Z4.000 F500
G00 X15.640 Y55.140 F1500
G00 Z0.000 F500
G01 X15.640 Y55.140 F1500
G01 X15.640 Y51.540 F1500
G01 X17.040 Y51.540 F1500
G01 X17.040 Y55.140 F1500
G01 X15.640 Y55.140 F1500
G00 Z4.000 F500

G00 X13.440 Y55.140 F1500
G00 Z0.000 F500
G01 X13.440 Y55.140 F1500
G01 X13.440 Y51.540 F1500
G01 X14.840 Y51.540 F1500
G01 X14.840 Y55.140 F1500
G01 X13.440 Y55.140 F1500
G00 Z4.000 F500
G00 X13.440 Y55.140 F1500
G00 Z0.000 F500
G01 X13.440 Y55.140 F1500
G01 X13.440 Y51.540 F1500
G01 X14.840 Y51.540 F1500
G01 X14.840 Y55.140 F1500
G01 X13.440 Y55.140 F1500
G00 Z4.000 F500

G00 X26.517 Y24.440 F1500
G00 Z0.000 F500
G01 X26.517 Y24.440 F1500
G01 X26.517 Y22.040 F1500
G01 X28.187 Y22.040 F1500
G01 X28.187 Y24.440 F1500
G01 X26.517 Y24.440 F1500
G00 Z4.000 F500
G00 X26.517 Y24.440 F1500
G00 Z0.000 F500
G01 X26.517 Y24.440 F1500
G01 X26.517 Y22.040 F1500
G01 X28.187 Y22.040 F1500
G01 X28.187 Y24.440 F1500
G01 X26.517 Y24.440 F1500
G00 Z4.000 F500

G00 X16.517 Y4.940 F1500
G00 Z0.000 F500
G01 X16.517 Y4.940 F1500
G01 X16.517 Y2.540 F1500
G01 X18.187 Y2.540 F1500
G01 X18.187 Y4.940 F1500
G01 X16.517 Y4.940 F1500
G00 Z4.000 F500
G00 X16.517 Y4.940 F1500
G00 Z0.000 F500
G01 X16.517 Y4.940 F1500
G01 X16.517 Y2.540 F1500
G01 X18.187 Y2.540 F1500
G01 X18.187 Y4.940 F1500
G01 X16.517 Y4.940 F1500
G00 Z4.000 F500

G00 X28.517 Y24.440 F1500
G00 Z0.000 F500
G01 X28.517 Y24.440 F1500
G01 X28.517 Y22.040 F1500
G01 X30.187 Y22.040 F1500
G01 X30.187 Y24.440 F1500
G01 X28.517 Y24.440 F1500
G00 Z4.000 F500
G00 X28.517 Y24.440 F1500
G00 Z0.000 F500
G01 X28.517 Y24.440 F1500
G01 X28.517 Y22.040 F1500
G01 X30.187 Y22.040 F1500
G01 X30.187 Y24.440 F1500
G01 X28.517 Y24.440 F1500
G00 Z4.000 F500

G00 X20.517 Y24.440 F1500
G00 Z0.000 F500
G01 X20.517 Y24.440 F1500
G01 X20.517 Y22.040 F1500
G01 X22.187 Y22.040 F1500
G01 X22.187 Y24.440 F1500
G01 X20.517 Y24.440 F1500
G00 Z4.000 F500
G00 X20.517 Y24.440 F1500
G00 Z0.000 F500
G01 X20.517 Y24.440 F1500
G01 X20.517 Y22.040 F1500
G01 X22.187 Y22.040 F1500
G01 X22.187 Y24.440 F1500
G01 X20.517 Y24.440 F1500
G00 Z4.000 F500

G00 X18.517 Y24.440 F1500
G00 Z0.000 F500
G01 X18.517 Y24.440 F1500
G01 X18.517 Y22.040 F1500
G01 X20.187 Y22.040 F1500
G01 X20.187 Y24.440 F1500
G01 X18.517 Y24.440 F1500
G00 Z4.000 F500
G00 X18.517 Y24.440 F1500
G00 Z0.000 F500
G01 X18.517 Y24.440 F1500
G01 X18.517 Y22.040 F1500
G01 X20.187 Y22.040 F1500
G01 X20.187 Y24.440 F1500
G01 X18.517 Y24.440 F1500
G00 Z4.000 F500

G00 X16.517 Y24.440 F1500
G00 Z0.000 F500
G01 X16.517 Y24.440 F1500
G01 X16.517 Y22.040 F1500
G01 X18.187 Y22.040 F1500
G01 X18.187 Y24.440 F1500
G01 X16.517 Y24.440 F1500
G00 Z4.000 F500
G00 X16.517 Y24.440 F1500
G00 Z0.000 F500
G01 X16.517 Y24.440 F1500
G01 X16.517 Y22.040 F1500
G01 X18.187 Y22.040 F1500
G01 X18.187 Y24.440 F1500
G01 X16.517 Y24.440 F1500
G00 Z4.000 F500

G00 X22.517 Y24.440 F1500
G00 Z0.000 F500
G01 X22.517 Y24.440 F1500
G01 X22.517 Y22.040 F1500
G01 X24.187 Y22.040 F1500
G01 X24.187 Y24.440 F1500
G01 X22.517 Y24.440 F1500
G00 Z4.000 F500
G00 X22.517 Y24.440 F1500
G00 Z0.000 F500
G01 X22.517 Y24.440 F1500
G01 X22.517 Y22.040 F1500
G01 X24.187 Y22.040 F1500
G01 X24.187 Y24.440 F1500
G01 X22.517 Y24.440 F1500
G00 Z4.000 F500

G00 X28.517 Y4.940 F1500
G00 Z0.000 F500
G01 X28.517 Y4.940 F1500
G01 X28.517 Y2.540 F1500
G01 X30.187 Y2.540 F1500
G01 X30.187 Y4.940 F1500
G01 X28.517 Y4.940 F1500
G00 Z4.000 F500
G00 X28.517 Y4.940 F1500
G00 Z0.000 F500
G01 X28.517 Y4.940 F1500
G01 X28.517 Y2.540 F1500
G01 X30.187 Y2.540 F1500
G01 X30.187 Y4.940 F1500
G01 X28.517 Y4.940 F1500
G00 Z4.000 F500

G00 X19.402 Y37.823 F1500
G00 Z0.000 F500
G01 X19.402 Y37.823 F1500
G01 X17.732 Y37.823 F1500
G01 X17.732 Y36.865 F1500
G01 X19.402 Y36.865 F1500
G01 X19.402 Y37.823 F1500
G00 Z4.000 F500
G00 X19.402 Y37.823 F1500
G00 Z0.000 F500
G01 X19.402 Y37.823 F1500
G01 X17.732 Y37.823 F1500
G01 X17.732 Y36.865 F1500
G01 X19.402 Y36.865 F1500
G01 X19.402 Y37.823 F1500
G00 Z4.000 F500

G00 X19.402 Y37.023 F1500
G00 Z0.000 F500
G01 X19.402 Y37.023 F1500
G01 X17.732 Y37.023 F1500
G01 X17.732 Y36.065 F1500
G01 X19.402 Y36.065 F1500
G01 X19.402 Y37.023 F1500
G00 Z4.000 F500
G00 X19.402 Y37.023 F1500
G00 Z0.000 F500
G01 X19.402 Y37.023 F1500
G01 X17.732 Y37.023 F1500
G01 X17.732 Y36.065 F1500
G01 X19.402 Y36.065 F1500
G01 X19.402 Y37.023 F1500
G00 Z4.000 F500

G00 X19.402 Y36.223 F1500
G00 Z0.000 F500
G01 X19.402 Y36.223 F1500
G01 X17.732 Y36.223 F1500
G01 X17.732 Y35.265 F1500
G01 X19.402 Y35.265 F1500
G01 X19.402 Y36.223 F1500
G00 Z4.000 F500
G00 X19.402 Y36.223 F1500
G00 Z0.000 F500
G01 X19.402 Y36.223 F1500
G01 X17.732 Y36.223 F1500
G01 X17.732 Y35.265 F1500
G01 X19.402 Y35.265 F1500
G01 X19.402 Y36.223 F1500
G00 Z4.000 F500

G00 X19.402 Y35.423 F1500
G00 Z0.000 F500
G01 X19.402 Y35.423 F1500
G01 X17.732 Y35.423 F1500
G01 X17.732 Y34.465 F1500
G01 X19.402 Y34.465 F1500
G01 X19.402 Y35.423 F1500
G00 Z4.000 F500
G00 X19.402 Y35.423 F1500
G00 Z0.000 F500
G01 X19.402 Y35.423 F1500
G01 X17.732 Y35.423 F1500
G01 X17.732 Y34.465 F1500
G01 X19.402 Y34.465 F1500
G01 X19.402 Y35.423 F1500
G00 Z4.000 F500

G00 X19.402 Y34.623 F1500
G00 Z0.000 F500
G01 X19.402 Y34.623 F1500
G01 X17.732 Y34.623 F1500
G01 X17.732 Y33.665 F1500
G01 X19.402 Y33.665 F1500
G01 X19.402 Y34.623 F1500
G00 Z4.000 F500
G00 X19.402 Y34.623 F1500
G00 Z0.000 F500
G01 X19.402 Y34.623 F1500
G01 X17.732 Y34.623 F1500
G01 X17.732 Y33.665 F1500
G01 X19.402 Y33.665 F1500
G01 X19.402 Y34.623 F1500
G00 Z4.000 F500

G00 X19.402 Y33.823 F1500
G00 Z0.000 F500
G01 X19.402 Y33.823 F1500
G01 X17.732 Y33.823 F1500
G01 X17.732 Y32.865 F1500
G01 X19.402 Y32.865 F1500
G01 X19.402 Y33.823 F1500
G00 Z4.000 F500
G00 X19.402 Y33.823 F1500
G00 Z0.000 F500
G01 X19.402 Y33.823 F1500
G01 X17.732 Y33.823 F1500
G01 X17.732 Y32.865 F1500
G01 X19.402 Y32.865 F1500
G01 X19.402 Y33.823 F1500
G00 Z4.000 F500

G00 X19.402 Y33.023 F1500
G00 Z0.000 F500
G01 X19.402 Y33.023 F1500
G01 X17.732 Y33.023 F1500
G01 X17.732 Y32.065 F1500
G01 X19.402 Y32.065 F1500
G01 X19.402 Y33.023 F1500
G00 Z4.000 F500
G00 X19.402 Y33.023 F1500
G00 Z0.000 F500
G01 X19.402 Y33.023 F1500
G01 X17.732 Y33.023 F1500
G01 X17.732 Y32.065 F1500
G01 X19.402 Y32.065 F1500
G01 X19.402 Y33.023 F1500
G00 Z4.000 F500

G00 X19.402 Y32.223 F1500
G00 Z0.000 F500
G01 X19.402 Y32.223 F1500
G01 X17.732 Y32.223 F1500
G01 X17.732 Y31.265 F1500
G01 X19.402 Y31.265 F1500
G01 X19.402 Y32.223 F1500
G00 Z4.000 F500
G00 X19.402 Y32.223 F1500
G00 Z0.000 F500
G01 X19.402 Y32.223 F1500
G01 X17.732 Y32.223 F1500
G01 X17.732 Y31.265 F1500
G01 X19.402 Y31.265 F1500
G01 X19.402 Y32.223 F1500
G00 Z4.000 F500

G00 X20.539 Y31.086 F1500
G00 Z0.000 F500
G01 X20.539 Y31.086 F1500
G01 X19.581 Y31.086 F1500
G01 X19.581 Y29.416 F1500
G01 X20.539 Y29.416 F1500
G01 X20.539 Y31.086 F1500
G00 Z4.000 F500
G00 X20.539 Y31.086 F1500
G00 Z0.000 F500
G01 X20.539 Y31.086 F1500
G01 X19.581 Y31.086 F1500
G01 X19.581 Y29.416 F1500
G01 X20.539 Y29.416 F1500
G01 X20.539 Y31.086 F1500
G00 Z4.000 F500

G00 X21.339 Y31.086 F1500
G00 Z0.000 F500
G01 X21.339 Y31.086 F1500
G01 X20.381 Y31.086 F1500
G01 X20.381 Y29.416 F1500
G01 X21.339 Y29.416 F1500
G01 X21.339 Y31.086 F1500
G00 Z4.000 F500
G00 X21.339 Y31.086 F1500
G00 Z0.000 F500
G01 X21.339 Y31.086 F1500
G01 X20.381 Y31.086 F1500
G01 X20.381 Y29.416 F1500
G01 X21.339 Y29.416 F1500
G01 X21.339 Y31.086 F1500
G00 Z4.000 F500

G00 X22.139 Y31.086 F1500
G00 Z0.000 F500
G01 X22.139 Y31.086 F1500
G01 X21.181 Y31.086 F1500
G01 X21.181 Y29.416 F1500
G01 X22.139 Y29.416 F1500
G01 X22.139 Y31.086 F1500
G00 Z4.000 F500
G00 X22.139 Y31.086 F1500
G00 Z0.000 F500
G01 X22.139 Y31.086 F1500
G01 X21.181 Y31.086 F1500
G01 X21.181 Y29.416 F1500
G01 X22.139 Y29.416 F1500
G01 X22.139 Y31.086 F1500
G00 Z4.000 F500

G00 X22.939 Y31.086 F1500
G00 Z0.000 F500
G01 X22.939 Y31.086 F1500
G01 X21.981 Y31.086 F1500
G01 X21.981 Y29.416 F1500
G01 X22.939 Y29.416 F1500
G01 X22.939 Y31.086 F1500
G00 Z4.000 F500
G00 X22.939 Y31.086 F1500
G00 Z0.000 F500
G01 X22.939 Y31.086 F1500
G01 X21.981 Y31.086 F1500
G01 X21.981 Y29.416 F1500
G01 X22.939 Y29.416 F1500
G01 X22.939 Y31.086 F1500
G00 Z4.000 F500

G00 X23.739 Y31.086 F1500
G00 Z0.000 F500
G01 X23.739 Y31.086 F1500
G01 X22.781 Y31.086 F1500
G01 X22.781 Y29.416 F1500
G01 X23.739 Y29.416 F1500
G01 X23.739 Y31.086 F1500
G00 Z4.000 F500
G00 X23.739 Y31.086 F1500
G00 Z0.000 F500
G01 X23.739 Y31.086 F1500
G01 X22.781 Y31.086 F1500
G01 X22.781 Y29.416 F1500
G01 X23.739 Y29.416 F1500
G01 X23.739 Y31.086 F1500
G00 Z4.000 F500

G00 X24.539 Y31.086 F1500
G00 Z0.000 F500
G01 X24.539 Y31.086 F1500
G01 X23.581 Y31.086 F1500
G01 X23.581 Y29.416 F1500
G01 X24.539 Y29.416 F1500
G01 X24.539 Y31.086 F1500
G00 Z4.000 F500
G00 X24.539 Y31.086 F1500
G00 Z0.000 F500
G01 X24.539 Y31.086 F1500
G01 X23.581 Y31.086 F1500
G01 X23.581 Y29.416 F1500
G01 X24.539 Y29.416 F1500
G01 X24.539 Y31.086 F1500
G00 Z4.000 F500

G00 X25.339 Y31.086 F1500
G00 Z0.000 F500
G01 X25.339 Y31.086 F1500
G01 X24.381 Y31.086 F1500
G01 X24.381 Y29.416 F1500
G01 X25.339 Y29.416 F1500
G01 X25.339 Y31.086 F1500
G00 Z4.000 F500
G00 X25.339 Y31.086 F1500
G00 Z0.000 F500
G01 X25.339 Y31.086 F1500
G01 X24.381 Y31.086 F1500
G01 X24.381 Y29.416 F1500
G01 X25.339 Y29.416 F1500
G01 X25.339 Y31.086 F1500
G00 Z4.000 F500

G00 X26.139 Y31.086 F1500
G00 Z0.000 F500
G01 X26.139 Y31.086 F1500
G01 X25.181 Y31.086 F1500
G01 X25.181 Y29.416 F1500
G01 X26.139 Y29.416 F1500
G01 X26.139 Y31.086 F1500
G00 Z4.000 F500
G00 X26.139 Y31.086 F1500
G00 Z0.000 F500
G01 X26.139 Y31.086 F1500
G01 X25.181 Y31.086 F1500
G01 X25.181 Y29.416 F1500
G01 X26.139 Y29.416 F1500
G01 X26.139 Y31.086 F1500
G00 Z4.000 F500

G00 X27.988 Y32.223 F1500
G00 Z0.000 F500
G01 X27.988 Y32.223 F1500
G01 X26.318 Y32.223 F1500
G01 X26.318 Y31.265 F1500
G01 X27.988 Y31.265 F1500
G01 X27.988 Y32.223 F1500
G00 Z4.000 F500
G00 X27.988 Y32.223 F1500
G00 Z0.000 F500
G01 X27.988 Y32.223 F1500
G01 X26.318 Y32.223 F1500
G01 X26.318 Y31.265 F1500
G01 X27.988 Y31.265 F1500
G01 X27.988 Y32.223 F1500
G00 Z4.000 F500

G00 X27.988 Y33.023 F1500
G00 Z0.000 F500
G01 X27.988 Y33.023 F1500
G01 X26.318 Y33.023 F1500
G01 X26.318 Y32.065 F1500
G01 X27.988 Y32.065 F1500
G01 X27.988 Y33.023 F1500
G00 Z4.000 F500
G00 X27.988 Y33.023 F1500
G00 Z0.000 F500
G01 X27.988 Y33.023 F1500
G01 X26.318 Y33.023 F1500
G01 X26.318 Y32.065 F1500
G01 X27.988 Y32.065 F1500
G01 X27.988 Y33.023 F1500
G00 Z4.000 F500

G00 X27.988 Y33.823 F1500
G00 Z0.000 F500
G01 X27.988 Y33.823 F1500
G01 X26.318 Y33.823 F1500
G01 X26.318 Y32.865 F1500
G01 X27.988 Y32.865 F1500
G01 X27.988 Y33.823 F1500
G00 Z4.000 F500
G00 X27.988 Y33.823 F1500
G00 Z0.000 F500
G01 X27.988 Y33.823 F1500
G01 X26.318 Y33.823 F1500
G01 X26.318 Y32.865 F1500
G01 X27.988 Y32.865 F1500
G01 X27.988 Y33.823 F1500
G00 Z4.000 F500

G00 X27.988 Y34.623 F1500
G00 Z0.000 F500
G01 X27.988 Y34.623 F1500
G01 X26.318 Y34.623 F1500
G01 X26.318 Y33.665 F1500
G01 X27.988 Y33.665 F1500
G01 X27.988 Y34.623 F1500
G00 Z4.000 F500
G00 X27.988 Y34.623 F1500
G00 Z0.000 F500
G01 X27.988 Y34.623 F1500
G01 X26.318 Y34.623 F1500
G01 X26.318 Y33.665 F1500
G01 X27.988 Y33.665 F1500
G01 X27.988 Y34.623 F1500
G00 Z4.000 F500

G00 X27.988 Y35.423 F1500
G00 Z0.000 F500
G01 X27.988 Y35.423 F1500
G01 X26.318 Y35.423 F1500
G01 X26.318 Y34.465 F1500
G01 X27.988 Y34.465 F1500
G01 X27.988 Y35.423 F1500
G00 Z4.000 F500
G00 X27.988 Y35.423 F1500
G00 Z0.000 F500
G01 X27.988 Y35.423 F1500
G01 X26.318 Y35.423 F1500
G01 X26.318 Y34.465 F1500
G01 X27.988 Y34.465 F1500
G01 X27.988 Y35.423 F1500
G00 Z4.000 F500

G00 X27.988 Y36.223 F1500
G00 Z0.000 F500
G01 X27.988 Y36.223 F1500
G01 X26.318 Y36.223 F1500
G01 X26.318 Y35.265 F1500
G01 X27.988 Y35.265 F1500
G01 X27.988 Y36.223 F1500
G00 Z4.000 F500
G00 X27.988 Y36.223 F1500
G00 Z0.000 F500
G01 X27.988 Y36.223 F1500
G01 X26.318 Y36.223 F1500
G01 X26.318 Y35.265 F1500
G01 X27.988 Y35.265 F1500
G01 X27.988 Y36.223 F1500
G00 Z4.000 F500

G00 X27.988 Y37.023 F1500
G00 Z0.000 F500
G01 X27.988 Y37.023 F1500
G01 X26.318 Y37.023 F1500
G01 X26.318 Y36.065 F1500
G01 X27.988 Y36.065 F1500
G01 X27.988 Y37.023 F1500
G00 Z4.000 F500
G00 X27.988 Y37.023 F1500
G00 Z0.000 F500
G01 X27.988 Y37.023 F1500
G01 X26.318 Y37.023 F1500
G01 X26.318 Y36.065 F1500
G01 X27.988 Y36.065 F1500
G01 X27.988 Y37.023 F1500
G00 Z4.000 F500

G00 X27.988 Y37.823 F1500
G00 Z0.000 F500
G01 X27.988 Y37.823 F1500
G01 X26.318 Y37.823 F1500
G01 X26.318 Y36.865 F1500
G01 X27.988 Y36.865 F1500
G01 X27.988 Y37.823 F1500
G00 Z4.000 F500
G00 X27.988 Y37.823 F1500
G00 Z0.000 F500
G01 X27.988 Y37.823 F1500
G01 X26.318 Y37.823 F1500
G01 X26.318 Y36.865 F1500
G01 X27.988 Y36.865 F1500
G01 X27.988 Y37.823 F1500
G00 Z4.000 F500

G00 X26.139 Y39.672 F1500
G00 Z0.000 F500
G01 X26.139 Y39.672 F1500
G01 X25.181 Y39.672 F1500
G01 X25.181 Y38.002 F1500
G01 X26.139 Y38.002 F1500
G01 X26.139 Y39.672 F1500
G00 Z4.000 F500
G00 X26.139 Y39.672 F1500
G00 Z0.000 F500
G01 X26.139 Y39.672 F1500
G01 X25.181 Y39.672 F1500
G01 X25.181 Y38.002 F1500
G01 X26.139 Y38.002 F1500
G01 X26.139 Y39.672 F1500
G00 Z4.000 F500

G00 X25.339 Y39.672 F1500
G00 Z0.000 F500
G01 X25.339 Y39.672 F1500
G01 X24.381 Y39.672 F1500
G01 X24.381 Y38.002 F1500
G01 X25.339 Y38.002 F1500
G01 X25.339 Y39.672 F1500
G00 Z4.000 F500
G00 X25.339 Y39.672 F1500
G00 Z0.000 F500
G01 X25.339 Y39.672 F1500
G01 X24.381 Y39.672 F1500
G01 X24.381 Y38.002 F1500
G01 X25.339 Y38.002 F1500
G01 X25.339 Y39.672 F1500
G00 Z4.000 F500

G00 X24.539 Y39.672 F1500
G00 Z0.000 F500
G01 X24.539 Y39.672 F1500
G01 X23.581 Y39.672 F1500
G01 X23.581 Y38.002 F1500
G01 X24.539 Y38.002 F1500
G01 X24.539 Y39.672 F1500
G00 Z4.000 F500
G00 X24.539 Y39.672 F1500
G00 Z0.000 F500
G01 X24.539 Y39.672 F1500
G01 X23.581 Y39.672 F1500
G01 X23.581 Y38.002 F1500
G01 X24.539 Y38.002 F1500
G01 X24.539 Y39.672 F1500
G00 Z4.000 F500

G00 X23.739 Y39.672 F1500
G00 Z0.000 F500
G01 X23.739 Y39.672 F1500
G01 X22.781 Y39.672 F1500
G01 X22.781 Y38.002 F1500
G01 X23.739 Y38.002 F1500
G01 X23.739 Y39.672 F1500
G00 Z4.000 F500
G00 X23.739 Y39.672 F1500
G00 Z0.000 F500
G01 X23.739 Y39.672 F1500
G01 X22.781 Y39.672 F1500
G01 X22.781 Y38.002 F1500
G01 X23.739 Y38.002 F1500
G01 X23.739 Y39.672 F1500
G00 Z4.000 F500

G00 X22.939 Y39.672 F1500
G00 Z0.000 F500
G01 X22.939 Y39.672 F1500
G01 X21.981 Y39.672 F1500
G01 X21.981 Y38.002 F1500
G01 X22.939 Y38.002 F1500
G01 X22.939 Y39.672 F1500
G00 Z4.000 F500
G00 X22.939 Y39.672 F1500
G00 Z0.000 F500
G01 X22.939 Y39.672 F1500
G01 X21.981 Y39.672 F1500
G01 X21.981 Y38.002 F1500
G01 X22.939 Y38.002 F1500
G01 X22.939 Y39.672 F1500
G00 Z4.000 F500

G00 X22.139 Y39.672 F1500
G00 Z0.000 F500
G01 X22.139 Y39.672 F1500
G01 X21.181 Y39.672 F1500
G01 X21.181 Y38.002 F1500
G01 X22.139 Y38.002 F1500
G01 X22.139 Y39.672 F1500
G00 Z4.000 F500
G00 X22.139 Y39.672 F1500
G00 Z0.000 F500
G01 X22.139 Y39.672 F1500
G01 X21.181 Y39.672 F1500
G01 X21.181 Y38.002 F1500
G01 X22.139 Y38.002 F1500
G01 X22.139 Y39.672 F1500
G00 Z4.000 F500

G00 X21.339 Y39.672 F1500
G00 Z0.000 F500
G01 X21.339 Y39.672 F1500
G01 X20.381 Y39.672 F1500
G01 X20.381 Y38.002 F1500
G01 X21.339 Y38.002 F1500
G01 X21.339 Y39.672 F1500
G00 Z4.000 F500
G00 X21.339 Y39.672 F1500
G00 Z0.000 F500
G01 X21.339 Y39.672 F1500
G01 X20.381 Y39.672 F1500
G01 X20.381 Y38.002 F1500
G01 X21.339 Y38.002 F1500
G01 X21.339 Y39.672 F1500
G00 Z4.000 F500

G00 X20.539 Y39.672 F1500
G00 Z0.000 F500
G01 X20.539 Y39.672 F1500
G01 X19.581 Y39.672 F1500
G01 X19.581 Y38.002 F1500
G01 X20.539 Y38.002 F1500
G01 X20.539 Y39.672 F1500
G00 Z4.000 F500
G00 X20.539 Y39.672 F1500
G00 Z0.000 F500
G01 X20.539 Y39.672 F1500
G01 X19.581 Y39.672 F1500
G01 X19.581 Y38.002 F1500
G01 X20.539 Y38.002 F1500
G01 X20.539 Y39.672 F1500
G00 Z4.000 F500

G01 Z-1.750 F500
G01 X0.000Y2.540 F1500
G03
X2.540Y0.000 R2.540
G01 X33.020Y0.000 F1500
G03
X35.560Y2.540 R2.540
G01 X35.560Y58.420 F1500
G03
X33.020Y60.960 R2.540
G01 X2.540Y60.960 F1500
G03
X0.000Y58.420 R2.540
G00 Z5.000
G00 X0Y0