(RS-274 Compatible G-code generated for UCCNC controller and Stepcraft 2 Mill)
(Created by in EagleCAD with the stepcraft.ulp 0.2.)
(File: was created on: 3/23/16 6:23 PM)
SHRINK_WIDTH: 0.070000

G90 G94 G49
G00 Z5.000
G00 X11.971 Y53.595 F1500
G00 Z0.000 F500
G01 X11.971 Y53.595 F1500
G01 X11.971 Y54.885 F1500
G01 X10.381 Y54.885 F1500
G01 X10.381 Y53.595 F1500
G01 X11.971 Y53.595 F1500
G00 Z4.000 F500
G00 X11.971 Y53.595 F1500
G00 Z0.000 F500
G01 X11.971 Y53.595 F1500
G01 X11.971 Y54.885 F1500
G01 X10.381 Y54.885 F1500
G01 X10.381 Y53.595 F1500
G01 X11.971 Y53.595 F1500
G00 Z4.000 F500

G00 X11.971 Y51.795 F1500
G00 Z0.000 F500
G01 X11.971 Y51.795 F1500
G01 X11.971 Y53.085 F1500
G01 X10.381 Y53.085 F1500
G01 X10.381 Y51.795 F1500
G01 X11.971 Y51.795 F1500
G00 Z4.000 F500
G00 X11.971 Y51.795 F1500
G00 Z0.000 F500
G01 X11.971 Y51.795 F1500
G01 X11.971 Y53.085 F1500
G01 X10.381 Y53.085 F1500
G01 X10.381 Y51.795 F1500
G01 X11.971 Y51.795 F1500
G00 Z4.000 F500

G00 X24.163 Y53.595 F1500
G00 Z0.000 F500
G01 X24.163 Y53.595 F1500
G01 X24.163 Y54.885 F1500
G01 X22.573 Y54.885 F1500
G01 X22.573 Y53.595 F1500
G01 X24.163 Y53.595 F1500
G00 Z4.000 F500
G00 X24.163 Y53.595 F1500
G00 Z0.000 F500
G01 X24.163 Y53.595 F1500
G01 X24.163 Y54.885 F1500
G01 X22.573 Y54.885 F1500
G01 X22.573 Y53.595 F1500
G01 X24.163 Y53.595 F1500
G00 Z4.000 F500

G00 X24.163 Y51.795 F1500
G00 Z0.000 F500
G01 X24.163 Y51.795 F1500
G01 X24.163 Y53.085 F1500
G01 X22.573 Y53.085 F1500
G01 X22.573 Y51.795 F1500
G01 X24.163 Y51.795 F1500
G00 Z4.000 F500
G00 X24.163 Y51.795 F1500
G00 Z0.000 F500
G01 X24.163 Y51.795 F1500
G01 X24.163 Y53.085 F1500
G01 X22.573 Y53.085 F1500
G01 X22.573 Y51.795 F1500
G01 X24.163 Y51.795 F1500
G00 Z4.000 F500

G00 X29.018 Y40.895 F1500
G00 Z0.000 F500
G01 X29.018 Y40.895 F1500
G01 X29.018 Y41.985 F1500
G01 X27.878 Y41.985 F1500
G01 X27.878 Y40.895 F1500
G01 X29.018 Y40.895 F1500
G00 Z4.000 F500
G00 X29.018 Y40.895 F1500
G00 Z0.000 F500
G01 X29.018 Y40.895 F1500
G01 X29.018 Y41.985 F1500
G01 X27.878 Y41.985 F1500
G01 X27.878 Y40.895 F1500
G01 X29.018 Y40.895 F1500
G00 Z4.000 F500

G00 X29.018 Y39.295 F1500
G00 Z0.000 F500
G01 X29.018 Y39.295 F1500
G01 X29.018 Y40.385 F1500
G01 X27.878 Y40.385 F1500
G01 X27.878 Y39.295 F1500
G01 X29.018 Y39.295 F1500
G00 Z4.000 F500
G00 X29.018 Y39.295 F1500
G00 Z0.000 F500
G01 X29.018 Y39.295 F1500
G01 X29.018 Y40.385 F1500
G01 X27.878 Y40.385 F1500
G01 X27.878 Y39.295 F1500
G01 X29.018 Y39.295 F1500
G00 Z4.000 F500

G00 X29.526 Y35.307 F1500
G00 Z0.000 F500
G01 X29.526 Y35.307 F1500
G01 X29.526 Y36.397 F1500
G01 X28.386 Y36.397 F1500
G01 X28.386 Y35.307 F1500
G01 X29.526 Y35.307 F1500
G00 Z4.000 F500
G00 X29.526 Y35.307 F1500
G00 Z0.000 F500
G01 X29.526 Y35.307 F1500
G01 X29.526 Y36.397 F1500
G01 X28.386 Y36.397 F1500
G01 X28.386 Y35.307 F1500
G01 X29.526 Y35.307 F1500
G00 Z4.000 F500

G00 X29.526 Y33.707 F1500
G00 Z0.000 F500
G01 X29.526 Y33.707 F1500
G01 X29.526 Y34.797 F1500
G01 X28.386 Y34.797 F1500
G01 X28.386 Y33.707 F1500
G01 X29.526 Y33.707 F1500
G00 Z4.000 F500
G00 X29.526 Y33.707 F1500
G00 Z0.000 F500
G01 X29.526 Y33.707 F1500
G01 X29.526 Y34.797 F1500
G01 X28.386 Y34.797 F1500
G01 X28.386 Y33.707 F1500
G01 X29.526 Y33.707 F1500
G00 Z4.000 F500

G00 X17.334 Y42.927 F1500
G00 Z0.000 F500
G01 X17.334 Y42.927 F1500
G01 X17.334 Y44.017 F1500
G01 X16.194 Y44.017 F1500
G01 X16.194 Y42.927 F1500
G01 X17.334 Y42.927 F1500
G00 Z4.000 F500
G00 X17.334 Y42.927 F1500
G00 Z0.000 F500
G01 X17.334 Y42.927 F1500
G01 X17.334 Y44.017 F1500
G01 X16.194 Y44.017 F1500
G01 X16.194 Y42.927 F1500
G01 X17.334 Y42.927 F1500
G00 Z4.000 F500

G00 X17.334 Y41.327 F1500
G00 Z0.000 F500
G01 X17.334 Y41.327 F1500
G01 X17.334 Y42.417 F1500
G01 X16.194 Y42.417 F1500
G01 X16.194 Y41.327 F1500
G01 X17.334 Y41.327 F1500
G00 Z4.000 F500
G00 X17.334 Y41.327 F1500
G00 Z0.000 F500
G01 X17.334 Y41.327 F1500
G01 X17.334 Y42.417 F1500
G01 X16.194 Y42.417 F1500
G01 X16.194 Y41.327 F1500
G01 X17.334 Y41.327 F1500
G00 Z4.000 F500

G00 X10.440 Y46.698 F1500
G00 Z0.000 F500
G01 X10.440 Y46.698 F1500
G01 X10.440 Y45.758 F1500
G01 X11.380 Y45.758 F1500
G01 X11.380 Y46.698 F1500
G01 X10.440 Y46.698 F1500
G00 Z4.000 F500
G00 X10.440 Y46.698 F1500
G00 Z0.000 F500
G01 X10.440 Y46.698 F1500
G01 X10.440 Y45.758 F1500
G01 X11.380 Y45.758 F1500
G01 X11.380 Y46.698 F1500
G01 X10.440 Y46.698 F1500
G00 Z4.000 F500

G00 X8.940 Y46.698 F1500
G00 Z0.000 F500
G01 X8.940 Y46.698 F1500
G01 X8.940 Y45.758 F1500
G01 X9.880 Y45.758 F1500
G01 X9.880 Y46.698 F1500
G01 X8.940 Y46.698 F1500
G00 Z4.000 F500
G00 X8.940 Y46.698 F1500
G00 Z0.000 F500
G01 X8.940 Y46.698 F1500
G01 X8.940 Y45.758 F1500
G01 X9.880 Y45.758 F1500
G01 X9.880 Y46.698 F1500
G01 X8.940 Y46.698 F1500
G00 Z4.000 F500

G00 X29.084 Y43.866 F1500
G00 Z0.000 F500
G01 X29.084 Y43.866 F1500
G01 X27.944 Y43.866 F1500
G01 X27.944 Y42.326 F1500
G01 X29.084 Y42.326 F1500
G01 X29.084 Y43.866 F1500
G00 Z4.000 F500
G00 X29.084 Y43.866 F1500
G00 Z0.000 F500
G01 X29.084 Y43.866 F1500
G01 X27.944 Y43.866 F1500
G01 X27.944 Y42.326 F1500
G01 X29.084 Y42.326 F1500
G01 X29.084 Y43.866 F1500
G00 Z4.000 F500

G00 X30.984 Y43.866 F1500
G00 Z0.000 F500
G01 X30.984 Y43.866 F1500
G01 X29.844 Y43.866 F1500
G01 X29.844 Y42.326 F1500
G01 X30.984 Y42.326 F1500
G01 X30.984 Y43.866 F1500
G00 Z4.000 F500
G00 X30.984 Y43.866 F1500
G00 Z0.000 F500
G01 X30.984 Y43.866 F1500
G01 X29.844 Y43.866 F1500
G01 X29.844 Y42.326 F1500
G01 X30.984 Y42.326 F1500
G01 X30.984 Y43.866 F1500
G00 Z4.000 F500

G00 X30.034 Y46.066 F1500
G00 Z0.000 F500
G01 X30.034 Y46.066 F1500
G01 X28.894 Y46.066 F1500
G01 X28.894 Y44.526 F1500
G01 X30.034 Y44.526 F1500
G01 X30.034 Y46.066 F1500
G00 Z4.000 F500
G00 X30.034 Y46.066 F1500
G00 Z0.000 F500
G01 X30.034 Y46.066 F1500
G01 X28.894 Y46.066 F1500
G01 X28.894 Y44.526 F1500
G01 X30.034 Y44.526 F1500
G01 X30.034 Y46.066 F1500
G00 Z4.000 F500

G00 X22.605 Y43.496 F1500
G00 Z0.000 F500
G01 X22.605 Y43.496 F1500
G01 X21.515 Y43.496 F1500
G01 X21.515 Y42.356 F1500
G01 X22.605 Y42.356 F1500
G01 X22.605 Y43.496 F1500
G00 Z4.000 F500
G00 X22.605 Y43.496 F1500
G00 Z0.000 F500
G01 X22.605 Y43.496 F1500
G01 X21.515 Y43.496 F1500
G01 X21.515 Y42.356 F1500
G01 X22.605 Y42.356 F1500
G01 X22.605 Y43.496 F1500
G00 Z4.000 F500

G00 X24.205 Y43.496 F1500
G00 Z0.000 F500
G01 X24.205 Y43.496 F1500
G01 X23.115 Y43.496 F1500
G01 X23.115 Y42.356 F1500
G01 X24.205 Y42.356 F1500
G01 X24.205 Y43.496 F1500
G00 Z4.000 F500
G00 X24.205 Y43.496 F1500
G00 Z0.000 F500
G01 X24.205 Y43.496 F1500
G01 X23.115 Y43.496 F1500
G01 X23.115 Y42.356 F1500
G01 X24.205 Y42.356 F1500
G01 X24.205 Y43.496 F1500
G00 Z4.000 F500

G00 X23.623 Y44.134 F1500
G00 Z0.000 F500
G01 X23.623 Y44.134 F1500
G01 X24.713 Y44.134 F1500
G01 X24.713 Y45.274 F1500
G01 X23.623 Y45.274 F1500
G01 X23.623 Y44.134 F1500
G00 Z4.000 F500
G00 X23.623 Y44.134 F1500
G00 Z0.000 F500
G01 X23.623 Y44.134 F1500
G01 X24.713 Y44.134 F1500
G01 X24.713 Y45.274 F1500
G01 X23.623 Y45.274 F1500
G01 X23.623 Y44.134 F1500
G00 Z4.000 F500

G00 X22.023 Y44.134 F1500
G00 Z0.000 F500
G01 X22.023 Y44.134 F1500
G01 X23.113 Y44.134 F1500
G01 X23.113 Y45.274 F1500
G01 X22.023 Y45.274 F1500
G01 X22.023 Y44.134 F1500
G00 Z4.000 F500
G00 X22.023 Y44.134 F1500
G00 Z0.000 F500
G01 X22.023 Y44.134 F1500
G01 X23.113 Y44.134 F1500
G01 X23.113 Y45.274 F1500
G01 X22.023 Y45.274 F1500
G01 X22.023 Y44.134 F1500
G00 Z4.000 F500

G00 X29.910 Y40.385 F1500
G00 Z0.000 F500
G01 X29.910 Y40.385 F1500
G01 X29.910 Y39.295 F1500
G01 X31.050 Y39.295 F1500
G01 X31.050 Y40.385 F1500
G01 X29.910 Y40.385 F1500
G00 Z4.000 F500
G00 X29.910 Y40.385 F1500
G00 Z0.000 F500
G01 X29.910 Y40.385 F1500
G01 X29.910 Y39.295 F1500
G01 X31.050 Y39.295 F1500
G01 X31.050 Y40.385 F1500
G01 X29.910 Y40.385 F1500
G00 Z4.000 F500

G00 X29.910 Y41.985 F1500
G00 Z0.000 F500
G01 X29.910 Y41.985 F1500
G01 X29.910 Y40.895 F1500
G01 X31.050 Y40.895 F1500
G01 X31.050 Y41.985 F1500
G01 X29.910 Y41.985 F1500
G00 Z4.000 F500
G00 X29.910 Y41.985 F1500
G00 Z0.000 F500
G01 X29.910 Y41.985 F1500
G01 X29.910 Y40.895 F1500
G01 X31.050 Y40.895 F1500
G01 X31.050 Y41.985 F1500
G01 X29.910 Y41.985 F1500
G00 Z4.000 F500

G00 X28.510 Y47.499 F1500
G00 Z0.000 F500
G01 X28.510 Y47.499 F1500
G01 X28.510 Y48.589 F1500
G01 X27.370 Y48.589 F1500
G01 X27.370 Y47.499 F1500
G01 X28.510 Y47.499 F1500
G00 Z4.000 F500
G00 X28.510 Y47.499 F1500
G00 Z0.000 F500
G01 X28.510 Y47.499 F1500
G01 X28.510 Y48.589 F1500
G01 X27.370 Y48.589 F1500
G01 X27.370 Y47.499 F1500
G01 X28.510 Y47.499 F1500
G00 Z4.000 F500

G00 X28.510 Y45.899 F1500
G00 Z0.000 F500
G01 X28.510 Y45.899 F1500
G01 X28.510 Y46.989 F1500
G01 X27.370 Y46.989 F1500
G01 X27.370 Y45.899 F1500
G01 X28.510 Y45.899 F1500
G00 Z4.000 F500
G00 X28.510 Y45.899 F1500
G00 Z0.000 F500
G01 X28.510 Y45.899 F1500
G01 X28.510 Y46.989 F1500
G01 X27.370 Y46.989 F1500
G01 X27.370 Y45.899 F1500
G01 X28.510 Y45.899 F1500
G00 Z4.000 F500

G00 X16.194 Y45.973 F1500
G00 Z0.000 F500
G01 X16.194 Y45.973 F1500
G01 X16.194 Y44.883 F1500
G01 X17.334 Y44.883 F1500
G01 X17.334 Y45.973 F1500
G01 X16.194 Y45.973 F1500
G00 Z4.000 F500
G00 X16.194 Y45.973 F1500
G00 Z0.000 F500
G01 X16.194 Y45.973 F1500
G01 X16.194 Y44.883 F1500
G01 X17.334 Y44.883 F1500
G01 X17.334 Y45.973 F1500
G01 X16.194 Y45.973 F1500
G00 Z4.000 F500

G00 X16.194 Y47.573 F1500
G00 Z0.000 F500
G01 X16.194 Y47.573 F1500
G01 X16.194 Y46.483 F1500
G01 X17.334 Y46.483 F1500
G01 X17.334 Y47.573 F1500
G01 X16.194 Y47.573 F1500
G00 Z4.000 F500
G00 X16.194 Y47.573 F1500
G00 Z0.000 F500
G01 X16.194 Y47.573 F1500
G01 X16.194 Y46.483 F1500
G01 X17.334 Y46.483 F1500
G01 X17.334 Y47.573 F1500
G01 X16.194 Y47.573 F1500
G00 Z4.000 F500

G00 X12.638 Y47.497 F1500
G00 Z0.000 F500
G01 X12.638 Y47.497 F1500
G01 X12.638 Y46.407 F1500
G01 X13.778 Y46.407 F1500
G01 X13.778 Y47.497 F1500
G01 X12.638 Y47.497 F1500
G00 Z4.000 F500
G00 X12.638 Y47.497 F1500
G00 Z0.000 F500
G01 X12.638 Y47.497 F1500
G01 X12.638 Y46.407 F1500
G01 X13.778 Y46.407 F1500
G01 X13.778 Y47.497 F1500
G01 X12.638 Y47.497 F1500
G00 Z4.000 F500

G00 X12.638 Y49.097 F1500
G00 Z0.000 F500
G01 X12.638 Y49.097 F1500
G01 X12.638 Y48.007 F1500
G01 X13.778 Y48.007 F1500
G01 X13.778 Y49.097 F1500
G01 X12.638 Y49.097 F1500
G00 Z4.000 F500
G00 X12.638 Y49.097 F1500
G00 Z0.000 F500
G01 X12.638 Y49.097 F1500
G01 X12.638 Y48.007 F1500
G01 X13.778 Y48.007 F1500
G01 X13.778 Y49.097 F1500
G01 X12.638 Y49.097 F1500
G00 Z4.000 F500

G00 X7.549 Y17.111 F1500
G00 Z0.000 F500
G01 X7.549 Y17.111 F1500
G01 X7.549 Y18.301 F1500
G01 X5.659 Y18.301 F1500
G01 X5.659 Y17.111 F1500
G01 X7.549 Y17.111 F1500
G00 Z4.000 F500
G00 X7.549 Y17.111 F1500
G00 Z0.000 F500
G01 X7.549 Y17.111 F1500
G01 X7.549 Y18.301 F1500
G01 X5.659 Y18.301 F1500
G01 X5.659 Y17.111 F1500
G01 X7.549 Y17.111 F1500
G00 Z4.000 F500

G00 X7.549 Y14.211 F1500
G00 Z0.000 F500
G01 X7.549 Y14.211 F1500
G01 X7.549 Y15.401 F1500
G01 X5.659 Y15.401 F1500
G01 X5.659 Y14.211 F1500
G01 X7.549 Y14.211 F1500
G00 Z4.000 F500
G00 X7.549 Y14.211 F1500
G00 Z0.000 F500
G01 X7.549 Y14.211 F1500
G01 X7.549 Y15.401 F1500
G01 X5.659 Y15.401 F1500
G01 X5.659 Y14.211 F1500
G01 X7.549 Y14.211 F1500
G00 Z4.000 F500

G00 X10.089 Y14.571 F1500
G00 Z0.000 F500
G01 X10.089 Y14.571 F1500
G01 X10.089 Y15.761 F1500
G01 X8.199 Y15.761 F1500
G01 X8.199 Y14.571 F1500
G01 X10.089 Y14.571 F1500
G00 Z4.000 F500
G00 X10.089 Y14.571 F1500
G00 Z0.000 F500
G01 X10.089 Y14.571 F1500
G01 X10.089 Y15.761 F1500
G01 X8.199 Y15.761 F1500
G01 X8.199 Y14.571 F1500
G01 X10.089 Y14.571 F1500
G00 Z4.000 F500

G00 X10.089 Y11.671 F1500
G00 Z0.000 F500
G01 X10.089 Y11.671 F1500
G01 X10.089 Y12.861 F1500
G01 X8.199 Y12.861 F1500
G01 X8.199 Y11.671 F1500
G01 X10.089 Y11.671 F1500
G00 Z4.000 F500
G00 X10.089 Y11.671 F1500
G00 Z0.000 F500
G01 X10.089 Y11.671 F1500
G01 X10.089 Y12.861 F1500
G01 X8.199 Y12.861 F1500
G01 X8.199 Y11.671 F1500
G01 X10.089 Y11.671 F1500
G00 Z4.000 F500

G00 X7.549 Y12.539 F1500
G00 Z0.000 F500
G01 X7.549 Y12.539 F1500
G01 X7.549 Y13.729 F1500
G01 X5.659 Y13.729 F1500
G01 X5.659 Y12.539 F1500
G01 X7.549 Y12.539 F1500
G00 Z4.000 F500
G00 X7.549 Y12.539 F1500
G00 Z0.000 F500
G01 X7.549 Y12.539 F1500
G01 X7.549 Y13.729 F1500
G01 X5.659 Y13.729 F1500
G01 X5.659 Y12.539 F1500
G01 X7.549 Y12.539 F1500
G00 Z4.000 F500

G00 X7.549 Y9.639 F1500
G00 Z0.000 F500
G01 X7.549 Y9.639 F1500
G01 X7.549 Y10.829 F1500
G01 X5.659 Y10.829 F1500
G01 X5.659 Y9.639 F1500
G01 X7.549 Y9.639 F1500
G00 Z4.000 F500
G00 X7.549 Y9.639 F1500
G00 Z0.000 F500
G01 X7.549 Y9.639 F1500
G01 X7.549 Y10.829 F1500
G01 X5.659 Y10.829 F1500
G01 X5.659 Y9.639 F1500
G01 X7.549 Y9.639 F1500
G00 Z4.000 F500

G00 X18.492 Y52.760 F1500
G00 Z0.000 F500
G01 X18.492 Y52.760 F1500
G01 X18.492 Y51.520 F1500
G01 X19.232 Y51.520 F1500
G01 X19.232 Y52.760 F1500
G01 X18.492 Y52.760 F1500
G00 Z4.000 F500
G00 X18.492 Y52.760 F1500
G00 Z0.000 F500
G01 X18.492 Y52.760 F1500
G01 X18.492 Y51.520 F1500
G01 X19.232 Y51.520 F1500
G01 X19.232 Y52.760 F1500
G01 X18.492 Y52.760 F1500
G00 Z4.000 F500

G00 X19.442 Y52.760 F1500
G00 Z0.000 F500
G01 X19.442 Y52.760 F1500
G01 X19.442 Y51.520 F1500
G01 X20.182 Y51.520 F1500
G01 X20.182 Y52.760 F1500
G01 X19.442 Y52.760 F1500
G00 Z4.000 F500
G00 X19.442 Y52.760 F1500
G00 Z0.000 F500
G01 X19.442 Y52.760 F1500
G01 X19.442 Y51.520 F1500
G01 X20.182 Y51.520 F1500
G01 X20.182 Y52.760 F1500
G01 X19.442 Y52.760 F1500
G00 Z4.000 F500

G00 X20.392 Y52.760 F1500
G00 Z0.000 F500
G01 X20.392 Y52.760 F1500
G01 X20.392 Y51.520 F1500
G01 X21.132 Y51.520 F1500
G01 X21.132 Y52.760 F1500
G01 X20.392 Y52.760 F1500
G00 Z4.000 F500
G00 X20.392 Y52.760 F1500
G00 Z0.000 F500
G01 X20.392 Y52.760 F1500
G01 X20.392 Y51.520 F1500
G01 X21.132 Y51.520 F1500
G01 X21.132 Y52.760 F1500
G01 X20.392 Y52.760 F1500
G00 Z4.000 F500

G00 X20.392 Y55.160 F1500
G00 Z0.000 F500
G01 X20.392 Y55.160 F1500
G01 X20.392 Y53.920 F1500
G01 X21.132 Y53.920 F1500
G01 X21.132 Y55.160 F1500
G01 X20.392 Y55.160 F1500
G00 Z4.000 F500
G00 X20.392 Y55.160 F1500
G00 Z0.000 F500
G01 X20.392 Y55.160 F1500
G01 X20.392 Y53.920 F1500
G01 X21.132 Y53.920 F1500
G01 X21.132 Y55.160 F1500
G01 X20.392 Y55.160 F1500
G00 Z4.000 F500

G00 X18.492 Y55.160 F1500
G00 Z0.000 F500
G01 X18.492 Y55.160 F1500
G01 X18.492 Y53.920 F1500
G01 X19.232 Y53.920 F1500
G01 X19.232 Y55.160 F1500
G01 X18.492 Y55.160 F1500
G00 Z4.000 F500
G00 X18.492 Y55.160 F1500
G00 Z0.000 F500
G01 X18.492 Y55.160 F1500
G01 X18.492 Y53.920 F1500
G01 X19.232 Y53.920 F1500
G01 X19.232 Y55.160 F1500
G01 X18.492 Y55.160 F1500
G00 Z4.000 F500

G00 X22.295 Y49.041 F1500
G00 Z0.000 F500
G01 X22.295 Y49.041 F1500
G01 X20.834 Y49.041 F1500
G01 X20.834 Y48.342 F1500
G01 X22.295 Y48.342 F1500
G01 X22.295 Y49.041 F1500
G00 Z4.000 F500
G00 X22.295 Y49.041 F1500
G00 Z0.000 F500
G01 X22.295 Y49.041 F1500
G01 X20.834 Y49.041 F1500
G01 X20.834 Y48.342 F1500
G01 X22.295 Y48.342 F1500
G01 X22.295 Y49.041 F1500
G00 Z4.000 F500

G00 X22.295 Y48.101 F1500
G00 Z0.000 F500
G01 X22.295 Y48.101 F1500
G01 X20.834 Y48.101 F1500
G01 X20.834 Y47.403 F1500
G01 X22.295 Y47.403 F1500
G01 X22.295 Y48.101 F1500
G00 Z4.000 F500
G00 X22.295 Y48.101 F1500
G00 Z0.000 F500
G01 X22.295 Y48.101 F1500
G01 X20.834 Y48.101 F1500
G01 X20.834 Y47.403 F1500
G01 X22.295 Y47.403 F1500
G01 X22.295 Y48.101 F1500
G00 Z4.000 F500

G00 X22.295 Y47.162 F1500
G00 Z0.000 F500
G01 X22.295 Y47.162 F1500
G01 X20.834 Y47.162 F1500
G01 X20.834 Y46.463 F1500
G01 X22.295 Y46.463 F1500
G01 X22.295 Y47.162 F1500
G00 Z4.000 F500
G00 X22.295 Y47.162 F1500
G00 Z0.000 F500
G01 X22.295 Y47.162 F1500
G01 X20.834 Y47.162 F1500
G01 X20.834 Y46.463 F1500
G01 X22.295 Y46.463 F1500
G01 X22.295 Y47.162 F1500
G00 Z4.000 F500

G00 X24.886 Y47.162 F1500
G00 Z0.000 F500
G01 X24.886 Y47.162 F1500
G01 X23.425 Y47.162 F1500
G01 X23.425 Y46.463 F1500
G01 X24.886 Y46.463 F1500
G01 X24.886 Y47.162 F1500
G00 Z4.000 F500
G00 X24.886 Y47.162 F1500
G00 Z0.000 F500
G01 X24.886 Y47.162 F1500
G01 X23.425 Y47.162 F1500
G01 X23.425 Y46.463 F1500
G01 X24.886 Y46.463 F1500
G01 X24.886 Y47.162 F1500
G00 Z4.000 F500

G00 X24.886 Y48.101 F1500
G00 Z0.000 F500
G01 X24.886 Y48.101 F1500
G01 X23.425 Y48.101 F1500
G01 X23.425 Y47.403 F1500
G01 X24.886 Y47.403 F1500
G01 X24.886 Y48.101 F1500
G00 Z4.000 F500
G00 X24.886 Y48.101 F1500
G00 Z0.000 F500
G01 X24.886 Y48.101 F1500
G01 X23.425 Y48.101 F1500
G01 X23.425 Y47.403 F1500
G01 X24.886 Y47.403 F1500
G01 X24.886 Y48.101 F1500
G00 Z4.000 F500

G00 X24.886 Y49.041 F1500
G00 Z0.000 F500
G01 X24.886 Y49.041 F1500
G01 X23.425 Y49.041 F1500
G01 X23.425 Y48.342 F1500
G01 X24.886 Y48.342 F1500
G01 X24.886 Y49.041 F1500
G00 Z4.000 F500
G00 X24.886 Y49.041 F1500
G00 Z0.000 F500
G01 X24.886 Y49.041 F1500
G01 X23.425 Y49.041 F1500
G01 X23.425 Y48.342 F1500
G01 X24.886 Y48.342 F1500
G01 X24.886 Y49.041 F1500
G00 Z4.000 F500

G00 X15.770 Y55.010 F1500
G00 Z0.000 F500
G01 X15.770 Y55.010 F1500
G01 X15.770 Y51.670 F1500
G01 X16.910 Y51.670 F1500
G01 X16.910 Y55.010 F1500
G01 X15.770 Y55.010 F1500
G00 Z4.000 F500
G00 X15.770 Y55.010 F1500
G00 Z0.000 F500
G01 X15.770 Y55.010 F1500
G01 X15.770 Y51.670 F1500
G01 X16.910 Y51.670 F1500
G01 X16.910 Y55.010 F1500
G01 X15.770 Y55.010 F1500
G00 Z4.000 F500

G00 X13.570 Y55.010 F1500
G00 Z0.000 F500
G01 X13.570 Y55.010 F1500
G01 X13.570 Y51.670 F1500
G01 X14.710 Y51.670 F1500
G01 X14.710 Y55.010 F1500
G01 X13.570 Y55.010 F1500
G00 Z4.000 F500
G00 X13.570 Y55.010 F1500
G00 Z0.000 F500
G01 X13.570 Y55.010 F1500
G01 X13.570 Y51.670 F1500
G01 X14.710 Y51.670 F1500
G01 X14.710 Y55.010 F1500
G01 X13.570 Y55.010 F1500
G00 Z4.000 F500

G00 X26.647 Y24.310 F1500
G00 Z0.000 F500
G01 X26.647 Y24.310 F1500
G01 X26.647 Y22.170 F1500
G01 X28.057 Y22.170 F1500
G01 X28.057 Y24.310 F1500
G01 X26.647 Y24.310 F1500
G00 Z4.000 F500
G00 X26.647 Y24.310 F1500
G00 Z0.000 F500
G01 X26.647 Y24.310 F1500
G01 X26.647 Y22.170 F1500
G01 X28.057 Y22.170 F1500
G01 X28.057 Y24.310 F1500
G01 X26.647 Y24.310 F1500
G00 Z4.000 F500

G00 X16.647 Y4.810 F1500
G00 Z0.000 F500
G01 X16.647 Y4.810 F1500
G01 X16.647 Y2.670 F1500
G01 X18.057 Y2.670 F1500
G01 X18.057 Y4.810 F1500
G01 X16.647 Y4.810 F1500
G00 Z4.000 F500
G00 X16.647 Y4.810 F1500
G00 Z0.000 F500
G01 X16.647 Y4.810 F1500
G01 X16.647 Y2.670 F1500
G01 X18.057 Y2.670 F1500
G01 X18.057 Y4.810 F1500
G01 X16.647 Y4.810 F1500
G00 Z4.000 F500

G00 X28.647 Y24.310 F1500
G00 Z0.000 F500
G01 X28.647 Y24.310 F1500
G01 X28.647 Y22.170 F1500
G01 X30.057 Y22.170 F1500
G01 X30.057 Y24.310 F1500
G01 X28.647 Y24.310 F1500
G00 Z4.000 F500
G00 X28.647 Y24.310 F1500
G00 Z0.000 F500
G01 X28.647 Y24.310 F1500
G01 X28.647 Y22.170 F1500
G01 X30.057 Y22.170 F1500
G01 X30.057 Y24.310 F1500
G01 X28.647 Y24.310 F1500
G00 Z4.000 F500

G00 X20.647 Y24.310 F1500
G00 Z0.000 F500
G01 X20.647 Y24.310 F1500
G01 X20.647 Y22.170 F1500
G01 X22.057 Y22.170 F1500
G01 X22.057 Y24.310 F1500
G01 X20.647 Y24.310 F1500
G00 Z4.000 F500
G00 X20.647 Y24.310 F1500
G00 Z0.000 F500
G01 X20.647 Y24.310 F1500
G01 X20.647 Y22.170 F1500
G01 X22.057 Y22.170 F1500
G01 X22.057 Y24.310 F1500
G01 X20.647 Y24.310 F1500
G00 Z4.000 F500

G00 X18.647 Y24.310 F1500
G00 Z0.000 F500
G01 X18.647 Y24.310 F1500
G01 X18.647 Y22.170 F1500
G01 X20.057 Y22.170 F1500
G01 X20.057 Y24.310 F1500
G01 X18.647 Y24.310 F1500
G00 Z4.000 F500
G00 X18.647 Y24.310 F1500
G00 Z0.000 F500
G01 X18.647 Y24.310 F1500
G01 X18.647 Y22.170 F1500
G01 X20.057 Y22.170 F1500
G01 X20.057 Y24.310 F1500
G01 X18.647 Y24.310 F1500
G00 Z4.000 F500

G00 X16.647 Y24.310 F1500
G00 Z0.000 F500
G01 X16.647 Y24.310 F1500
G01 X16.647 Y22.170 F1500
G01 X18.057 Y22.170 F1500
G01 X18.057 Y24.310 F1500
G01 X16.647 Y24.310 F1500
G00 Z4.000 F500
G00 X16.647 Y24.310 F1500
G00 Z0.000 F500
G01 X16.647 Y24.310 F1500
G01 X16.647 Y22.170 F1500
G01 X18.057 Y22.170 F1500
G01 X18.057 Y24.310 F1500
G01 X16.647 Y24.310 F1500
G00 Z4.000 F500

G00 X22.647 Y24.310 F1500
G00 Z0.000 F500
G01 X22.647 Y24.310 F1500
G01 X22.647 Y22.170 F1500
G01 X24.057 Y22.170 F1500
G01 X24.057 Y24.310 F1500
G01 X22.647 Y24.310 F1500
G00 Z4.000 F500
G00 X22.647 Y24.310 F1500
G00 Z0.000 F500
G01 X22.647 Y24.310 F1500
G01 X22.647 Y22.170 F1500
G01 X24.057 Y22.170 F1500
G01 X24.057 Y24.310 F1500
G01 X22.647 Y24.310 F1500
G00 Z4.000 F500

G00 X28.647 Y4.810 F1500
G00 Z0.000 F500
G01 X28.647 Y4.810 F1500
G01 X28.647 Y2.670 F1500
G01 X30.057 Y2.670 F1500
G01 X30.057 Y4.810 F1500
G01 X28.647 Y4.810 F1500
G00 Z4.000 F500
G00 X28.647 Y4.810 F1500
G00 Z0.000 F500
G01 X28.647 Y4.810 F1500
G01 X28.647 Y2.670 F1500
G01 X30.057 Y2.670 F1500
G01 X30.057 Y4.810 F1500
G01 X28.647 Y4.810 F1500
G00 Z4.000 F500

G00 X19.272 Y37.693 F1500
G00 Z0.000 F500
G01 X19.272 Y37.693 F1500
G01 X17.862 Y37.693 F1500
G01 X17.862 Y36.995 F1500
G01 X19.272 Y36.995 F1500
G01 X19.272 Y37.693 F1500
G00 Z4.000 F500
G00 X19.272 Y37.693 F1500
G00 Z0.000 F500
G01 X19.272 Y37.693 F1500
G01 X17.862 Y37.693 F1500
G01 X17.862 Y36.995 F1500
G01 X19.272 Y36.995 F1500
G01 X19.272 Y37.693 F1500
G00 Z4.000 F500

G00 X19.272 Y36.893 F1500
G00 Z0.000 F500
G01 X19.272 Y36.893 F1500
G01 X17.862 Y36.893 F1500
G01 X17.862 Y36.195 F1500
G01 X19.272 Y36.195 F1500
G01 X19.272 Y36.893 F1500
G00 Z4.000 F500
G00 X19.272 Y36.893 F1500
G00 Z0.000 F500
G01 X19.272 Y36.893 F1500
G01 X17.862 Y36.893 F1500
G01 X17.862 Y36.195 F1500
G01 X19.272 Y36.195 F1500
G01 X19.272 Y36.893 F1500
G00 Z4.000 F500

G00 X19.272 Y36.093 F1500
G00 Z0.000 F500
G01 X19.272 Y36.093 F1500
G01 X17.862 Y36.093 F1500
G01 X17.862 Y35.395 F1500
G01 X19.272 Y35.395 F1500
G01 X19.272 Y36.093 F1500
G00 Z4.000 F500
G00 X19.272 Y36.093 F1500
G00 Z0.000 F500
G01 X19.272 Y36.093 F1500
G01 X17.862 Y36.093 F1500
G01 X17.862 Y35.395 F1500
G01 X19.272 Y35.395 F1500
G01 X19.272 Y36.093 F1500
G00 Z4.000 F500

G00 X19.272 Y35.293 F1500
G00 Z0.000 F500
G01 X19.272 Y35.293 F1500
G01 X17.862 Y35.293 F1500
G01 X17.862 Y34.595 F1500
G01 X19.272 Y34.595 F1500
G01 X19.272 Y35.293 F1500
G00 Z4.000 F500
G00 X19.272 Y35.293 F1500
G00 Z0.000 F500
G01 X19.272 Y35.293 F1500
G01 X17.862 Y35.293 F1500
G01 X17.862 Y34.595 F1500
G01 X19.272 Y34.595 F1500
G01 X19.272 Y35.293 F1500
G00 Z4.000 F500

G00 X19.272 Y34.493 F1500
G00 Z0.000 F500
G01 X19.272 Y34.493 F1500
G01 X17.862 Y34.493 F1500
G01 X17.862 Y33.795 F1500
G01 X19.272 Y33.795 F1500
G01 X19.272 Y34.493 F1500
G00 Z4.000 F500
G00 X19.272 Y34.493 F1500
G00 Z0.000 F500
G01 X19.272 Y34.493 F1500
G01 X17.862 Y34.493 F1500
G01 X17.862 Y33.795 F1500
G01 X19.272 Y33.795 F1500
G01 X19.272 Y34.493 F1500
G00 Z4.000 F500

G00 X19.272 Y33.693 F1500
G00 Z0.000 F500
G01 X19.272 Y33.693 F1500
G01 X17.862 Y33.693 F1500
G01 X17.862 Y32.995 F1500
G01 X19.272 Y32.995 F1500
G01 X19.272 Y33.693 F1500
G00 Z4.000 F500
G00 X19.272 Y33.693 F1500
G00 Z0.000 F500
G01 X19.272 Y33.693 F1500
G01 X17.862 Y33.693 F1500
G01 X17.862 Y32.995 F1500
G01 X19.272 Y32.995 F1500
G01 X19.272 Y33.693 F1500
G00 Z4.000 F500

G00 X19.272 Y32.893 F1500
G00 Z0.000 F500
G01 X19.272 Y32.893 F1500
G01 X17.862 Y32.893 F1500
G01 X17.862 Y32.195 F1500
G01 X19.272 Y32.195 F1500
G01 X19.272 Y32.893 F1500
G00 Z4.000 F500
G00 X19.272 Y32.893 F1500
G00 Z0.000 F500
G01 X19.272 Y32.893 F1500
G01 X17.862 Y32.893 F1500
G01 X17.862 Y32.195 F1500
G01 X19.272 Y32.195 F1500
G01 X19.272 Y32.893 F1500
G00 Z4.000 F500

G00 X19.272 Y32.093 F1500
G00 Z0.000 F500
G01 X19.272 Y32.093 F1500
G01 X17.862 Y32.093 F1500
G01 X17.862 Y31.395 F1500
G01 X19.272 Y31.395 F1500
G01 X19.272 Y32.093 F1500
G00 Z4.000 F500
G00 X19.272 Y32.093 F1500
G00 Z0.000 F500
G01 X19.272 Y32.093 F1500
G01 X17.862 Y32.093 F1500
G01 X17.862 Y31.395 F1500
G01 X19.272 Y31.395 F1500
G01 X19.272 Y32.093 F1500
G00 Z4.000 F500

G00 X20.409 Y30.956 F1500
G00 Z0.000 F500
G01 X20.409 Y30.956 F1500
G01 X19.711 Y30.956 F1500
G01 X19.711 Y29.546 F1500
G01 X20.409 Y29.546 F1500
G01 X20.409 Y30.956 F1500
G00 Z4.000 F500
G00 X20.409 Y30.956 F1500
G00 Z0.000 F500
G01 X20.409 Y30.956 F1500
G01 X19.711 Y30.956 F1500
G01 X19.711 Y29.546 F1500
G01 X20.409 Y29.546 F1500
G01 X20.409 Y30.956 F1500
G00 Z4.000 F500

G00 X21.209 Y30.956 F1500
G00 Z0.000 F500
G01 X21.209 Y30.956 F1500
G01 X20.511 Y30.956 F1500
G01 X20.511 Y29.546 F1500
G01 X21.209 Y29.546 F1500
G01 X21.209 Y30.956 F1500
G00 Z4.000 F500
G00 X21.209 Y30.956 F1500
G00 Z0.000 F500
G01 X21.209 Y30.956 F1500
G01 X20.511 Y30.956 F1500
G01 X20.511 Y29.546 F1500
G01 X21.209 Y29.546 F1500
G01 X21.209 Y30.956 F1500
G00 Z4.000 F500

G00 X22.009 Y30.956 F1500
G00 Z0.000 F500
G01 X22.009 Y30.956 F1500
G01 X21.311 Y30.956 F1500
G01 X21.311 Y29.546 F1500
G01 X22.009 Y29.546 F1500
G01 X22.009 Y30.956 F1500
G00 Z4.000 F500
G00 X22.009 Y30.956 F1500
G00 Z0.000 F500
G01 X22.009 Y30.956 F1500
G01 X21.311 Y30.956 F1500
G01 X21.311 Y29.546 F1500
G01 X22.009 Y29.546 F1500
G01 X22.009 Y30.956 F1500
G00 Z4.000 F500

G00 X22.809 Y30.956 F1500
G00 Z0.000 F500
G01 X22.809 Y30.956 F1500
G01 X22.111 Y30.956 F1500
G01 X22.111 Y29.546 F1500
G01 X22.809 Y29.546 F1500
G01 X22.809 Y30.956 F1500
G00 Z4.000 F500
G00 X22.809 Y30.956 F1500
G00 Z0.000 F500
G01 X22.809 Y30.956 F1500
G01 X22.111 Y30.956 F1500
G01 X22.111 Y29.546 F1500
G01 X22.809 Y29.546 F1500
G01 X22.809 Y30.956 F1500
G00 Z4.000 F500

G00 X23.609 Y30.956 F1500
G00 Z0.000 F500
G01 X23.609 Y30.956 F1500
G01 X22.911 Y30.956 F1500
G01 X22.911 Y29.546 F1500
G01 X23.609 Y29.546 F1500
G01 X23.609 Y30.956 F1500
G00 Z4.000 F500
G00 X23.609 Y30.956 F1500
G00 Z0.000 F500
G01 X23.609 Y30.956 F1500
G01 X22.911 Y30.956 F1500
G01 X22.911 Y29.546 F1500
G01 X23.609 Y29.546 F1500
G01 X23.609 Y30.956 F1500
G00 Z4.000 F500

G00 X24.409 Y30.956 F1500
G00 Z0.000 F500
G01 X24.409 Y30.956 F1500
G01 X23.711 Y30.956 F1500
G01 X23.711 Y29.546 F1500
G01 X24.409 Y29.546 F1500
G01 X24.409 Y30.956 F1500
G00 Z4.000 F500
G00 X24.409 Y30.956 F1500
G00 Z0.000 F500
G01 X24.409 Y30.956 F1500
G01 X23.711 Y30.956 F1500
G01 X23.711 Y29.546 F1500
G01 X24.409 Y29.546 F1500
G01 X24.409 Y30.956 F1500
G00 Z4.000 F500

G00 X25.209 Y30.956 F1500
G00 Z0.000 F500
G01 X25.209 Y30.956 F1500
G01 X24.511 Y30.956 F1500
G01 X24.511 Y29.546 F1500
G01 X25.209 Y29.546 F1500
G01 X25.209 Y30.956 F1500
G00 Z4.000 F500
G00 X25.209 Y30.956 F1500
G00 Z0.000 F500
G01 X25.209 Y30.956 F1500
G01 X24.511 Y30.956 F1500
G01 X24.511 Y29.546 F1500
G01 X25.209 Y29.546 F1500
G01 X25.209 Y30.956 F1500
G00 Z4.000 F500

G00 X26.009 Y30.956 F1500
G00 Z0.000 F500
G01 X26.009 Y30.956 F1500
G01 X25.311 Y30.956 F1500
G01 X25.311 Y29.546 F1500
G01 X26.009 Y29.546 F1500
G01 X26.009 Y30.956 F1500
G00 Z4.000 F500
G00 X26.009 Y30.956 F1500
G00 Z0.000 F500
G01 X26.009 Y30.956 F1500
G01 X25.311 Y30.956 F1500
G01 X25.311 Y29.546 F1500
G01 X26.009 Y29.546 F1500
G01 X26.009 Y30.956 F1500
G00 Z4.000 F500

G00 X27.858 Y32.093 F1500
G00 Z0.000 F500
G01 X27.858 Y32.093 F1500
G01 X26.448 Y32.093 F1500
G01 X26.448 Y31.395 F1500
G01 X27.858 Y31.395 F1500
G01 X27.858 Y32.093 F1500
G00 Z4.000 F500
G00 X27.858 Y32.093 F1500
G00 Z0.000 F500
G01 X27.858 Y32.093 F1500
G01 X26.448 Y32.093 F1500
G01 X26.448 Y31.395 F1500
G01 X27.858 Y31.395 F1500
G01 X27.858 Y32.093 F1500
G00 Z4.000 F500

G00 X27.858 Y32.893 F1500
G00 Z0.000 F500
G01 X27.858 Y32.893 F1500
G01 X26.448 Y32.893 F1500
G01 X26.448 Y32.195 F1500
G01 X27.858 Y32.195 F1500
G01 X27.858 Y32.893 F1500
G00 Z4.000 F500
G00 X27.858 Y32.893 F1500
G00 Z0.000 F500
G01 X27.858 Y32.893 F1500
G01 X26.448 Y32.893 F1500
G01 X26.448 Y32.195 F1500
G01 X27.858 Y32.195 F1500
G01 X27.858 Y32.893 F1500
G00 Z4.000 F500

G00 X27.858 Y33.693 F1500
G00 Z0.000 F500
G01 X27.858 Y33.693 F1500
G01 X26.448 Y33.693 F1500
G01 X26.448 Y32.995 F1500
G01 X27.858 Y32.995 F1500
G01 X27.858 Y33.693 F1500
G00 Z4.000 F500
G00 X27.858 Y33.693 F1500
G00 Z0.000 F500
G01 X27.858 Y33.693 F1500
G01 X26.448 Y33.693 F1500
G01 X26.448 Y32.995 F1500
G01 X27.858 Y32.995 F1500
G01 X27.858 Y33.693 F1500
G00 Z4.000 F500

G00 X27.858 Y34.493 F1500
G00 Z0.000 F500
G01 X27.858 Y34.493 F1500
G01 X26.448 Y34.493 F1500
G01 X26.448 Y33.795 F1500
G01 X27.858 Y33.795 F1500
G01 X27.858 Y34.493 F1500
G00 Z4.000 F500
G00 X27.858 Y34.493 F1500
G00 Z0.000 F500
G01 X27.858 Y34.493 F1500
G01 X26.448 Y34.493 F1500
G01 X26.448 Y33.795 F1500
G01 X27.858 Y33.795 F1500
G01 X27.858 Y34.493 F1500
G00 Z4.000 F500

G00 X27.858 Y35.293 F1500
G00 Z0.000 F500
G01 X27.858 Y35.293 F1500
G01 X26.448 Y35.293 F1500
G01 X26.448 Y34.595 F1500
G01 X27.858 Y34.595 F1500
G01 X27.858 Y35.293 F1500
G00 Z4.000 F500
G00 X27.858 Y35.293 F1500
G00 Z0.000 F500
G01 X27.858 Y35.293 F1500
G01 X26.448 Y35.293 F1500
G01 X26.448 Y34.595 F1500
G01 X27.858 Y34.595 F1500
G01 X27.858 Y35.293 F1500
G00 Z4.000 F500

G00 X27.858 Y36.093 F1500
G00 Z0.000 F500
G01 X27.858 Y36.093 F1500
G01 X26.448 Y36.093 F1500
G01 X26.448 Y35.395 F1500
G01 X27.858 Y35.395 F1500
G01 X27.858 Y36.093 F1500
G00 Z4.000 F500
G00 X27.858 Y36.093 F1500
G00 Z0.000 F500
G01 X27.858 Y36.093 F1500
G01 X26.448 Y36.093 F1500
G01 X26.448 Y35.395 F1500
G01 X27.858 Y35.395 F1500
G01 X27.858 Y36.093 F1500
G00 Z4.000 F500

G00 X27.858 Y36.893 F1500
G00 Z0.000 F500
G01 X27.858 Y36.893 F1500
G01 X26.448 Y36.893 F1500
G01 X26.448 Y36.195 F1500
G01 X27.858 Y36.195 F1500
G01 X27.858 Y36.893 F1500
G00 Z4.000 F500
G00 X27.858 Y36.893 F1500
G00 Z0.000 F500
G01 X27.858 Y36.893 F1500
G01 X26.448 Y36.893 F1500
G01 X26.448 Y36.195 F1500
G01 X27.858 Y36.195 F1500
G01 X27.858 Y36.893 F1500
G00 Z4.000 F500

G00 X27.858 Y37.693 F1500
G00 Z0.000 F500
G01 X27.858 Y37.693 F1500
G01 X26.448 Y37.693 F1500
G01 X26.448 Y36.995 F1500
G01 X27.858 Y36.995 F1500
G01 X27.858 Y37.693 F1500
G00 Z4.000 F500
G00 X27.858 Y37.693 F1500
G00 Z0.000 F500
G01 X27.858 Y37.693 F1500
G01 X26.448 Y37.693 F1500
G01 X26.448 Y36.995 F1500
G01 X27.858 Y36.995 F1500
G01 X27.858 Y37.693 F1500
G00 Z4.000 F500

G00 X26.009 Y39.542 F1500
G00 Z0.000 F500
G01 X26.009 Y39.542 F1500
G01 X25.311 Y39.542 F1500
G01 X25.311 Y38.132 F1500
G01 X26.009 Y38.132 F1500
G01 X26.009 Y39.542 F1500
G00 Z4.000 F500
G00 X26.009 Y39.542 F1500
G00 Z0.000 F500
G01 X26.009 Y39.542 F1500
G01 X25.311 Y39.542 F1500
G01 X25.311 Y38.132 F1500
G01 X26.009 Y38.132 F1500
G01 X26.009 Y39.542 F1500
G00 Z4.000 F500

G00 X25.209 Y39.542 F1500
G00 Z0.000 F500
G01 X25.209 Y39.542 F1500
G01 X24.511 Y39.542 F1500
G01 X24.511 Y38.132 F1500
G01 X25.209 Y38.132 F1500
G01 X25.209 Y39.542 F1500
G00 Z4.000 F500
G00 X25.209 Y39.542 F1500
G00 Z0.000 F500
G01 X25.209 Y39.542 F1500
G01 X24.511 Y39.542 F1500
G01 X24.511 Y38.132 F1500
G01 X25.209 Y38.132 F1500
G01 X25.209 Y39.542 F1500
G00 Z4.000 F500

G00 X24.409 Y39.542 F1500
G00 Z0.000 F500
G01 X24.409 Y39.542 F1500
G01 X23.711 Y39.542 F1500
G01 X23.711 Y38.132 F1500
G01 X24.409 Y38.132 F1500
G01 X24.409 Y39.542 F1500
G00 Z4.000 F500
G00 X24.409 Y39.542 F1500
G00 Z0.000 F500
G01 X24.409 Y39.542 F1500
G01 X23.711 Y39.542 F1500
G01 X23.711 Y38.132 F1500
G01 X24.409 Y38.132 F1500
G01 X24.409 Y39.542 F1500
G00 Z4.000 F500

G00 X23.609 Y39.542 F1500
G00 Z0.000 F500
G01 X23.609 Y39.542 F1500
G01 X22.911 Y39.542 F1500
G01 X22.911 Y38.132 F1500
G01 X23.609 Y38.132 F1500
G01 X23.609 Y39.542 F1500
G00 Z4.000 F500
G00 X23.609 Y39.542 F1500
G00 Z0.000 F500
G01 X23.609 Y39.542 F1500
G01 X22.911 Y39.542 F1500
G01 X22.911 Y38.132 F1500
G01 X23.609 Y38.132 F1500
G01 X23.609 Y39.542 F1500
G00 Z4.000 F500

G00 X22.809 Y39.542 F1500
G00 Z0.000 F500
G01 X22.809 Y39.542 F1500
G01 X22.111 Y39.542 F1500
G01 X22.111 Y38.132 F1500
G01 X22.809 Y38.132 F1500
G01 X22.809 Y39.542 F1500
G00 Z4.000 F500
G00 X22.809 Y39.542 F1500
G00 Z0.000 F500
G01 X22.809 Y39.542 F1500
G01 X22.111 Y39.542 F1500
G01 X22.111 Y38.132 F1500
G01 X22.809 Y38.132 F1500
G01 X22.809 Y39.542 F1500
G00 Z4.000 F500

G00 X22.009 Y39.542 F1500
G00 Z0.000 F500
G01 X22.009 Y39.542 F1500
G01 X21.311 Y39.542 F1500
G01 X21.311 Y38.132 F1500
G01 X22.009 Y38.132 F1500
G01 X22.009 Y39.542 F1500
G00 Z4.000 F500
G00 X22.009 Y39.542 F1500
G00 Z0.000 F500
G01 X22.009 Y39.542 F1500
G01 X21.311 Y39.542 F1500
G01 X21.311 Y38.132 F1500
G01 X22.009 Y38.132 F1500
G01 X22.009 Y39.542 F1500
G00 Z4.000 F500

G00 X21.209 Y39.542 F1500
G00 Z0.000 F500
G01 X21.209 Y39.542 F1500
G01 X20.511 Y39.542 F1500
G01 X20.511 Y38.132 F1500
G01 X21.209 Y38.132 F1500
G01 X21.209 Y39.542 F1500
G00 Z4.000 F500
G00 X21.209 Y39.542 F1500
G00 Z0.000 F500
G01 X21.209 Y39.542 F1500
G01 X20.511 Y39.542 F1500
G01 X20.511 Y38.132 F1500
G01 X21.209 Y38.132 F1500
G01 X21.209 Y39.542 F1500
G00 Z4.000 F500

G00 X20.409 Y39.542 F1500
G00 Z0.000 F500
G01 X20.409 Y39.542 F1500
G01 X19.711 Y39.542 F1500
G01 X19.711 Y38.132 F1500
G01 X20.409 Y38.132 F1500
G01 X20.409 Y39.542 F1500
G00 Z4.000 F500
G00 X20.409 Y39.542 F1500
G00 Z0.000 F500
G01 X20.409 Y39.542 F1500
G01 X19.711 Y39.542 F1500
G01 X19.711 Y38.132 F1500
G01 X20.409 Y38.132 F1500
G01 X20.409 Y39.542 F1500
G00 Z4.000 F500

G00 X0.000 Y2.540 F1500
(-->plunge, then cut)
G01 Z0.000 F500
G01 X0.000Y2.540 F1500
G03
X2.540Y0.000 R2.540
G00 X33.020 Y0.000 F1500
(-->Cutting Line)
G01 X33.020Y0.000 F1500
G03
X35.560Y2.540 R2.540
G00 X35.560 Y58.420 F1500
(-->Cutting Line)
G01 X35.560Y58.420 F1500
G03
X33.020Y60.960 R2.540
G00 X2.540 Y60.960 F1500
(-->Cutting Line)
G01 X2.540Y60.960 F1500
G03
X0.000Y58.420 R2.540
G00 Z5.000
G00 X0Y0