(RS-274 Compatible G-code generated for UCCNC controller and Stepcraft 2 Mill)
(Created by in EagleCAD with the stepcraft.ulp 0.2.)
(File: "sensor_v2.brd" created on: 3/23/16 6:23 PM)
(Use a 1/32inch Bit)

G90 G94 G49
G21
G00 Z5
G00 X0Y0
S19500 M03
G04 P4000
G00 Z4.000
G00 X9.255Y6.604
G01 Z-0.150 F30
G03 F360
X9.255Y6.604 I-0.111
G01 Z-0.300 F30
G03 F360
X9.255Y6.604 I-0.111
G01 Z-0.450 F30
G03 F360
X9.255Y6.604 I-0.111
G01 Z-0.600 F30
G03 F360
X9.255Y6.604 I-0.111
G01 Z-0.750 F30
G03 F360
X9.255Y6.604 I-0.111
G01 Z-0.900 F30
G03 F360
X9.255Y6.604 I-0.111
G01 Z-1.050 F30
G03 F360
X9.255Y6.604 I-0.111
G01 Z-1.200 F30
G03 F360
X9.255Y6.604 I-0.111
G01 Z-1.350 F30
G03 F360
X9.255Y6.604 I-0.111
G01 Z-1.500 F30
G03 F360
X9.255Y6.604 I-0.111
G01 Z-1.600 F30
G03 F360
X9.255Y6.604 I-0.111
G00 Z4.000
G00 X9.255Y4.064
G01 Z-0.150 F30
G03 F360
X9.255Y4.064 I-0.111
G01 Z-0.300 F30
G03 F360
X9.255Y4.064 I-0.111
G01 Z-0.450 F30
G03 F360
X9.255Y4.064 I-0.111
G01 Z-0.600 F30
G03 F360
X9.255Y4.064 I-0.111
G01 Z-0.750 F30
G03 F360
X9.255Y4.064 I-0.111
G01 Z-0.900 F30
G03 F360
X9.255Y4.064 I-0.111
G01 Z-1.050 F30
G03 F360
X9.255Y4.064 I-0.111
G01 Z-1.200 F30
G03 F360
X9.255Y4.064 I-0.111
G01 Z-1.350 F30
G03 F360
X9.255Y4.064 I-0.111
G01 Z-1.500 F30
G03 F360
X9.255Y4.064 I-0.111
G01 Z-1.600 F30
G03 F360
X9.255Y4.064 I-0.111
G00 Z4.000
G00 X6.715Y6.604
G01 Z-0.150 F30
G03 F360
X6.715Y6.604 I-0.111
G01 Z-0.300 F30
G03 F360
X6.715Y6.604 I-0.111
G01 Z-0.450 F30
G03 F360
X6.715Y6.604 I-0.111
G01 Z-0.600 F30
G03 F360
X6.715Y6.604 I-0.111
G01 Z-0.750 F30
G03 F360
X6.715Y6.604 I-0.111
G01 Z-0.900 F30
G03 F360
X6.715Y6.604 I-0.111
G01 Z-1.050 F30
G03 F360
X6.715Y6.604 I-0.111
G01 Z-1.200 F30
G03 F360
X6.715Y6.604 I-0.111
G01 Z-1.350 F30
G03 F360
X6.715Y6.604 I-0.111
G01 Z-1.500 F30
G03 F360
X6.715Y6.604 I-0.111
G01 Z-1.600 F30
G03 F360
X6.715Y6.604 I-0.111
G00 Z4.000
G00 X6.715Y4.064
G01 Z-0.150 F30
G03 F360
X6.715Y4.064 I-0.111
G01 Z-0.300 F30
G03 F360
X6.715Y4.064 I-0.111
G01 Z-0.450 F30
G03 F360
X6.715Y4.064 I-0.111
G01 Z-0.600 F30
G03 F360
X6.715Y4.064 I-0.111
G01 Z-0.750 F30
G03 F360
X6.715Y4.064 I-0.111
G01 Z-0.900 F30
G03 F360
X6.715Y4.064 I-0.111
G01 Z-1.050 F30
G03 F360
X6.715Y4.064 I-0.111
G01 Z-1.200 F30
G03 F360
X6.715Y4.064 I-0.111
G01 Z-1.350 F30
G03 F360
X6.715Y4.064 I-0.111
G01 Z-1.500 F30
G03 F360
X6.715Y4.064 I-0.111
G01 Z-1.600 F30
G03 F360
X6.715Y4.064 I-0.111
G00 Z4.000
G00 X4.175Y6.604
G01 Z-0.150 F30
G03 F360
X4.175Y6.604 I-0.111
G01 Z-0.300 F30
G03 F360
X4.175Y6.604 I-0.111
G01 Z-0.450 F30
G03 F360
X4.175Y6.604 I-0.111
G01 Z-0.600 F30
G03 F360
X4.175Y6.604 I-0.111
G01 Z-0.750 F30
G03 F360
X4.175Y6.604 I-0.111
G01 Z-0.900 F30
G03 F360
X4.175Y6.604 I-0.111
G01 Z-1.050 F30
G03 F360
X4.175Y6.604 I-0.111
G01 Z-1.200 F30
G03 F360
X4.175Y6.604 I-0.111
G01 Z-1.350 F30
G03 F360
X4.175Y6.604 I-0.111
G01 Z-1.500 F30
G03 F360
X4.175Y6.604 I-0.111
G01 Z-1.600 F30
G03 F360
X4.175Y6.604 I-0.111
G00 Z4.000
G00 X4.175Y4.064
G01 Z-0.150 F30
G03 F360
X4.175Y4.064 I-0.111
G01 Z-0.300 F30
G03 F360
X4.175Y4.064 I-0.111
G01 Z-0.450 F30
G03 F360
X4.175Y4.064 I-0.111
G01 Z-0.600 F30
G03 F360
X4.175Y4.064 I-0.111
G01 Z-0.750 F30
G03 F360
X4.175Y4.064 I-0.111
G01 Z-0.900 F30
G03 F360
X4.175Y4.064 I-0.111
G01 Z-1.050 F30
G03 F360
X4.175Y4.064 I-0.111
G01 Z-1.200 F30
G03 F360
X4.175Y4.064 I-0.111
G01 Z-1.350 F30
G03 F360
X4.175Y4.064 I-0.111
G01 Z-1.500 F30
G03 F360
X4.175Y4.064 I-0.111
G01 Z-1.600 F30
G03 F360
X4.175Y4.064 I-0.111
G00 Z4.000
G00 X31.099Y51.816
G01 Z-0.150 F30
G03 F360
X31.099Y51.816 I-0.111
G01 Z-0.300 F30
G03 F360
X31.099Y51.816 I-0.111
G01 Z-0.450 F30
G03 F360
X31.099Y51.816 I-0.111
G01 Z-0.600 F30
G03 F360
X31.099Y51.816 I-0.111
G01 Z-0.750 F30
G03 F360
X31.099Y51.816 I-0.111
G01 Z-0.900 F30
G03 F360
X31.099Y51.816 I-0.111
G01 Z-1.050 F30
G03 F360
X31.099Y51.816 I-0.111
G01 Z-1.200 F30
G03 F360
X31.099Y51.816 I-0.111
G01 Z-1.350 F30
G03 F360
X31.099Y51.816 I-0.111
G01 Z-1.500 F30
G03 F360
X31.099Y51.816 I-0.111
G01 Z-1.600 F30
G03 F360
X31.099Y51.816 I-0.111
G00 Z4.000
G00 X28.559Y51.816
G01 Z-0.150 F30
G03 F360
X28.559Y51.816 I-0.111
G01 Z-0.300 F30
G03 F360
X28.559Y51.816 I-0.111
G01 Z-0.450 F30
G03 F360
X28.559Y51.816 I-0.111
G01 Z-0.600 F30
G03 F360
X28.559Y51.816 I-0.111
G01 Z-0.750 F30
G03 F360
X28.559Y51.816 I-0.111
G01 Z-0.900 F30
G03 F360
X28.559Y51.816 I-0.111
G01 Z-1.050 F30
G03 F360
X28.559Y51.816 I-0.111
G01 Z-1.200 F30
G03 F360
X28.559Y51.816 I-0.111
G01 Z-1.350 F30
G03 F360
X28.559Y51.816 I-0.111
G01 Z-1.500 F30
G03 F360
X28.559Y51.816 I-0.111
G01 Z-1.600 F30
G03 F360
X28.559Y51.816 I-0.111
G00 Z4.000
G00 X33.131Y22.860
G01 Z-0.150 F30
G03 F360
X33.131Y22.860 I-0.111
G01 Z-0.300 F30
G03 F360
X33.131Y22.860 I-0.111
G01 Z-0.450 F30
G03 F360
X33.131Y22.860 I-0.111
G01 Z-0.600 F30
G03 F360
X33.131Y22.860 I-0.111
G01 Z-0.750 F30
G03 F360
X33.131Y22.860 I-0.111
G01 Z-0.900 F30
G03 F360
X33.131Y22.860 I-0.111
G01 Z-1.050 F30
G03 F360
X33.131Y22.860 I-0.111
G01 Z-1.200 F30
G03 F360
X33.131Y22.860 I-0.111
G01 Z-1.350 F30
G03 F360
X33.131Y22.860 I-0.111
G01 Z-1.500 F30
G03 F360
X33.131Y22.860 I-0.111
G01 Z-1.600 F30
G03 F360
X33.131Y22.860 I-0.111
G00 Z4.000
G00 X10.322Y30.480
G01 Z-0.150 F30
G03 F360
X10.322Y30.480 I-0.162
G01 Z-0.300 F30
G03 F360
X10.322Y30.480 I-0.162
G01 Z-0.450 F30
G03 F360
X10.322Y30.480 I-0.162
G01 Z-0.600 F30
G03 F360
X10.322Y30.480 I-0.162
G01 Z-0.750 F30
G03 F360
X10.322Y30.480 I-0.162
G01 Z-0.900 F30
G03 F360
X10.322Y30.480 I-0.162
G01 Z-1.050 F30
G03 F360
X10.322Y30.480 I-0.162
G01 Z-1.200 F30
G03 F360
X10.322Y30.480 I-0.162
G01 Z-1.350 F30
G03 F360
X10.322Y30.480 I-0.162
G01 Z-1.500 F30
G03 F360
X10.322Y30.480 I-0.162
G01 Z-1.600 F30
G03 F360
X10.322Y30.480 I-0.162
G00 Z4.000
G00 X10.322Y33.020
G01 Z-0.150 F30
G03 F360
X10.322Y33.020 I-0.162
G01 Z-0.300 F30
G03 F360
X10.322Y33.020 I-0.162
G01 Z-0.450 F30
G03 F360
X10.322Y33.020 I-0.162
G01 Z-0.600 F30
G03 F360
X10.322Y33.020 I-0.162
G01 Z-0.750 F30
G03 F360
X10.322Y33.020 I-0.162
G01 Z-0.900 F30
G03 F360
X10.322Y33.020 I-0.162
G01 Z-1.050 F30
G03 F360
X10.322Y33.020 I-0.162
G01 Z-1.200 F30
G03 F360
X10.322Y33.020 I-0.162
G01 Z-1.350 F30
G03 F360
X10.322Y33.020 I-0.162
G01 Z-1.500 F30
G03 F360
X10.322Y33.020 I-0.162
G01 Z-1.600 F30
G03 F360
X10.322Y33.020 I-0.162
G00 Z4.000
G00 X10.322Y35.560
G01 Z-0.150 F30
G03 F360
X10.322Y35.560 I-0.162
G01 Z-0.300 F30
G03 F360
X10.322Y35.560 I-0.162
G01 Z-0.450 F30
G03 F360
X10.322Y35.560 I-0.162
G01 Z-0.600 F30
G03 F360
X10.322Y35.560 I-0.162
G01 Z-0.750 F30
G03 F360
X10.322Y35.560 I-0.162
G01 Z-0.900 F30
G03 F360
X10.322Y35.560 I-0.162
G01 Z-1.050 F30
G03 F360
X10.322Y35.560 I-0.162
G01 Z-1.200 F30
G03 F360
X10.322Y35.560 I-0.162
G01 Z-1.350 F30
G03 F360
X10.322Y35.560 I-0.162
G01 Z-1.500 F30
G03 F360
X10.322Y35.560 I-0.162
G01 Z-1.600 F30
G03 F360
X10.322Y35.560 I-0.162
G00 Z4.000
G00 X10.322Y38.100
G01 Z-0.150 F30
G03 F360
X10.322Y38.100 I-0.162
G01 Z-0.300 F30
G03 F360
X10.322Y38.100 I-0.162
G01 Z-0.450 F30
G03 F360
X10.322Y38.100 I-0.162
G01 Z-0.600 F30
G03 F360
X10.322Y38.100 I-0.162
G01 Z-0.750 F30
G03 F360
X10.322Y38.100 I-0.162
G01 Z-0.900 F30
G03 F360
X10.322Y38.100 I-0.162
G01 Z-1.050 F30
G03 F360
X10.322Y38.100 I-0.162
G01 Z-1.200 F30
G03 F360
X10.322Y38.100 I-0.162
G01 Z-1.350 F30
G03 F360
X10.322Y38.100 I-0.162
G01 Z-1.500 F30
G03 F360
X10.322Y38.100 I-0.162
G01 Z-1.600 F30
G03 F360
X10.322Y38.100 I-0.162
G00 Z4.000
G00 X10.322Y40.640
G01 Z-0.150 F30
G03 F360
X10.322Y40.640 I-0.162
G01 Z-0.300 F30
G03 F360
X10.322Y40.640 I-0.162
G01 Z-0.450 F30
G03 F360
X10.322Y40.640 I-0.162
G01 Z-0.600 F30
G03 F360
X10.322Y40.640 I-0.162
G01 Z-0.750 F30
G03 F360
X10.322Y40.640 I-0.162
G01 Z-0.900 F30
G03 F360
X10.322Y40.640 I-0.162
G01 Z-1.050 F30
G03 F360
X10.322Y40.640 I-0.162
G01 Z-1.200 F30
G03 F360
X10.322Y40.640 I-0.162
G01 Z-1.350 F30
G03 F360
X10.322Y40.640 I-0.162
G01 Z-1.500 F30
G03 F360
X10.322Y40.640 I-0.162
G01 Z-1.600 F30
G03 F360
X10.322Y40.640 I-0.162
G00 Z4.000
G00 X10.322Y43.180
G01 Z-0.150 F30
G03 F360
X10.322Y43.180 I-0.162
G01 Z-0.300 F30
G03 F360
X10.322Y43.180 I-0.162
G01 Z-0.450 F30
G03 F360
X10.322Y43.180 I-0.162
G01 Z-0.600 F30
G03 F360
X10.322Y43.180 I-0.162
G01 Z-0.750 F30
G03 F360
X10.322Y43.180 I-0.162
G01 Z-0.900 F30
G03 F360
X10.322Y43.180 I-0.162
G01 Z-1.050 F30
G03 F360
X10.322Y43.180 I-0.162
G01 Z-1.200 F30
G03 F360
X10.322Y43.180 I-0.162
G01 Z-1.350 F30
G03 F360
X10.322Y43.180 I-0.162
G01 Z-1.500 F30
G03 F360
X10.322Y43.180 I-0.162
G01 Z-1.600 F30
G03 F360
X10.322Y43.180 I-0.162
G00 Z4.000
G00 X10.290Y57.658
G01 Z-0.150 F30
G03 F360
X10.290Y57.658 I-0.003
G01 Z-0.300 F30
G03 F360
X10.290Y57.658 I-0.003
G01 Z-0.450 F30
G03 F360
X10.290Y57.658 I-0.003
G01 Z-0.600 F30
G03 F360
X10.290Y57.658 I-0.003
G01 Z-0.750 F30
G03 F360
X10.290Y57.658 I-0.003
G01 Z-0.900 F30
G03 F360
X10.290Y57.658 I-0.003
G01 Z-1.050 F30
G03 F360
X10.290Y57.658 I-0.003
G01 Z-1.200 F30
G03 F360
X10.290Y57.658 I-0.003
G01 Z-1.350 F30
G03 F360
X10.290Y57.658 I-0.003
G01 Z-1.500 F30
G03 F360
X10.290Y57.658 I-0.003
G01 Z-1.600 F30
G03 F360
X10.290Y57.658 I-0.003
G00 Z4.000
G00 X25.276Y57.658
G01 Z-0.150 F30
G03 F360
X25.276Y57.658 I-0.003
G01 Z-0.300 F30
G03 F360
X25.276Y57.658 I-0.003
G01 Z-0.450 F30
G03 F360
X25.276Y57.658 I-0.003
G01 Z-0.600 F30
G03 F360
X25.276Y57.658 I-0.003
G01 Z-0.750 F30
G03 F360
X25.276Y57.658 I-0.003
G01 Z-0.900 F30
G03 F360
X25.276Y57.658 I-0.003
G01 Z-1.050 F30
G03 F360
X25.276Y57.658 I-0.003
G01 Z-1.200 F30
G03 F360
X25.276Y57.658 I-0.003
G01 Z-1.350 F30
G03 F360
X25.276Y57.658 I-0.003
G01 Z-1.500 F30
G03 F360
X25.276Y57.658 I-0.003
G01 Z-1.600 F30
G03 F360
X25.276Y57.658 I-0.003
(-->HOLE IS TOO SMALL, I CAN'T CUT THAT!!)
G00 Z4.000
G00 X30.420Y26.924
G01 Z-0.150 F30
G03 F360
X30.420Y26.924 I0.000
(-->HOLE IS TOO SMALL, I CAN'T CUT THAT!!)
G01 Z-0.300 F30
G03 F360
X30.420Y26.924 I0.000
(-->HOLE IS TOO SMALL, I CAN'T CUT THAT!!)
G01 Z-0.450 F30
G03 F360
X30.420Y26.924 I0.000
(-->HOLE IS TOO SMALL, I CAN'T CUT THAT!!)
G01 Z-0.600 F30
G03 F360
X30.420Y26.924 I0.000
(-->HOLE IS TOO SMALL, I CAN'T CUT THAT!!)
G01 Z-0.750 F30
G03 F360
X30.420Y26.924 I0.000
(-->HOLE IS TOO SMALL, I CAN'T CUT THAT!!)
G01 Z-0.900 F30
G03 F360
X30.420Y26.924 I0.000
(-->HOLE IS TOO SMALL, I CAN'T CUT THAT!!)
G01 Z-1.050 F30
G03 F360
X30.420Y26.924 I0.000
(-->HOLE IS TOO SMALL, I CAN'T CUT THAT!!)
G01 Z-1.200 F30
G03 F360
X30.420Y26.924 I0.000
(-->HOLE IS TOO SMALL, I CAN'T CUT THAT!!)
G01 Z-1.350 F30
G03 F360
X30.420Y26.924 I0.000
(-->HOLE IS TOO SMALL, I CAN'T CUT THAT!!)
G01 Z-1.500 F30
G03 F360
X30.420Y26.924 I0.000
(-->HOLE IS TOO SMALL, I CAN'T CUT THAT!!)
G01 Z-1.600 F30
G03 F360
X30.420Y26.924 I0.000
(-->HOLE IS TOO SMALL, I CAN'T CUT THAT!!)
G00 Z4.000
G00 X15.434Y39.370
G01 Z-0.150 F30
G03 F360
X15.434Y39.370 I0.000
(-->HOLE IS TOO SMALL, I CAN'T CUT THAT!!)
G01 Z-0.300 F30
G03 F360
X15.434Y39.370 I0.000
(-->HOLE IS TOO SMALL, I CAN'T CUT THAT!!)
G01 Z-0.450 F30
G03 F360
X15.434Y39.370 I0.000
(-->HOLE IS TOO SMALL, I CAN'T CUT THAT!!)
G01 Z-0.600 F30
G03 F360
X15.434Y39.370 I0.000
(-->HOLE IS TOO SMALL, I CAN'T CUT THAT!!)
G01 Z-0.750 F30
G03 F360
X15.434Y39.370 I0.000
(-->HOLE IS TOO SMALL, I CAN'T CUT THAT!!)
G01 Z-0.900 F30
G03 F360
X15.434Y39.370 I0.000
(-->HOLE IS TOO SMALL, I CAN'T CUT THAT!!)
G01 Z-1.050 F30
G03 F360
X15.434Y39.370 I0.000
(-->HOLE IS TOO SMALL, I CAN'T CUT THAT!!)
G01 Z-1.200 F30
G03 F360
X15.434Y39.370 I0.000
(-->HOLE IS TOO SMALL, I CAN'T CUT THAT!!)
G01 Z-1.350 F30
G03 F360
X15.434Y39.370 I0.000
(-->HOLE IS TOO SMALL, I CAN'T CUT THAT!!)
G01 Z-1.500 F30
G03 F360
X15.434Y39.370 I0.000
(-->HOLE IS TOO SMALL, I CAN'T CUT THAT!!)
G01 Z-1.600 F30
G03 F360
X15.434Y39.370 I0.000
(-->HOLE IS TOO SMALL, I CAN'T CUT THAT!!)
G00 Z4.000
G00 X14.164Y28.956
G01 Z-0.150 F30
G03 F360
X14.164Y28.956 I0.000
(-->HOLE IS TOO SMALL, I CAN'T CUT THAT!!)
G01 Z-0.300 F30
G03 F360
X14.164Y28.956 I0.000
(-->HOLE IS TOO SMALL, I CAN'T CUT THAT!!)
G01 Z-0.450 F30
G03 F360
X14.164Y28.956 I0.000
(-->HOLE IS TOO SMALL, I CAN'T CUT THAT!!)
G01 Z-0.600 F30
G03 F360
X14.164Y28.956 I0.000
(-->HOLE IS TOO SMALL, I CAN'T CUT THAT!!)
G01 Z-0.750 F30
G03 F360
X14.164Y28.956 I0.000
(-->HOLE IS TOO SMALL, I CAN'T CUT THAT!!)
G01 Z-0.900 F30
G03 F360
X14.164Y28.956 I0.000
(-->HOLE IS TOO SMALL, I CAN'T CUT THAT!!)
G01 Z-1.050 F30
G03 F360
X14.164Y28.956 I0.000
(-->HOLE IS TOO SMALL, I CAN'T CUT THAT!!)
G01 Z-1.200 F30
G03 F360
X14.164Y28.956 I0.000
(-->HOLE IS TOO SMALL, I CAN'T CUT THAT!!)
G01 Z-1.350 F30
G03 F360
X14.164Y28.956 I0.000
(-->HOLE IS TOO SMALL, I CAN'T CUT THAT!!)
G01 Z-1.500 F30
G03 F360
X14.164Y28.956 I0.000
(-->HOLE IS TOO SMALL, I CAN'T CUT THAT!!)
G01 Z-1.600 F30
G03 F360
X14.164Y28.956 I0.000
(-->HOLE IS TOO SMALL, I CAN'T CUT THAT!!)
G00 Z4.000
G00 X14.164Y44.704
G01 Z-0.150 F30
G03 F360
X14.164Y44.704 I0.000
(-->HOLE IS TOO SMALL, I CAN'T CUT THAT!!)
G01 Z-0.300 F30
G03 F360
X14.164Y44.704 I0.000
(-->HOLE IS TOO SMALL, I CAN'T CUT THAT!!)
G01 Z-0.450 F30
G03 F360
X14.164Y44.704 I0.000
(-->HOLE IS TOO SMALL, I CAN'T CUT THAT!!)
G01 Z-0.600 F30
G03 F360
X14.164Y44.704 I0.000
(-->HOLE IS TOO SMALL, I CAN'T CUT THAT!!)
G01 Z-0.750 F30
G03 F360
X14.164Y44.704 I0.000
(-->HOLE IS TOO SMALL, I CAN'T CUT THAT!!)
G01 Z-0.900 F30
G03 F360
X14.164Y44.704 I0.000
(-->HOLE IS TOO SMALL, I CAN'T CUT THAT!!)
G01 Z-1.050 F30
G03 F360
X14.164Y44.704 I0.000
(-->HOLE IS TOO SMALL, I CAN'T CUT THAT!!)
G01 Z-1.200 F30
G03 F360
X14.164Y44.704 I0.000
(-->HOLE IS TOO SMALL, I CAN'T CUT THAT!!)
G01 Z-1.350 F30
G03 F360
X14.164Y44.704 I0.000
(-->HOLE IS TOO SMALL, I CAN'T CUT THAT!!)
G01 Z-1.500 F30
G03 F360
X14.164Y44.704 I0.000
(-->HOLE IS TOO SMALL, I CAN'T CUT THAT!!)
G01 Z-1.600 F30
G03 F360
X14.164Y44.704 I0.000
(-->HOLE IS TOO SMALL, I CAN'T CUT THAT!!)
G00 Z4.000
G00 X26.356Y41.656
G01 Z-0.150 F30
G03 F360
X26.356Y41.656 I0.000
(-->HOLE IS TOO SMALL, I CAN'T CUT THAT!!)
G01 Z-0.300 F30
G03 F360
X26.356Y41.656 I0.000
(-->HOLE IS TOO SMALL, I CAN'T CUT THAT!!)
G01 Z-0.450 F30
G03 F360
X26.356Y41.656 I0.000
(-->HOLE IS TOO SMALL, I CAN'T CUT THAT!!)
G01 Z-0.600 F30
G03 F360
X26.356Y41.656 I0.000
(-->HOLE IS TOO SMALL, I CAN'T CUT THAT!!)
G01 Z-0.750 F30
G03 F360
X26.356Y41.656 I0.000
(-->HOLE IS TOO SMALL, I CAN'T CUT THAT!!)
G01 Z-0.900 F30
G03 F360
X26.356Y41.656 I0.000
(-->HOLE IS TOO SMALL, I CAN'T CUT THAT!!)
G01 Z-1.050 F30
G03 F360
X26.356Y41.656 I0.000
(-->HOLE IS TOO SMALL, I CAN'T CUT THAT!!)
G01 Z-1.200 F30
G03 F360
X26.356Y41.656 I0.000
(-->HOLE IS TOO SMALL, I CAN'T CUT THAT!!)
G01 Z-1.350 F30
G03 F360
X26.356Y41.656 I0.000
(-->HOLE IS TOO SMALL, I CAN'T CUT THAT!!)
G01 Z-1.500 F30
G03 F360
X26.356Y41.656 I0.000
(-->HOLE IS TOO SMALL, I CAN'T CUT THAT!!)
G01 Z-1.600 F30
G03 F360
X26.356Y41.656 I0.000
(-->HOLE IS TOO SMALL, I CAN'T CUT THAT!!)
G00 Z4.000
G00 X16.704Y49.784
G01 Z-0.150 F30
G03 F360
X16.704Y49.784 I0.000
(-->HOLE IS TOO SMALL, I CAN'T CUT THAT!!)
G01 Z-0.300 F30
G03 F360
X16.704Y49.784 I0.000
(-->HOLE IS TOO SMALL, I CAN'T CUT THAT!!)
G01 Z-0.450 F30
G03 F360
X16.704Y49.784 I0.000
(-->HOLE IS TOO SMALL, I CAN'T CUT THAT!!)
G01 Z-0.600 F30
G03 F360
X16.704Y49.784 I0.000
(-->HOLE IS TOO SMALL, I CAN'T CUT THAT!!)
G01 Z-0.750 F30
G03 F360
X16.704Y49.784 I0.000
(-->HOLE IS TOO SMALL, I CAN'T CUT THAT!!)
G01 Z-0.900 F30
G03 F360
X16.704Y49.784 I0.000
(-->HOLE IS TOO SMALL, I CAN'T CUT THAT!!)
G01 Z-1.050 F30
G03 F360
X16.704Y49.784 I0.000
(-->HOLE IS TOO SMALL, I CAN'T CUT THAT!!)
G01 Z-1.200 F30
G03 F360
X16.704Y49.784 I0.000
(-->HOLE IS TOO SMALL, I CAN'T CUT THAT!!)
G01 Z-1.350 F30
G03 F360
X16.704Y49.784 I0.000
(-->HOLE IS TOO SMALL, I CAN'T CUT THAT!!)
G01 Z-1.500 F30
G03 F360
X16.704Y49.784 I0.000
(-->HOLE IS TOO SMALL, I CAN'T CUT THAT!!)
G01 Z-1.600 F30
G03 F360
X16.704Y49.784 I0.000
G00 Z4.000
M05
G04 P4000
G00 X0Y0
