(RS-274 Compatible G-code generated for UCCNC controller and Stepcraft 2 Mill)
(Created by in EagleCAD with the stepcraft.ulp 0.2.)
(File: was created on: 4/6/16 3:48 PM)
SHRINK_WIDTH: 0.070000

G90 G94 G49
G00 Z5.000
G00 X6.732 Y54.577 F1500
G00 Z0.000 F500
G01 X6.732 Y54.577 F1500
G01 X8.022 Y54.577 F1500
G01 X8.022 Y56.167 F1500
G01 X6.732 Y56.167 F1500
G01 X6.732 Y54.577 F1500
G00 Z1.000 F500
G00 X6.732 Y54.577 F1500
G00 Z0.000 F500
G01 X6.732 Y54.577 F1500
G01 X8.022 Y54.577 F1500
G01 X8.022 Y56.167 F1500
G01 X6.732 Y56.167 F1500
G01 X6.732 Y54.577 F1500
G00 Z1.000 F500

G00 X4.932 Y54.577 F1500
G00 Z0.000 F500
G01 X4.932 Y54.577 F1500
G01 X6.222 Y54.577 F1500
G01 X6.222 Y56.167 F1500
G01 X4.932 Y56.167 F1500
G01 X4.932 Y54.577 F1500
G00 Z1.000 F500
G00 X4.932 Y54.577 F1500
G00 Z0.000 F500
G01 X4.932 Y54.577 F1500
G01 X6.222 Y54.577 F1500
G01 X6.222 Y56.167 F1500
G01 X4.932 Y56.167 F1500
G01 X4.932 Y54.577 F1500
G00 Z1.000 F500

G00 X15.207 Y56.006 F1500
G00 Z0.000 F500
G01 X15.207 Y56.006 F1500
G01 X15.207 Y54.716 F1500
G01 X16.797 Y54.716 F1500
G01 X16.797 Y56.006 F1500
G01 X15.207 Y56.006 F1500
G00 Z1.000 F500
G00 X15.207 Y56.006 F1500
G00 Z0.000 F500
G01 X15.207 Y56.006 F1500
G01 X15.207 Y54.716 F1500
G01 X16.797 Y54.716 F1500
G01 X16.797 Y56.006 F1500
G01 X15.207 Y56.006 F1500
G00 Z1.000 F500

G00 X15.207 Y57.806 F1500
G00 Z0.000 F500
G01 X15.207 Y57.806 F1500
G01 X15.207 Y56.516 F1500
G01 X16.797 Y56.516 F1500
G01 X16.797 Y57.806 F1500
G01 X15.207 Y57.806 F1500
G00 Z1.000 F500
G00 X15.207 Y57.806 F1500
G00 Z0.000 F500
G01 X15.207 Y57.806 F1500
G01 X15.207 Y56.516 F1500
G01 X16.797 Y56.516 F1500
G01 X16.797 Y57.806 F1500
G01 X15.207 Y57.806 F1500
G00 Z1.000 F500

G00 X29.018 Y40.895 F1500
G00 Z0.000 F500
G01 X29.018 Y40.895 F1500
G01 X29.018 Y41.985 F1500
G01 X27.878 Y41.985 F1500
G01 X27.878 Y40.895 F1500
G01 X29.018 Y40.895 F1500
G00 Z1.000 F500
G00 X29.018 Y40.895 F1500
G00 Z0.000 F500
G01 X29.018 Y40.895 F1500
G01 X29.018 Y41.985 F1500
G01 X27.878 Y41.985 F1500
G01 X27.878 Y40.895 F1500
G01 X29.018 Y40.895 F1500
G00 Z1.000 F500

G00 X29.018 Y39.295 F1500
G00 Z0.000 F500
G01 X29.018 Y39.295 F1500
G01 X29.018 Y40.385 F1500
G01 X27.878 Y40.385 F1500
G01 X27.878 Y39.295 F1500
G01 X29.018 Y39.295 F1500
G00 Z1.000 F500
G00 X29.018 Y39.295 F1500
G00 Z0.000 F500
G01 X29.018 Y39.295 F1500
G01 X29.018 Y40.385 F1500
G01 X27.878 Y40.385 F1500
G01 X27.878 Y39.295 F1500
G01 X29.018 Y39.295 F1500
G00 Z1.000 F500

G00 X30.034 Y35.307 F1500
G00 Z0.000 F500
G01 X30.034 Y35.307 F1500
G01 X30.034 Y36.397 F1500
G01 X28.894 Y36.397 F1500
G01 X28.894 Y35.307 F1500
G01 X30.034 Y35.307 F1500
G00 Z1.000 F500
G00 X30.034 Y35.307 F1500
G00 Z0.000 F500
G01 X30.034 Y35.307 F1500
G01 X30.034 Y36.397 F1500
G01 X28.894 Y36.397 F1500
G01 X28.894 Y35.307 F1500
G01 X30.034 Y35.307 F1500
G00 Z1.000 F500

G00 X30.034 Y33.707 F1500
G00 Z0.000 F500
G01 X30.034 Y33.707 F1500
G01 X30.034 Y34.797 F1500
G01 X28.894 Y34.797 F1500
G01 X28.894 Y33.707 F1500
G01 X30.034 Y33.707 F1500
G00 Z1.000 F500
G00 X30.034 Y33.707 F1500
G00 Z0.000 F500
G01 X30.034 Y33.707 F1500
G01 X30.034 Y34.797 F1500
G01 X28.894 Y34.797 F1500
G01 X28.894 Y33.707 F1500
G01 X30.034 Y33.707 F1500
G00 Z1.000 F500

G00 X17.334 Y42.927 F1500
G00 Z0.000 F500
G01 X17.334 Y42.927 F1500
G01 X17.334 Y44.017 F1500
G01 X16.194 Y44.017 F1500
G01 X16.194 Y42.927 F1500
G01 X17.334 Y42.927 F1500
G00 Z1.000 F500
G00 X17.334 Y42.927 F1500
G00 Z0.000 F500
G01 X17.334 Y42.927 F1500
G01 X17.334 Y44.017 F1500
G01 X16.194 Y44.017 F1500
G01 X16.194 Y42.927 F1500
G01 X17.334 Y42.927 F1500
G00 Z1.000 F500

G00 X17.334 Y41.327 F1500
G00 Z0.000 F500
G01 X17.334 Y41.327 F1500
G01 X17.334 Y42.417 F1500
G01 X16.194 Y42.417 F1500
G01 X16.194 Y41.327 F1500
G01 X17.334 Y41.327 F1500
G00 Z1.000 F500
G00 X17.334 Y41.327 F1500
G00 Z0.000 F500
G01 X17.334 Y41.327 F1500
G01 X17.334 Y42.417 F1500
G01 X16.194 Y42.417 F1500
G01 X16.194 Y41.327 F1500
G01 X17.334 Y41.327 F1500
G00 Z1.000 F500

G00 X6.986 Y48.833 F1500
G00 Z0.000 F500
G01 X6.986 Y48.833 F1500
G01 X8.076 Y48.833 F1500
G01 X8.076 Y49.973 F1500
G01 X6.986 Y49.973 F1500
G01 X6.986 Y48.833 F1500
G00 Z1.000 F500
G00 X6.986 Y48.833 F1500
G00 Z0.000 F500
G01 X6.986 Y48.833 F1500
G01 X8.076 Y48.833 F1500
G01 X8.076 Y49.973 F1500
G01 X6.986 Y49.973 F1500
G01 X6.986 Y48.833 F1500
G00 Z1.000 F500

G00 X5.386 Y48.833 F1500
G00 Z0.000 F500
G01 X5.386 Y48.833 F1500
G01 X6.476 Y48.833 F1500
G01 X6.476 Y49.973 F1500
G01 X5.386 Y49.973 F1500
G01 X5.386 Y48.833 F1500
G00 Z1.000 F500
G00 X5.386 Y48.833 F1500
G00 Z0.000 F500
G01 X5.386 Y48.833 F1500
G01 X6.476 Y48.833 F1500
G01 X6.476 Y49.973 F1500
G01 X5.386 Y49.973 F1500
G01 X5.386 Y48.833 F1500
G00 Z1.000 F500

G00 X19.242 Y56.387 F1500
G00 Z0.000 F500
G01 X19.242 Y56.387 F1500
G01 X19.242 Y55.297 F1500
G01 X20.382 Y55.297 F1500
G01 X20.382 Y56.387 F1500
G01 X19.242 Y56.387 F1500
G00 Z1.000 F500
G00 X19.242 Y56.387 F1500
G00 Z0.000 F500
G01 X19.242 Y56.387 F1500
G01 X19.242 Y55.297 F1500
G01 X20.382 Y55.297 F1500
G01 X20.382 Y56.387 F1500
G01 X19.242 Y56.387 F1500
G00 Z1.000 F500

G00 X19.242 Y57.987 F1500
G00 Z0.000 F500
G01 X19.242 Y57.987 F1500
G01 X19.242 Y56.897 F1500
G01 X20.382 Y56.897 F1500
G01 X20.382 Y57.987 F1500
G01 X19.242 Y57.987 F1500
G00 Z1.000 F500
G00 X19.242 Y57.987 F1500
G00 Z0.000 F500
G01 X19.242 Y57.987 F1500
G01 X19.242 Y56.897 F1500
G01 X20.382 Y56.897 F1500
G01 X20.382 Y57.987 F1500
G01 X19.242 Y57.987 F1500
G00 Z1.000 F500

G00 X6.134 Y46.762 F1500
G00 Z0.000 F500
G01 X6.134 Y46.762 F1500
G01 X7.074 Y46.762 F1500
G01 X7.074 Y47.702 F1500
G01 X6.134 Y47.702 F1500
G01 X6.134 Y46.762 F1500
G00 Z1.000 F500
G00 X6.134 Y46.762 F1500
G00 Z0.000 F500
G01 X6.134 Y46.762 F1500
G01 X7.074 Y46.762 F1500
G01 X7.074 Y47.702 F1500
G01 X6.134 Y47.702 F1500
G01 X6.134 Y46.762 F1500
G00 Z1.000 F500

G00 X6.134 Y45.262 F1500
G00 Z0.000 F500
G01 X6.134 Y45.262 F1500
G01 X7.074 Y45.262 F1500
G01 X7.074 Y46.202 F1500
G01 X6.134 Y46.202 F1500
G01 X6.134 Y45.262 F1500
G00 Z1.000 F500
G00 X6.134 Y45.262 F1500
G00 Z0.000 F500
G01 X6.134 Y45.262 F1500
G01 X7.074 Y45.262 F1500
G01 X7.074 Y46.202 F1500
G01 X6.134 Y46.202 F1500
G01 X6.134 Y45.262 F1500
G00 Z1.000 F500

G00 X28.984 Y43.970 F1500
G00 Z0.000 F500
G01 X28.984 Y43.970 F1500
G01 X28.044 Y43.970 F1500
G01 X28.044 Y42.930 F1500
G01 X28.984 Y42.930 F1500
G01 X28.984 Y43.970 F1500
G00 Z1.000 F500
G00 X28.984 Y43.970 F1500
G00 Z0.000 F500
G01 X28.984 Y43.970 F1500
G01 X28.044 Y43.970 F1500
G01 X28.044 Y42.930 F1500
G01 X28.984 Y42.930 F1500
G01 X28.984 Y43.970 F1500
G00 Z1.000 F500

G00 X30.884 Y43.970 F1500
G00 Z0.000 F500
G01 X30.884 Y43.970 F1500
G01 X29.944 Y43.970 F1500
G01 X29.944 Y42.930 F1500
G01 X30.884 Y42.930 F1500
G01 X30.884 Y43.970 F1500
G00 Z1.000 F500
G00 X30.884 Y43.970 F1500
G00 Z0.000 F500
G01 X30.884 Y43.970 F1500
G01 X29.944 Y43.970 F1500
G01 X29.944 Y42.930 F1500
G01 X30.884 Y42.930 F1500
G01 X30.884 Y43.970 F1500
G00 Z1.000 F500

G00 X29.934 Y46.070 F1500
G00 Z0.000 F500
G01 X29.934 Y46.070 F1500
G01 X28.994 Y46.070 F1500
G01 X28.994 Y45.030 F1500
G01 X29.934 Y45.030 F1500
G01 X29.934 Y46.070 F1500
G00 Z1.000 F500
G00 X29.934 Y46.070 F1500
G00 Z0.000 F500
G01 X29.934 Y46.070 F1500
G01 X28.994 Y46.070 F1500
G01 X28.994 Y45.030 F1500
G01 X29.934 Y45.030 F1500
G01 X29.934 Y46.070 F1500
G00 Z1.000 F500

G00 X22.605 Y43.496 F1500
G00 Z0.000 F500
G01 X22.605 Y43.496 F1500
G01 X21.515 Y43.496 F1500
G01 X21.515 Y42.356 F1500
G01 X22.605 Y42.356 F1500
G01 X22.605 Y43.496 F1500
G00 Z1.000 F500
G00 X22.605 Y43.496 F1500
G00 Z0.000 F500
G01 X22.605 Y43.496 F1500
G01 X21.515 Y43.496 F1500
G01 X21.515 Y42.356 F1500
G01 X22.605 Y42.356 F1500
G01 X22.605 Y43.496 F1500
G00 Z1.000 F500

G00 X24.205 Y43.496 F1500
G00 Z0.000 F500
G01 X24.205 Y43.496 F1500
G01 X23.115 Y43.496 F1500
G01 X23.115 Y42.356 F1500
G01 X24.205 Y42.356 F1500
G01 X24.205 Y43.496 F1500
G00 Z1.000 F500
G00 X24.205 Y43.496 F1500
G00 Z0.000 F500
G01 X24.205 Y43.496 F1500
G01 X23.115 Y43.496 F1500
G01 X23.115 Y42.356 F1500
G01 X24.205 Y42.356 F1500
G01 X24.205 Y43.496 F1500
G00 Z1.000 F500

G00 X23.623 Y44.134 F1500
G00 Z0.000 F500
G01 X23.623 Y44.134 F1500
G01 X24.713 Y44.134 F1500
G01 X24.713 Y45.274 F1500
G01 X23.623 Y45.274 F1500
G01 X23.623 Y44.134 F1500
G00 Z1.000 F500
G00 X23.623 Y44.134 F1500
G00 Z0.000 F500
G01 X23.623 Y44.134 F1500
G01 X24.713 Y44.134 F1500
G01 X24.713 Y45.274 F1500
G01 X23.623 Y45.274 F1500
G01 X23.623 Y44.134 F1500
G00 Z1.000 F500

G00 X22.023 Y44.134 F1500
G00 Z0.000 F500
G01 X22.023 Y44.134 F1500
G01 X23.113 Y44.134 F1500
G01 X23.113 Y45.274 F1500
G01 X22.023 Y45.274 F1500
G01 X22.023 Y44.134 F1500
G00 Z1.000 F500
G00 X22.023 Y44.134 F1500
G00 Z0.000 F500
G01 X22.023 Y44.134 F1500
G01 X23.113 Y44.134 F1500
G01 X23.113 Y45.274 F1500
G01 X22.023 Y45.274 F1500
G01 X22.023 Y44.134 F1500
G00 Z1.000 F500

G00 X29.910 Y40.385 F1500
G00 Z0.000 F500
G01 X29.910 Y40.385 F1500
G01 X29.910 Y39.295 F1500
G01 X31.050 Y39.295 F1500
G01 X31.050 Y40.385 F1500
G01 X29.910 Y40.385 F1500
G00 Z1.000 F500
G00 X29.910 Y40.385 F1500
G00 Z0.000 F500
G01 X29.910 Y40.385 F1500
G01 X29.910 Y39.295 F1500
G01 X31.050 Y39.295 F1500
G01 X31.050 Y40.385 F1500
G01 X29.910 Y40.385 F1500
G00 Z1.000 F500

G00 X29.910 Y41.985 F1500
G00 Z0.000 F500
G01 X29.910 Y41.985 F1500
G01 X29.910 Y40.895 F1500
G01 X31.050 Y40.895 F1500
G01 X31.050 Y41.985 F1500
G01 X29.910 Y41.985 F1500
G00 Z1.000 F500
G00 X29.910 Y41.985 F1500
G00 Z0.000 F500
G01 X29.910 Y41.985 F1500
G01 X29.910 Y40.895 F1500
G01 X31.050 Y40.895 F1500
G01 X31.050 Y41.985 F1500
G01 X29.910 Y41.985 F1500
G00 Z1.000 F500

G00 X28.510 Y48.388 F1500
G00 Z0.000 F500
G01 X28.510 Y48.388 F1500
G01 X28.510 Y49.478 F1500
G01 X27.370 Y49.478 F1500
G01 X27.370 Y48.388 F1500
G01 X28.510 Y48.388 F1500
G00 Z1.000 F500
G00 X28.510 Y48.388 F1500
G00 Z0.000 F500
G01 X28.510 Y48.388 F1500
G01 X28.510 Y49.478 F1500
G01 X27.370 Y49.478 F1500
G01 X27.370 Y48.388 F1500
G01 X28.510 Y48.388 F1500
G00 Z1.000 F500

G00 X28.510 Y46.788 F1500
G00 Z0.000 F500
G01 X28.510 Y46.788 F1500
G01 X28.510 Y47.878 F1500
G01 X27.370 Y47.878 F1500
G01 X27.370 Y46.788 F1500
G01 X28.510 Y46.788 F1500
G00 Z1.000 F500
G00 X28.510 Y46.788 F1500
G00 Z0.000 F500
G01 X28.510 Y46.788 F1500
G01 X28.510 Y47.878 F1500
G01 X27.370 Y47.878 F1500
G01 X27.370 Y46.788 F1500
G01 X28.510 Y46.788 F1500
G00 Z1.000 F500

G00 X16.194 Y45.973 F1500
G00 Z0.000 F500
G01 X16.194 Y45.973 F1500
G01 X16.194 Y44.883 F1500
G01 X17.334 Y44.883 F1500
G01 X17.334 Y45.973 F1500
G01 X16.194 Y45.973 F1500
G00 Z1.000 F500
G00 X16.194 Y45.973 F1500
G00 Z0.000 F500
G01 X16.194 Y45.973 F1500
G01 X16.194 Y44.883 F1500
G01 X17.334 Y44.883 F1500
G01 X17.334 Y45.973 F1500
G01 X16.194 Y45.973 F1500
G00 Z1.000 F500

G00 X16.194 Y47.573 F1500
G00 Z0.000 F500
G01 X16.194 Y47.573 F1500
G01 X16.194 Y46.483 F1500
G01 X17.334 Y46.483 F1500
G01 X17.334 Y47.573 F1500
G01 X16.194 Y47.573 F1500
G00 Z1.000 F500
G00 X16.194 Y47.573 F1500
G00 Z0.000 F500
G01 X16.194 Y47.573 F1500
G01 X16.194 Y46.483 F1500
G01 X17.334 Y46.483 F1500
G01 X17.334 Y47.573 F1500
G01 X16.194 Y47.573 F1500
G00 Z1.000 F500

G00 X12.574 Y47.309 F1500
G00 Z0.000 F500
G01 X12.574 Y47.309 F1500
G01 X13.664 Y47.309 F1500
G01 X13.664 Y48.449 F1500
G01 X12.574 Y48.449 F1500
G01 X12.574 Y47.309 F1500
G00 Z1.000 F500
G00 X12.574 Y47.309 F1500
G00 Z0.000 F500
G01 X12.574 Y47.309 F1500
G01 X13.664 Y47.309 F1500
G01 X13.664 Y48.449 F1500
G01 X12.574 Y48.449 F1500
G01 X12.574 Y47.309 F1500
G00 Z1.000 F500

G00 X10.974 Y47.309 F1500
G00 Z0.000 F500
G01 X10.974 Y47.309 F1500
G01 X12.064 Y47.309 F1500
G01 X12.064 Y48.449 F1500
G01 X10.974 Y48.449 F1500
G01 X10.974 Y47.309 F1500
G00 Z1.000 F500
G00 X10.974 Y47.309 F1500
G00 Z0.000 F500
G01 X10.974 Y47.309 F1500
G01 X12.064 Y47.309 F1500
G01 X12.064 Y48.449 F1500
G01 X10.974 Y48.449 F1500
G01 X10.974 Y47.309 F1500
G00 Z1.000 F500

G00 X12.396 Y52.252 F1500
G00 Z0.000 F500
G01 X12.396 Y52.252 F1500
G01 X12.396 Y51.012 F1500
G01 X13.136 Y51.012 F1500
G01 X13.136 Y52.252 F1500
G01 X12.396 Y52.252 F1500
G00 Z1.000 F500
G00 X12.396 Y52.252 F1500
G00 Z0.000 F500
G01 X12.396 Y52.252 F1500
G01 X12.396 Y51.012 F1500
G01 X13.136 Y51.012 F1500
G01 X13.136 Y52.252 F1500
G01 X12.396 Y52.252 F1500
G00 Z1.000 F500

G00 X13.346 Y52.252 F1500
G00 Z0.000 F500
G01 X13.346 Y52.252 F1500
G01 X13.346 Y51.012 F1500
G01 X14.086 Y51.012 F1500
G01 X14.086 Y52.252 F1500
G01 X13.346 Y52.252 F1500
G00 Z1.000 F500
G00 X13.346 Y52.252 F1500
G00 Z0.000 F500
G01 X13.346 Y52.252 F1500
G01 X13.346 Y51.012 F1500
G01 X14.086 Y51.012 F1500
G01 X14.086 Y52.252 F1500
G01 X13.346 Y52.252 F1500
G00 Z1.000 F500

G00 X14.296 Y52.252 F1500
G00 Z0.000 F500
G01 X14.296 Y52.252 F1500
G01 X14.296 Y51.012 F1500
G01 X15.036 Y51.012 F1500
G01 X15.036 Y52.252 F1500
G01 X14.296 Y52.252 F1500
G00 Z1.000 F500
G00 X14.296 Y52.252 F1500
G00 Z0.000 F500
G01 X14.296 Y52.252 F1500
G01 X14.296 Y51.012 F1500
G01 X15.036 Y51.012 F1500
G01 X15.036 Y52.252 F1500
G01 X14.296 Y52.252 F1500
G00 Z1.000 F500

G00 X14.296 Y54.652 F1500
G00 Z0.000 F500
G01 X14.296 Y54.652 F1500
G01 X14.296 Y53.412 F1500
G01 X15.036 Y53.412 F1500
G01 X15.036 Y54.652 F1500
G01 X14.296 Y54.652 F1500
G00 Z1.000 F500
G00 X14.296 Y54.652 F1500
G00 Z0.000 F500
G01 X14.296 Y54.652 F1500
G01 X14.296 Y53.412 F1500
G01 X15.036 Y53.412 F1500
G01 X15.036 Y54.652 F1500
G01 X14.296 Y54.652 F1500
G00 Z1.000 F500

G00 X12.396 Y54.652 F1500
G00 Z0.000 F500
G01 X12.396 Y54.652 F1500
G01 X12.396 Y53.412 F1500
G01 X13.136 Y53.412 F1500
G01 X13.136 Y54.652 F1500
G01 X12.396 Y54.652 F1500
G00 Z1.000 F500
G00 X12.396 Y54.652 F1500
G00 Z0.000 F500
G01 X12.396 Y54.652 F1500
G01 X12.396 Y53.412 F1500
G01 X13.136 Y53.412 F1500
G01 X13.136 Y54.652 F1500
G01 X12.396 Y54.652 F1500
G00 Z1.000 F500

G00 X22.295 Y49.041 F1500
G00 Z0.000 F500
G01 X22.295 Y49.041 F1500
G01 X20.834 Y49.041 F1500
G01 X20.834 Y48.342 F1500
G01 X22.295 Y48.342 F1500
G01 X22.295 Y49.041 F1500
G00 Z1.000 F500
G00 X22.295 Y49.041 F1500
G00 Z0.000 F500
G01 X22.295 Y49.041 F1500
G01 X20.834 Y49.041 F1500
G01 X20.834 Y48.342 F1500
G01 X22.295 Y48.342 F1500
G01 X22.295 Y49.041 F1500
G00 Z1.000 F500

G00 X22.295 Y48.101 F1500
G00 Z0.000 F500
G01 X22.295 Y48.101 F1500
G01 X20.834 Y48.101 F1500
G01 X20.834 Y47.403 F1500
G01 X22.295 Y47.403 F1500
G01 X22.295 Y48.101 F1500
G00 Z1.000 F500
G00 X22.295 Y48.101 F1500
G00 Z0.000 F500
G01 X22.295 Y48.101 F1500
G01 X20.834 Y48.101 F1500
G01 X20.834 Y47.403 F1500
G01 X22.295 Y47.403 F1500
G01 X22.295 Y48.101 F1500
G00 Z1.000 F500

G00 X22.295 Y47.162 F1500
G00 Z0.000 F500
G01 X22.295 Y47.162 F1500
G01 X20.834 Y47.162 F1500
G01 X20.834 Y46.463 F1500
G01 X22.295 Y46.463 F1500
G01 X22.295 Y47.162 F1500
G00 Z1.000 F500
G00 X22.295 Y47.162 F1500
G00 Z0.000 F500
G01 X22.295 Y47.162 F1500
G01 X20.834 Y47.162 F1500
G01 X20.834 Y46.463 F1500
G01 X22.295 Y46.463 F1500
G01 X22.295 Y47.162 F1500
G00 Z1.000 F500

G00 X24.886 Y47.162 F1500
G00 Z0.000 F500
G01 X24.886 Y47.162 F1500
G01 X23.425 Y47.162 F1500
G01 X23.425 Y46.463 F1500
G01 X24.886 Y46.463 F1500
G01 X24.886 Y47.162 F1500
G00 Z1.000 F500
G00 X24.886 Y47.162 F1500
G00 Z0.000 F500
G01 X24.886 Y47.162 F1500
G01 X23.425 Y47.162 F1500
G01 X23.425 Y46.463 F1500
G01 X24.886 Y46.463 F1500
G01 X24.886 Y47.162 F1500
G00 Z1.000 F500

G00 X24.886 Y48.101 F1500
G00 Z0.000 F500
G01 X24.886 Y48.101 F1500
G01 X23.425 Y48.101 F1500
G01 X23.425 Y47.403 F1500
G01 X24.886 Y47.403 F1500
G01 X24.886 Y48.101 F1500
G00 Z1.000 F500
G00 X24.886 Y48.101 F1500
G00 Z0.000 F500
G01 X24.886 Y48.101 F1500
G01 X23.425 Y48.101 F1500
G01 X23.425 Y47.403 F1500
G01 X24.886 Y47.403 F1500
G01 X24.886 Y48.101 F1500
G00 Z1.000 F500

G00 X24.886 Y49.041 F1500
G00 Z0.000 F500
G01 X24.886 Y49.041 F1500
G01 X23.425 Y49.041 F1500
G01 X23.425 Y48.342 F1500
G01 X24.886 Y48.342 F1500
G01 X24.886 Y49.041 F1500
G00 Z1.000 F500
G00 X24.886 Y49.041 F1500
G00 Z0.000 F500
G01 X24.886 Y49.041 F1500
G01 X23.425 Y49.041 F1500
G01 X23.425 Y48.342 F1500
G01 X24.886 Y48.342 F1500
G01 X24.886 Y49.041 F1500
G00 Z1.000 F500

G00 X9.420 Y54.121 F1500
G00 Z0.000 F500
G01 X9.420 Y54.121 F1500
G01 X9.420 Y50.781 F1500
G01 X10.560 Y50.781 F1500
G01 X10.560 Y54.121 F1500
G01 X9.420 Y54.121 F1500
G00 Z1.000 F500
G00 X9.420 Y54.121 F1500
G00 Z0.000 F500
G01 X9.420 Y54.121 F1500
G01 X9.420 Y50.781 F1500
G01 X10.560 Y50.781 F1500
G01 X10.560 Y54.121 F1500
G01 X9.420 Y54.121 F1500
G00 Z1.000 F500

G00 X7.220 Y54.121 F1500
G00 Z0.000 F500
G01 X7.220 Y54.121 F1500
G01 X7.220 Y50.781 F1500
G01 X8.360 Y50.781 F1500
G01 X8.360 Y54.121 F1500
G01 X7.220 Y54.121 F1500
G00 Z1.000 F500
G00 X7.220 Y54.121 F1500
G00 Z0.000 F500
G01 X7.220 Y54.121 F1500
G01 X7.220 Y50.781 F1500
G01 X8.360 Y50.781 F1500
G01 X8.360 Y54.121 F1500
G01 X7.220 Y54.121 F1500
G00 Z1.000 F500

G00 X26.647 Y24.310 F1500
G00 Z0.000 F500
G01 X26.647 Y24.310 F1500
G01 X26.647 Y22.170 F1500
G01 X28.057 Y22.170 F1500
G01 X28.057 Y24.310 F1500
G01 X26.647 Y24.310 F1500
G00 Z1.000 F500
G00 X26.647 Y24.310 F1500
G00 Z0.000 F500
G01 X26.647 Y24.310 F1500
G01 X26.647 Y22.170 F1500
G01 X28.057 Y22.170 F1500
G01 X28.057 Y24.310 F1500
G01 X26.647 Y24.310 F1500
G00 Z1.000 F500

G00 X16.647 Y4.810 F1500
G00 Z0.000 F500
G01 X16.647 Y4.810 F1500
G01 X16.647 Y2.670 F1500
G01 X18.057 Y2.670 F1500
G01 X18.057 Y4.810 F1500
G01 X16.647 Y4.810 F1500
G00 Z1.000 F500
G00 X16.647 Y4.810 F1500
G00 Z0.000 F500
G01 X16.647 Y4.810 F1500
G01 X16.647 Y2.670 F1500
G01 X18.057 Y2.670 F1500
G01 X18.057 Y4.810 F1500
G01 X16.647 Y4.810 F1500
G00 Z1.000 F500

G00 X28.647 Y24.310 F1500
G00 Z0.000 F500
G01 X28.647 Y24.310 F1500
G01 X28.647 Y22.170 F1500
G01 X30.057 Y22.170 F1500
G01 X30.057 Y24.310 F1500
G01 X28.647 Y24.310 F1500
G00 Z1.000 F500
G00 X28.647 Y24.310 F1500
G00 Z0.000 F500
G01 X28.647 Y24.310 F1500
G01 X28.647 Y22.170 F1500
G01 X30.057 Y22.170 F1500
G01 X30.057 Y24.310 F1500
G01 X28.647 Y24.310 F1500
G00 Z1.000 F500

G00 X20.647 Y24.310 F1500
G00 Z0.000 F500
G01 X20.647 Y24.310 F1500
G01 X20.647 Y22.170 F1500
G01 X22.057 Y22.170 F1500
G01 X22.057 Y24.310 F1500
G01 X20.647 Y24.310 F1500
G00 Z1.000 F500
G00 X20.647 Y24.310 F1500
G00 Z0.000 F500
G01 X20.647 Y24.310 F1500
G01 X20.647 Y22.170 F1500
G01 X22.057 Y22.170 F1500
G01 X22.057 Y24.310 F1500
G01 X20.647 Y24.310 F1500
G00 Z1.000 F500

G00 X18.647 Y24.310 F1500
G00 Z0.000 F500
G01 X18.647 Y24.310 F1500
G01 X18.647 Y22.170 F1500
G01 X20.057 Y22.170 F1500
G01 X20.057 Y24.310 F1500
G01 X18.647 Y24.310 F1500
G00 Z1.000 F500
G00 X18.647 Y24.310 F1500
G00 Z0.000 F500
G01 X18.647 Y24.310 F1500
G01 X18.647 Y22.170 F1500
G01 X20.057 Y22.170 F1500
G01 X20.057 Y24.310 F1500
G01 X18.647 Y24.310 F1500
G00 Z1.000 F500

G00 X16.647 Y24.310 F1500
G00 Z0.000 F500
G01 X16.647 Y24.310 F1500
G01 X16.647 Y22.170 F1500
G01 X18.057 Y22.170 F1500
G01 X18.057 Y24.310 F1500
G01 X16.647 Y24.310 F1500
G00 Z1.000 F500
G00 X16.647 Y24.310 F1500
G00 Z0.000 F500
G01 X16.647 Y24.310 F1500
G01 X16.647 Y22.170 F1500
G01 X18.057 Y22.170 F1500
G01 X18.057 Y24.310 F1500
G01 X16.647 Y24.310 F1500
G00 Z1.000 F500

G00 X22.647 Y24.310 F1500
G00 Z0.000 F500
G01 X22.647 Y24.310 F1500
G01 X22.647 Y22.170 F1500
G01 X24.057 Y22.170 F1500
G01 X24.057 Y24.310 F1500
G01 X22.647 Y24.310 F1500
G00 Z1.000 F500
G00 X22.647 Y24.310 F1500
G00 Z0.000 F500
G01 X22.647 Y24.310 F1500
G01 X22.647 Y22.170 F1500
G01 X24.057 Y22.170 F1500
G01 X24.057 Y24.310 F1500
G01 X22.647 Y24.310 F1500
G00 Z1.000 F500

G00 X28.647 Y4.810 F1500
G00 Z0.000 F500
G01 X28.647 Y4.810 F1500
G01 X28.647 Y2.670 F1500
G01 X30.057 Y2.670 F1500
G01 X30.057 Y4.810 F1500
G01 X28.647 Y4.810 F1500
G00 Z1.000 F500
G00 X28.647 Y4.810 F1500
G00 Z0.000 F500
G01 X28.647 Y4.810 F1500
G01 X28.647 Y2.670 F1500
G01 X30.057 Y2.670 F1500
G01 X30.057 Y4.810 F1500
G01 X28.647 Y4.810 F1500
G00 Z1.000 F500

G00 X19.272 Y37.693 F1500
G00 Z0.000 F500
G01 X19.272 Y37.693 F1500
G01 X17.862 Y37.693 F1500
G01 X17.862 Y36.995 F1500
G01 X19.272 Y36.995 F1500
G01 X19.272 Y37.693 F1500
G00 Z1.000 F500
G00 X19.272 Y37.693 F1500
G00 Z0.000 F500
G01 X19.272 Y37.693 F1500
G01 X17.862 Y37.693 F1500
G01 X17.862 Y36.995 F1500
G01 X19.272 Y36.995 F1500
G01 X19.272 Y37.693 F1500
G00 Z1.000 F500

G00 X19.272 Y36.893 F1500
G00 Z0.000 F500
G01 X19.272 Y36.893 F1500
G01 X17.862 Y36.893 F1500
G01 X17.862 Y36.195 F1500
G01 X19.272 Y36.195 F1500
G01 X19.272 Y36.893 F1500
G00 Z1.000 F500
G00 X19.272 Y36.893 F1500
G00 Z0.000 F500
G01 X19.272 Y36.893 F1500
G01 X17.862 Y36.893 F1500
G01 X17.862 Y36.195 F1500
G01 X19.272 Y36.195 F1500
G01 X19.272 Y36.893 F1500
G00 Z1.000 F500

G00 X19.272 Y36.093 F1500
G00 Z0.000 F500
G01 X19.272 Y36.093 F1500
G01 X17.862 Y36.093 F1500
G01 X17.862 Y35.395 F1500
G01 X19.272 Y35.395 F1500
G01 X19.272 Y36.093 F1500
G00 Z1.000 F500
G00 X19.272 Y36.093 F1500
G00 Z0.000 F500
G01 X19.272 Y36.093 F1500
G01 X17.862 Y36.093 F1500
G01 X17.862 Y35.395 F1500
G01 X19.272 Y35.395 F1500
G01 X19.272 Y36.093 F1500
G00 Z1.000 F500

G00 X19.272 Y35.293 F1500
G00 Z0.000 F500
G01 X19.272 Y35.293 F1500
G01 X17.862 Y35.293 F1500
G01 X17.862 Y34.595 F1500
G01 X19.272 Y34.595 F1500
G01 X19.272 Y35.293 F1500
G00 Z1.000 F500
G00 X19.272 Y35.293 F1500
G00 Z0.000 F500
G01 X19.272 Y35.293 F1500
G01 X17.862 Y35.293 F1500
G01 X17.862 Y34.595 F1500
G01 X19.272 Y34.595 F1500
G01 X19.272 Y35.293 F1500
G00 Z1.000 F500

G00 X19.272 Y34.493 F1500
G00 Z0.000 F500
G01 X19.272 Y34.493 F1500
G01 X17.862 Y34.493 F1500
G01 X17.862 Y33.795 F1500
G01 X19.272 Y33.795 F1500
G01 X19.272 Y34.493 F1500
G00 Z1.000 F500
G00 X19.272 Y34.493 F1500
G00 Z0.000 F500
G01 X19.272 Y34.493 F1500
G01 X17.862 Y34.493 F1500
G01 X17.862 Y33.795 F1500
G01 X19.272 Y33.795 F1500
G01 X19.272 Y34.493 F1500
G00 Z1.000 F500

G00 X19.272 Y33.693 F1500
G00 Z0.000 F500
G01 X19.272 Y33.693 F1500
G01 X17.862 Y33.693 F1500
G01 X17.862 Y32.995 F1500
G01 X19.272 Y32.995 F1500
G01 X19.272 Y33.693 F1500
G00 Z1.000 F500
G00 X19.272 Y33.693 F1500
G00 Z0.000 F500
G01 X19.272 Y33.693 F1500
G01 X17.862 Y33.693 F1500
G01 X17.862 Y32.995 F1500
G01 X19.272 Y32.995 F1500
G01 X19.272 Y33.693 F1500
G00 Z1.000 F500

G00 X19.272 Y32.893 F1500
G00 Z0.000 F500
G01 X19.272 Y32.893 F1500
G01 X17.862 Y32.893 F1500
G01 X17.862 Y32.195 F1500
G01 X19.272 Y32.195 F1500
G01 X19.272 Y32.893 F1500
G00 Z1.000 F500
G00 X19.272 Y32.893 F1500
G00 Z0.000 F500
G01 X19.272 Y32.893 F1500
G01 X17.862 Y32.893 F1500
G01 X17.862 Y32.195 F1500
G01 X19.272 Y32.195 F1500
G01 X19.272 Y32.893 F1500
G00 Z1.000 F500

G00 X19.272 Y32.093 F1500
G00 Z0.000 F500
G01 X19.272 Y32.093 F1500
G01 X17.862 Y32.093 F1500
G01 X17.862 Y31.395 F1500
G01 X19.272 Y31.395 F1500
G01 X19.272 Y32.093 F1500
G00 Z1.000 F500
G00 X19.272 Y32.093 F1500
G00 Z0.000 F500
G01 X19.272 Y32.093 F1500
G01 X17.862 Y32.093 F1500
G01 X17.862 Y31.395 F1500
G01 X19.272 Y31.395 F1500
G01 X19.272 Y32.093 F1500
G00 Z1.000 F500

G00 X20.409 Y30.956 F1500
G00 Z0.000 F500
G01 X20.409 Y30.956 F1500
G01 X19.711 Y30.956 F1500
G01 X19.711 Y29.546 F1500
G01 X20.409 Y29.546 F1500
G01 X20.409 Y30.956 F1500
G00 Z1.000 F500
G00 X20.409 Y30.956 F1500
G00 Z0.000 F500
G01 X20.409 Y30.956 F1500
G01 X19.711 Y30.956 F1500
G01 X19.711 Y29.546 F1500
G01 X20.409 Y29.546 F1500
G01 X20.409 Y30.956 F1500
G00 Z1.000 F500

G00 X21.209 Y30.956 F1500
G00 Z0.000 F500
G01 X21.209 Y30.956 F1500
G01 X20.511 Y30.956 F1500
G01 X20.511 Y29.546 F1500
G01 X21.209 Y29.546 F1500
G01 X21.209 Y30.956 F1500
G00 Z1.000 F500
G00 X21.209 Y30.956 F1500
G00 Z0.000 F500
G01 X21.209 Y30.956 F1500
G01 X20.511 Y30.956 F1500
G01 X20.511 Y29.546 F1500
G01 X21.209 Y29.546 F1500
G01 X21.209 Y30.956 F1500
G00 Z1.000 F500

G00 X22.009 Y30.956 F1500
G00 Z0.000 F500
G01 X22.009 Y30.956 F1500
G01 X21.311 Y30.956 F1500
G01 X21.311 Y29.546 F1500
G01 X22.009 Y29.546 F1500
G01 X22.009 Y30.956 F1500
G00 Z1.000 F500
G00 X22.009 Y30.956 F1500
G00 Z0.000 F500
G01 X22.009 Y30.956 F1500
G01 X21.311 Y30.956 F1500
G01 X21.311 Y29.546 F1500
G01 X22.009 Y29.546 F1500
G01 X22.009 Y30.956 F1500
G00 Z1.000 F500

G00 X22.809 Y30.956 F1500
G00 Z0.000 F500
G01 X22.809 Y30.956 F1500
G01 X22.111 Y30.956 F1500
G01 X22.111 Y29.546 F1500
G01 X22.809 Y29.546 F1500
G01 X22.809 Y30.956 F1500
G00 Z1.000 F500
G00 X22.809 Y30.956 F1500
G00 Z0.000 F500
G01 X22.809 Y30.956 F1500
G01 X22.111 Y30.956 F1500
G01 X22.111 Y29.546 F1500
G01 X22.809 Y29.546 F1500
G01 X22.809 Y30.956 F1500
G00 Z1.000 F500

G00 X23.609 Y30.956 F1500
G00 Z0.000 F500
G01 X23.609 Y30.956 F1500
G01 X22.911 Y30.956 F1500
G01 X22.911 Y29.546 F1500
G01 X23.609 Y29.546 F1500
G01 X23.609 Y30.956 F1500
G00 Z1.000 F500
G00 X23.609 Y30.956 F1500
G00 Z0.000 F500
G01 X23.609 Y30.956 F1500
G01 X22.911 Y30.956 F1500
G01 X22.911 Y29.546 F1500
G01 X23.609 Y29.546 F1500
G01 X23.609 Y30.956 F1500
G00 Z1.000 F500

G00 X24.409 Y30.956 F1500
G00 Z0.000 F500
G01 X24.409 Y30.956 F1500
G01 X23.711 Y30.956 F1500
G01 X23.711 Y29.546 F1500
G01 X24.409 Y29.546 F1500
G01 X24.409 Y30.956 F1500
G00 Z1.000 F500
G00 X24.409 Y30.956 F1500
G00 Z0.000 F500
G01 X24.409 Y30.956 F1500
G01 X23.711 Y30.956 F1500
G01 X23.711 Y29.546 F1500
G01 X24.409 Y29.546 F1500
G01 X24.409 Y30.956 F1500
G00 Z1.000 F500

G00 X25.209 Y30.956 F1500
G00 Z0.000 F500
G01 X25.209 Y30.956 F1500
G01 X24.511 Y30.956 F1500
G01 X24.511 Y29.546 F1500
G01 X25.209 Y29.546 F1500
G01 X25.209 Y30.956 F1500
G00 Z1.000 F500
G00 X25.209 Y30.956 F1500
G00 Z0.000 F500
G01 X25.209 Y30.956 F1500
G01 X24.511 Y30.956 F1500
G01 X24.511 Y29.546 F1500
G01 X25.209 Y29.546 F1500
G01 X25.209 Y30.956 F1500
G00 Z1.000 F500

G00 X26.009 Y30.956 F1500
G00 Z0.000 F500
G01 X26.009 Y30.956 F1500
G01 X25.311 Y30.956 F1500
G01 X25.311 Y29.546 F1500
G01 X26.009 Y29.546 F1500
G01 X26.009 Y30.956 F1500
G00 Z1.000 F500
G00 X26.009 Y30.956 F1500
G00 Z0.000 F500
G01 X26.009 Y30.956 F1500
G01 X25.311 Y30.956 F1500
G01 X25.311 Y29.546 F1500
G01 X26.009 Y29.546 F1500
G01 X26.009 Y30.956 F1500
G00 Z1.000 F500

G00 X27.858 Y32.093 F1500
G00 Z0.000 F500
G01 X27.858 Y32.093 F1500
G01 X26.448 Y32.093 F1500
G01 X26.448 Y31.395 F1500
G01 X27.858 Y31.395 F1500
G01 X27.858 Y32.093 F1500
G00 Z1.000 F500
G00 X27.858 Y32.093 F1500
G00 Z0.000 F500
G01 X27.858 Y32.093 F1500
G01 X26.448 Y32.093 F1500
G01 X26.448 Y31.395 F1500
G01 X27.858 Y31.395 F1500
G01 X27.858 Y32.093 F1500
G00 Z1.000 F500

G00 X27.858 Y32.893 F1500
G00 Z0.000 F500
G01 X27.858 Y32.893 F1500
G01 X26.448 Y32.893 F1500
G01 X26.448 Y32.195 F1500
G01 X27.858 Y32.195 F1500
G01 X27.858 Y32.893 F1500
G00 Z1.000 F500
G00 X27.858 Y32.893 F1500
G00 Z0.000 F500
G01 X27.858 Y32.893 F1500
G01 X26.448 Y32.893 F1500
G01 X26.448 Y32.195 F1500
G01 X27.858 Y32.195 F1500
G01 X27.858 Y32.893 F1500
G00 Z1.000 F500

G00 X27.858 Y33.693 F1500
G00 Z0.000 F500
G01 X27.858 Y33.693 F1500
G01 X26.448 Y33.693 F1500
G01 X26.448 Y32.995 F1500
G01 X27.858 Y32.995 F1500
G01 X27.858 Y33.693 F1500
G00 Z1.000 F500
G00 X27.858 Y33.693 F1500
G00 Z0.000 F500
G01 X27.858 Y33.693 F1500
G01 X26.448 Y33.693 F1500
G01 X26.448 Y32.995 F1500
G01 X27.858 Y32.995 F1500
G01 X27.858 Y33.693 F1500
G00 Z1.000 F500

G00 X27.858 Y34.493 F1500
G00 Z0.000 F500
G01 X27.858 Y34.493 F1500
G01 X26.448 Y34.493 F1500
G01 X26.448 Y33.795 F1500
G01 X27.858 Y33.795 F1500
G01 X27.858 Y34.493 F1500
G00 Z1.000 F500
G00 X27.858 Y34.493 F1500
G00 Z0.000 F500
G01 X27.858 Y34.493 F1500
G01 X26.448 Y34.493 F1500
G01 X26.448 Y33.795 F1500
G01 X27.858 Y33.795 F1500
G01 X27.858 Y34.493 F1500
G00 Z1.000 F500

G00 X27.858 Y35.293 F1500
G00 Z0.000 F500
G01 X27.858 Y35.293 F1500
G01 X26.448 Y35.293 F1500
G01 X26.448 Y34.595 F1500
G01 X27.858 Y34.595 F1500
G01 X27.858 Y35.293 F1500
G00 Z1.000 F500
G00 X27.858 Y35.293 F1500
G00 Z0.000 F500
G01 X27.858 Y35.293 F1500
G01 X26.448 Y35.293 F1500
G01 X26.448 Y34.595 F1500
G01 X27.858 Y34.595 F1500
G01 X27.858 Y35.293 F1500
G00 Z1.000 F500

G00 X27.858 Y36.093 F1500
G00 Z0.000 F500
G01 X27.858 Y36.093 F1500
G01 X26.448 Y36.093 F1500
G01 X26.448 Y35.395 F1500
G01 X27.858 Y35.395 F1500
G01 X27.858 Y36.093 F1500
G00 Z1.000 F500
G00 X27.858 Y36.093 F1500
G00 Z0.000 F500
G01 X27.858 Y36.093 F1500
G01 X26.448 Y36.093 F1500
G01 X26.448 Y35.395 F1500
G01 X27.858 Y35.395 F1500
G01 X27.858 Y36.093 F1500
G00 Z1.000 F500

G00 X27.858 Y36.893 F1500
G00 Z0.000 F500
G01 X27.858 Y36.893 F1500
G01 X26.448 Y36.893 F1500
G01 X26.448 Y36.195 F1500
G01 X27.858 Y36.195 F1500
G01 X27.858 Y36.893 F1500
G00 Z1.000 F500
G00 X27.858 Y36.893 F1500
G00 Z0.000 F500
G01 X27.858 Y36.893 F1500
G01 X26.448 Y36.893 F1500
G01 X26.448 Y36.195 F1500
G01 X27.858 Y36.195 F1500
G01 X27.858 Y36.893 F1500
G00 Z1.000 F500

G00 X27.858 Y37.693 F1500
G00 Z0.000 F500
G01 X27.858 Y37.693 F1500
G01 X26.448 Y37.693 F1500
G01 X26.448 Y36.995 F1500
G01 X27.858 Y36.995 F1500
G01 X27.858 Y37.693 F1500
G00 Z1.000 F500
G00 X27.858 Y37.693 F1500
G00 Z0.000 F500
G01 X27.858 Y37.693 F1500
G01 X26.448 Y37.693 F1500
G01 X26.448 Y36.995 F1500
G01 X27.858 Y36.995 F1500
G01 X27.858 Y37.693 F1500
G00 Z1.000 F500

G00 X26.009 Y39.542 F1500
G00 Z0.000 F500
G01 X26.009 Y39.542 F1500
G01 X25.311 Y39.542 F1500
G01 X25.311 Y38.132 F1500
G01 X26.009 Y38.132 F1500
G01 X26.009 Y39.542 F1500
G00 Z1.000 F500
G00 X26.009 Y39.542 F1500
G00 Z0.000 F500
G01 X26.009 Y39.542 F1500
G01 X25.311 Y39.542 F1500
G01 X25.311 Y38.132 F1500
G01 X26.009 Y38.132 F1500
G01 X26.009 Y39.542 F1500
G00 Z1.000 F500

G00 X25.209 Y39.542 F1500
G00 Z0.000 F500
G01 X25.209 Y39.542 F1500
G01 X24.511 Y39.542 F1500
G01 X24.511 Y38.132 F1500
G01 X25.209 Y38.132 F1500
G01 X25.209 Y39.542 F1500
G00 Z1.000 F500
G00 X25.209 Y39.542 F1500
G00 Z0.000 F500
G01 X25.209 Y39.542 F1500
G01 X24.511 Y39.542 F1500
G01 X24.511 Y38.132 F1500
G01 X25.209 Y38.132 F1500
G01 X25.209 Y39.542 F1500
G00 Z1.000 F500

G00 X24.409 Y39.542 F1500
G00 Z0.000 F500
G01 X24.409 Y39.542 F1500
G01 X23.711 Y39.542 F1500
G01 X23.711 Y38.132 F1500
G01 X24.409 Y38.132 F1500
G01 X24.409 Y39.542 F1500
G00 Z1.000 F500
G00 X24.409 Y39.542 F1500
G00 Z0.000 F500
G01 X24.409 Y39.542 F1500
G01 X23.711 Y39.542 F1500
G01 X23.711 Y38.132 F1500
G01 X24.409 Y38.132 F1500
G01 X24.409 Y39.542 F1500
G00 Z1.000 F500

G00 X23.609 Y39.542 F1500
G00 Z0.000 F500
G01 X23.609 Y39.542 F1500
G01 X22.911 Y39.542 F1500
G01 X22.911 Y38.132 F1500
G01 X23.609 Y38.132 F1500
G01 X23.609 Y39.542 F1500
G00 Z1.000 F500
G00 X23.609 Y39.542 F1500
G00 Z0.000 F500
G01 X23.609 Y39.542 F1500
G01 X22.911 Y39.542 F1500
G01 X22.911 Y38.132 F1500
G01 X23.609 Y38.132 F1500
G01 X23.609 Y39.542 F1500
G00 Z1.000 F500

G00 X22.809 Y39.542 F1500
G00 Z0.000 F500
G01 X22.809 Y39.542 F1500
G01 X22.111 Y39.542 F1500
G01 X22.111 Y38.132 F1500
G01 X22.809 Y38.132 F1500
G01 X22.809 Y39.542 F1500
G00 Z1.000 F500
G00 X22.809 Y39.542 F1500
G00 Z0.000 F500
G01 X22.809 Y39.542 F1500
G01 X22.111 Y39.542 F1500
G01 X22.111 Y38.132 F1500
G01 X22.809 Y38.132 F1500
G01 X22.809 Y39.542 F1500
G00 Z1.000 F500

G00 X22.009 Y39.542 F1500
G00 Z0.000 F500
G01 X22.009 Y39.542 F1500
G01 X21.311 Y39.542 F1500
G01 X21.311 Y38.132 F1500
G01 X22.009 Y38.132 F1500
G01 X22.009 Y39.542 F1500
G00 Z1.000 F500
G00 X22.009 Y39.542 F1500
G00 Z0.000 F500
G01 X22.009 Y39.542 F1500
G01 X21.311 Y39.542 F1500
G01 X21.311 Y38.132 F1500
G01 X22.009 Y38.132 F1500
G01 X22.009 Y39.542 F1500
G00 Z1.000 F500

G00 X21.209 Y39.542 F1500
G00 Z0.000 F500
G01 X21.209 Y39.542 F1500
G01 X20.511 Y39.542 F1500
G01 X20.511 Y38.132 F1500
G01 X21.209 Y38.132 F1500
G01 X21.209 Y39.542 F1500
G00 Z1.000 F500
G00 X21.209 Y39.542 F1500
G00 Z0.000 F500
G01 X21.209 Y39.542 F1500
G01 X20.511 Y39.542 F1500
G01 X20.511 Y38.132 F1500
G01 X21.209 Y38.132 F1500
G01 X21.209 Y39.542 F1500
G00 Z1.000 F500

G00 X20.409 Y39.542 F1500
G00 Z0.000 F500
G01 X20.409 Y39.542 F1500
G01 X19.711 Y39.542 F1500
G01 X19.711 Y38.132 F1500
G01 X20.409 Y38.132 F1500
G01 X20.409 Y39.542 F1500
G00 Z1.000 F500
G00 X20.409 Y39.542 F1500
G00 Z0.000 F500
G01 X20.409 Y39.542 F1500
G01 X19.711 Y39.542 F1500
G01 X19.711 Y38.132 F1500
G01 X20.409 Y38.132 F1500
G01 X20.409 Y39.542 F1500
G00 Z1.000 F500