(RS-274 Compatible G-code generated for UCCNC controller and Stepcraft 2 Mill)
(Created by in EagleCAD with the stepcraft.ulp 0.2.)
(File: "AAT1217_BREAKOUT.brd" created on: 8/19/16 3:06 PM)
(Use a 1/32inch Bit)

G90 G94 G49
G21
G00 Z5
G00 X0Y0
S19500 M03
G04 P4000
(-->0.000, 0.000, 1.000  -- z -0.170)
(retract, move to start, plunge, cut)
G00 Z1.000
G00 X2.651Y8.414
G01 Z-0.170 F30
G03 F360
X2.651Y8.414 I-0.111
(plunge, and cut)
G01 Z-0.170 F30
G03 F360
X2.651Y8.414 I-0.111
(-->2.651, 8.414, -0.170  -- z -0.340)
(plunge, and cut)
G01 Z-0.340 F30
G03 F360
X2.651Y8.414 I-0.111
(-->2.651, 8.414, -0.340  -- z -0.510)
(plunge, and cut)
G01 Z-0.510 F30
G03 F360
X2.651Y8.414 I-0.111
(-->2.651, 8.414, -0.510  -- z -0.680)
(plunge, and cut)
G01 Z-0.680 F30
G03 F360
X2.651Y8.414 I-0.111
(-->2.651, 8.414, -0.680  -- z -0.850)
(plunge, and cut)
G01 Z-0.850 F30
G03 F360
X2.651Y8.414 I-0.111
(-->2.651, 8.414, -0.850  -- z -1.020)
(plunge, and cut)
G01 Z-1.020 F30
G03 F360
X2.651Y8.414 I-0.111
(-->2.651, 8.414, -1.020  -- z -1.190)
(plunge, and cut)
G01 Z-1.190 F30
G03 F360
X2.651Y8.414 I-0.111
(-->2.651, 8.414, -1.190  -- z -1.360)
(plunge, and cut)
G01 Z-1.360 F30
G03 F360
X2.651Y8.414 I-0.111
(-->2.651, 8.414, -1.360  -- z -1.530)
(plunge, and cut)
G01 Z-1.530 F30
G03 F360
X2.651Y8.414 I-0.111
(-->2.651, 8.414, -1.530  -- z -1.650)
(plunge, and cut)
G01 Z-1.650 F30
G03 F360
X2.651Y8.414 I-0.111
(-->2.651, 8.414, -1.650  -- z -0.170)
(retract, move to start, plunge, cut)
G00 Z1.000
G00 X2.651Y5.874
G01 Z-0.170 F30
G03 F360
X2.651Y5.874 I-0.111
(plunge, and cut)
G01 Z-0.170 F30
G03 F360
X2.651Y5.874 I-0.111
(-->2.651, 5.874, -0.170  -- z -0.340)
(plunge, and cut)
G01 Z-0.340 F30
G03 F360
X2.651Y5.874 I-0.111
(-->2.651, 5.874, -0.340  -- z -0.510)
(plunge, and cut)
G01 Z-0.510 F30
G03 F360
X2.651Y5.874 I-0.111
(-->2.651, 5.874, -0.510  -- z -0.680)
(plunge, and cut)
G01 Z-0.680 F30
G03 F360
X2.651Y5.874 I-0.111
(-->2.651, 5.874, -0.680  -- z -0.850)
(plunge, and cut)
G01 Z-0.850 F30
G03 F360
X2.651Y5.874 I-0.111
(-->2.651, 5.874, -0.850  -- z -1.020)
(plunge, and cut)
G01 Z-1.020 F30
G03 F360
X2.651Y5.874 I-0.111
(-->2.651, 5.874, -1.020  -- z -1.190)
(plunge, and cut)
G01 Z-1.190 F30
G03 F360
X2.651Y5.874 I-0.111
(-->2.651, 5.874, -1.190  -- z -1.360)
(plunge, and cut)
G01 Z-1.360 F30
G03 F360
X2.651Y5.874 I-0.111
(-->2.651, 5.874, -1.360  -- z -1.530)
(plunge, and cut)
G01 Z-1.530 F30
G03 F360
X2.651Y5.874 I-0.111
(-->2.651, 5.874, -1.530  -- z -1.650)
(plunge, and cut)
G01 Z-1.650 F30
G03 F360
X2.651Y5.874 I-0.111
(-->2.651, 5.874, -1.650  -- z -0.170)
(retract, move to start, plunge, cut)
G00 Z1.000
G00 X2.651Y3.334
G01 Z-0.170 F30
G03 F360
X2.651Y3.334 I-0.111
(plunge, and cut)
G01 Z-0.170 F30
G03 F360
X2.651Y3.334 I-0.111
(-->2.651, 3.334, -0.170  -- z -0.340)
(plunge, and cut)
G01 Z-0.340 F30
G03 F360
X2.651Y3.334 I-0.111
(-->2.651, 3.334, -0.340  -- z -0.510)
(plunge, and cut)
G01 Z-0.510 F30
G03 F360
X2.651Y3.334 I-0.111
(-->2.651, 3.334, -0.510  -- z -0.680)
(plunge, and cut)
G01 Z-0.680 F30
G03 F360
X2.651Y3.334 I-0.111
(-->2.651, 3.334, -0.680  -- z -0.850)
(plunge, and cut)
G01 Z-0.850 F30
G03 F360
X2.651Y3.334 I-0.111
(-->2.651, 3.334, -0.850  -- z -1.020)
(plunge, and cut)
G01 Z-1.020 F30
G03 F360
X2.651Y3.334 I-0.111
(-->2.651, 3.334, -1.020  -- z -1.190)
(plunge, and cut)
G01 Z-1.190 F30
G03 F360
X2.651Y3.334 I-0.111
(-->2.651, 3.334, -1.190  -- z -1.360)
(plunge, and cut)
G01 Z-1.360 F30
G03 F360
X2.651Y3.334 I-0.111
(-->2.651, 3.334, -1.360  -- z -1.530)
(plunge, and cut)
G01 Z-1.530 F30
G03 F360
X2.651Y3.334 I-0.111
(-->2.651, 3.334, -1.530  -- z -1.650)
(plunge, and cut)
G01 Z-1.650 F30
G03 F360
X2.651Y3.334 I-0.111
G00 Z1.000
M05
G04 P4000
G00 X0Y0
