(RS-274 Compatible G-code generated for UCCNC controller and Stepcraft 2 Mill)
(Created by in EagleCAD with the stepcraft.ulp 0.2.)
(File: "sensor_v2.brd" created on: 3/23/16 6:23 PM)
(Use a V Bit)

G90 G94 G49
G21
G00 Z5
G00 X0Y0
S19500 M03
G04 P4000
(-->next line out of position. Retracting, and repositioning)
G00 Z4.000
G00 X12.446Y47.498
(-->Plunging, then Cutting Line)
G01 Z-0.070 F500
G01 X12.446Y46.228 F1500
(-->next line out of position. Retracting, and repositioning)
G00 Z4.000
G00 X13.970Y48.006
(-->Plunging, then Cutting Line)
G01 Z-0.070 F500
G01 X12.446Y48.006 F1500
(-->Cutting Line)
G01 X12.446Y49.022 F1500
(-->next line out of position. Retracting, and repositioning)
G00 Z4.000
G00 X10.668Y50.292
(-->Plunging, then Cutting Line)
G01 Z-0.070 F500
G01 X10.160Y49.784 F1500
(-->Cutting Line)
G01 X10.160Y46.736 F1500
(-->Cutting Line)
G01 X10.160Y45.720 F1500
(-->Cutting Line)
G01 X8.382Y45.720 F1500
(-->next line out of position. Retracting, and repositioning)
G00 Z4.000
G00 X12.446Y47.498
(-->Plunging, then Cutting Line)
G01 Z-0.070 F500
G01 X15.367Y47.498 F1500
(-->Cutting Line)
G01 X16.002Y47.498 F1500
(-->Cutting Line)
G01 X18.923Y50.419 F1500
(-->Cutting Line)
G01 X20.701Y50.419 F1500
(-->Cutting Line)
G01 X21.336Y51.054 F1500
(-->Cutting Line)
G01 X21.336Y53.340 F1500
(-->Cutting Line)
G01 X21.336Y55.118 F1500
(-->next line out of position. Retracting, and repositioning)
G00 Z4.000
G00 X17.526Y46.482
(-->Plunging, then Cutting Line)
G01 Z-0.070 F500
G01 X17.526Y47.752 F1500
(-->Cutting Line)
G01 X19.304Y49.530 F1500
(-->next line out of position. Retracting, and repositioning)
G00 Z4.000
G00 X17.526Y45.974
(-->Plunging, then Cutting Line)
G01 Z-0.070 F500
G01 X16.002Y45.974 F1500
(-->Cutting Line)
G01 X16.002Y45.466 F1500
(-->next line out of position. Retracting, and repositioning)
G00 Z4.000
G00 X17.526Y45.974
(-->Plunging, then Cutting Line)
G01 Z-0.070 F500
G01 X17.526Y44.958 F1500
(-->next line out of position. Retracting, and repositioning)
G00 Z4.000
G00 X17.526Y46.482
(-->Plunging, then Cutting Line)
G01 Z-0.070 F500
G01 X14.224Y46.482 F1500
(-->Cutting Line)
G01 X13.970Y46.228 F1500
(-->Cutting Line)
G01 X12.446Y46.228 F1500
(-->next line out of position. Retracting, and repositioning)
G00 Z4.000
G00 X19.304Y49.530
(-->Plunging, then Cutting Line)
G01 Z-0.070 F500
G01 X20.574Y49.530 F1500
(-->Cutting Line)
G01 X21.336Y49.530 F1500
(-->Cutting Line)
G01 X21.971Y50.165 F1500
(-->Cutting Line)
G01 X22.352Y50.546 F1500
(-->Cutting Line)
G01 X22.352Y54.610 F1500
(-->next line out of position. Retracting, and repositioning)
G00 Z4.000
G00 X22.606Y53.340
(-->Plunging, then Cutting Line)
G01 Z-0.070 F500
G01 X24.384Y53.340 F1500
(-->Cutting Line)
G01 X24.384Y54.864 F1500
(-->next line out of position. Retracting, and repositioning)
G00 Z4.000
G00 X21.336Y53.340
(-->Plunging, then Cutting Line)
G01 Z-0.070 F500
G01 X20.320Y53.340 F1500
(-->Cutting Line)
G01 X20.320Y56.007 F1500
(-->Cutting Line)
G01 X20.574Y56.388 F1500
(-->Cutting Line)
G01 X31.750Y56.388 F1500
(-->Cutting Line)
G01 X34.036Y54.102 F1500
(-->Cutting Line)
G01 X34.036Y42.926 F1500
(-->Cutting Line)
G01 X32.512Y41.402 F1500
(-->Cutting Line)
G01 X32.512Y31.496 F1500
(-->Cutting Line)
G01 X35.052Y28.956 F1500
(-->Cutting Line)
G01 X35.052Y20.574 F1500
(-->Cutting Line)
G01 X29.972Y15.494 F1500
(-->Cutting Line)
G01 X29.972Y5.334 F1500
(-->Cutting Line)
G01 X30.480Y4.826 F1500
(-->Cutting Line)
G01 X30.480Y2.540 F1500
(-->Cutting Line)
G01 X28.448Y2.540 F1500
(-->Cutting Line)
G01 X28.448Y4.826 F1500
(-->Cutting Line)
G01 X28.956Y5.334 F1500
(-->Cutting Line)
G01 X28.956Y16.002 F1500
(-->Cutting Line)
G01 X33.020Y20.066 F1500
(-->Cutting Line)
G01 X34.290Y21.336 F1500
(-->Cutting Line)
G01 X34.290Y24.257 F1500
(-->Cutting Line)
G01 X34.290Y28.194 F1500
(-->Cutting Line)
G01 X30.353Y32.131 F1500
(-->next line out of position. Retracting, and repositioning)
G00 Z4.000
G00 X21.717Y32.131
(-->Plunging, then Cutting Line)
G01 Z-0.070 F500
G01 X20.828Y33.020 F1500
(-->Cutting Line)
G01 X19.431Y33.020 F1500
(-->Cutting Line)
G01 X19.304Y32.893 F1500
(-->next line out of position. Retracting, and repositioning)
G00 Z4.000
G00 X16.256Y33.020
(-->Plunging, then Cutting Line)
G01 Z-0.070 F500
G01 X15.748Y32.512 F1500
(-->Cutting Line)
G01 X15.748Y27.178 F1500
(-->Cutting Line)
G01 X11.938Y23.368 F1500
(-->Cutting Line)
G01 X6.350Y23.368 F1500
(-->Cutting Line)
G01 X4.572Y21.590 F1500
(-->Cutting Line)
G01 X4.572Y11.049 F1500
(-->Cutting Line)
G01 X4.572Y9.144 F1500
(-->Cutting Line)
G01 X5.715Y8.001 F1500
(-->Cutting Line)
G01 X5.715Y5.461 F1500
(-->Cutting Line)
G01 X5.715Y3.175 F1500
(-->Cutting Line)
G01 X5.969Y2.921 F1500
(-->Cutting Line)
G01 X7.493Y2.921 F1500
(-->Cutting Line)
G01 X7.874Y3.302 F1500
(-->Cutting Line)
G01 X7.874Y4.953 F1500
(-->Cutting Line)
G01 X8.128Y5.334 F1500
(-->Cutting Line)
G01 X10.414Y5.334 F1500
(-->Cutting Line)
G01 X10.414Y3.556 F1500
(-->Cutting Line)
G01 X8.890Y2.032 F1500
(-->Cutting Line)
G01 X5.842Y2.032 F1500
(-->Cutting Line)
G01 X4.953Y2.921 F1500
(-->Cutting Line)
G01 X4.953Y7.747 F1500
(-->Cutting Line)
G01 X3.556Y9.144 F1500
(-->Cutting Line)
G01 X3.556Y22.098 F1500
(-->Cutting Line)
G01 X5.842Y24.384 F1500
(-->Cutting Line)
G01 X11.684Y24.384 F1500
(-->Cutting Line)
G01 X14.859Y27.559 F1500
(-->Cutting Line)
G01 X14.859Y30.353 F1500
(-->Cutting Line)
G01 X14.859Y32.639 F1500
(-->Cutting Line)
G01 X17.526Y35.306 F1500
(-->next line out of position. Retracting, and repositioning)
G00 Z4.000
G00 X19.304Y35.306
(-->Plunging, then Cutting Line)
G01 Z-0.070 F500
G01 X19.304Y34.544 F1500
(-->next line out of position. Retracting, and repositioning)
G00 Z4.000
G00 X17.780Y34.544
(-->Plunging, then Cutting Line)
G01 Z-0.070 F500
G01 X17.526Y34.290 F1500
(-->Cutting Line)
G01 X17.526Y34.036 F1500
(-->Cutting Line)
G01 X17.780Y33.782 F1500
(-->next line out of position. Retracting, and repositioning)
G00 Z4.000
G00 X21.209Y33.782
(-->Plunging, then Cutting Line)
G01 Z-0.070 F500
G01 X22.098Y32.893 F1500
(-->next line out of position. Retracting, and repositioning)
G00 Z4.000
G00 X30.353Y32.893
(-->Plunging, then Cutting Line)
G01 Z-0.070 F500
G01 X31.623Y34.163 F1500
(-->Cutting Line)
G01 X31.623Y39.116 F1500
(-->Cutting Line)
G01 X31.623Y40.640 F1500
(-->Cutting Line)
G01 X29.845Y40.640 F1500
(-->next line out of position. Retracting, and repositioning)
G00 Z4.000
G00 X27.559Y43.942
(-->Plunging, then Cutting Line)
G01 Z-0.070 F500
G01 X26.670Y43.942 F1500
(-->Cutting Line)
G01 X25.908Y44.704 F1500
(-->Cutting Line)
G01 X25.908Y46.990 F1500
(-->Cutting Line)
G01 X25.654Y47.244 F1500
(-->next line out of position. Retracting, and repositioning)
G00 Z4.000
G00 X23.241Y47.244
(-->Plunging, then Cutting Line)
G01 Z-0.070 F500
G01 X23.241Y46.355 F1500
(-->Cutting Line)
G01 X23.368Y46.228 F1500
(-->Cutting Line)
G01 X23.368Y44.069 F1500
(-->Cutting Line)
G01 X23.495Y43.942 F1500
(-->Cutting Line)
G01 X24.384Y43.942 F1500
(-->Cutting Line)
G01 X24.384Y42.164 F1500
(-->Cutting Line)
G01 X23.749Y42.164 F1500
(-->Cutting Line)
G01 X22.860Y42.164 F1500
(-->Cutting Line)
G01 X22.860Y43.561 F1500
(-->Cutting Line)
G01 X21.844Y43.561 F1500
(-->Cutting Line)
G01 X21.844Y45.847 F1500
(-->Cutting Line)
G01 X22.479Y46.482 F1500
(-->Cutting Line)
G01 X22.479Y47.371 F1500
(-->Cutting Line)
G01 X23.368Y48.260 F1500
(-->next line out of position. Retracting, and repositioning)
G00 Z4.000
G00 X26.035Y48.260
(-->Plunging, then Cutting Line)
G01 Z-0.070 F500
G01 X26.924Y47.371 F1500
(-->Cutting Line)
G01 X26.924Y44.958 F1500
(-->Cutting Line)
G01 X27.305Y44.577 F1500
(-->Cutting Line)
G01 X28.702Y44.577 F1500
(-->Cutting Line)
G01 X30.353Y44.577 F1500
(-->Cutting Line)
G01 X30.480Y44.450 F1500
(-->Cutting Line)
G01 X31.115Y43.815 F1500
(-->Cutting Line)
G01 X31.115Y42.799 F1500
(-->Cutting Line)
G01 X31.242Y42.672 F1500
(-->Cutting Line)
G01 X32.258Y42.672 F1500
(-->Cutting Line)
G01 X33.020Y43.434 F1500
(-->Cutting Line)
G01 X33.020Y53.594 F1500
(-->Cutting Line)
G01 X31.750Y54.864 F1500
(-->Cutting Line)
G01 X24.384Y54.864 F1500
(-->next line out of position. Retracting, and repositioning)
G00 Z4.000
G00 X20.450Y30.950
(-->Plunging, then Cutting Line)
G01 Z-0.070 F500
G01 X20.450Y29.450 F1500
(-->next line out of position. Retracting, and repositioning)
G00 Z4.000
G00 X21.250Y31.000
(-->Plunging, then Cutting Line)
G01 Z-0.070 F500
G01 X21.250Y29.450 F1500
(-->next line out of position. Retracting, and repositioning)
G00 Z4.000
G00 X22.050Y31.050
(-->Plunging, then Cutting Line)
G01 Z-0.070 F500
G01 X22.050Y29.450 F1500
(-->next line out of position. Retracting, and repositioning)
G00 Z4.000
G00 X22.850Y31.100
(-->Plunging, then Cutting Line)
G01 Z-0.070 F500
G01 X22.850Y29.400 F1500
(-->next line out of position. Retracting, and repositioning)
G00 Z4.000
G00 X23.650Y31.050
(-->Plunging, then Cutting Line)
G01 Z-0.070 F500
G01 X23.650Y29.400 F1500
(-->next line out of position. Retracting, and repositioning)
G00 Z4.000
G00 X24.450Y31.000
(-->Plunging, then Cutting Line)
G01 Z-0.070 F500
G01 X24.450Y29.300 F1500
(-->next line out of position. Retracting, and repositioning)
G00 Z4.000
G00 X25.250Y31.000
(-->Plunging, then Cutting Line)
G01 Z-0.070 F500
G01 X25.250Y29.400 F1500
(-->next line out of position. Retracting, and repositioning)
G00 Z4.000
G00 X26.050Y30.950
(-->Plunging, then Cutting Line)
G01 Z-0.070 F500
G01 X26.050Y29.400 F1500
(-->next line out of position. Retracting, and repositioning)
G00 Z4.000
G00 X19.650Y31.000
(-->Plunging, then Cutting Line)
G01 Z-0.070 F500
G01 X19.650Y29.450 F1500
(-->next line out of position. Retracting, and repositioning)
G00 Z4.000
G00 X17.650Y31.350
(-->Plunging, then Cutting Line)
G01 Z-0.070 F500
G01 X19.350Y31.350 F1500
(-->next line out of position. Retracting, and repositioning)
G00 Z4.000
G00 X17.850Y32.150
(-->Plunging, then Cutting Line)
G01 Z-0.070 F500
G01 X19.400Y32.150 F1500
(-->next line out of position. Retracting, and repositioning)
G00 Z4.000
G00 X17.800Y32.950
(-->Plunging, then Cutting Line)
G01 Z-0.070 F500
G01 X19.450Y32.950 F1500
(-->next line out of position. Retracting, and repositioning)
G00 Z4.000
G00 X17.750Y33.750
(-->Plunging, then Cutting Line)
G01 Z-0.070 F500
G01 X19.450Y33.750 F1500
(-->next line out of position. Retracting, and repositioning)
G00 Z4.000
G00 X17.850Y34.550
(-->Plunging, then Cutting Line)
G01 Z-0.070 F500
G01 X19.300Y34.550 F1500
(-->next line out of position. Retracting, and repositioning)
G00 Z4.000
G00 X17.750Y35.350
(-->Plunging, then Cutting Line)
G01 Z-0.070 F500
G01 X19.300Y35.350 F1500
(-->next line out of position. Retracting, and repositioning)
G00 Z4.000
G00 X17.800Y36.150
(-->Plunging, then Cutting Line)
G01 Z-0.070 F500
G01 X19.400Y36.150 F1500
(-->next line out of position. Retracting, and repositioning)
G00 Z4.000
G00 X17.850Y36.950
(-->Plunging, then Cutting Line)
G01 Z-0.070 F500
G01 X19.350Y36.950 F1500
(-->next line out of position. Retracting, and repositioning)
G00 Z4.000
G00 X17.800Y37.750
(-->Plunging, then Cutting Line)
G01 Z-0.070 F500
G01 X19.200Y37.750 F1500
(-->next line out of position. Retracting, and repositioning)
G00 Z4.000
G00 X20.450Y39.500
(-->Plunging, then Cutting Line)
G01 Z-0.070 F500
G01 X20.450Y38.050 F1500
(-->next line out of position. Retracting, and repositioning)
G00 Z4.000
G00 X21.250Y39.550
(-->Plunging, then Cutting Line)
G01 Z-0.070 F500
G01 X21.250Y38.050 F1500
(-->next line out of position. Retracting, and repositioning)
G00 Z4.000
G00 X22.050Y39.550
(-->Plunging, then Cutting Line)
G01 Z-0.070 F500
G01 X22.050Y38.100 F1500
(-->next line out of position. Retracting, and repositioning)
G00 Z4.000
G00 X22.850Y39.650
(-->Plunging, then Cutting Line)
G01 Z-0.070 F500
G01 X22.850Y38.050 F1500
(-->next line out of position. Retracting, and repositioning)
G00 Z4.000
G00 X23.650Y39.700
(-->Plunging, then Cutting Line)
G01 Z-0.070 F500
G01 X23.650Y38.050 F1500
(-->next line out of position. Retracting, and repositioning)
G00 Z4.000
G00 X24.450Y39.650
(-->Plunging, then Cutting Line)
G01 Z-0.070 F500
G01 X24.450Y38.050 F1500
(-->next line out of position. Retracting, and repositioning)
G00 Z4.000
G00 X25.250Y39.600
(-->Plunging, then Cutting Line)
G01 Z-0.070 F500
G01 X25.250Y38.050 F1500
(-->next line out of position. Retracting, and repositioning)
G00 Z4.000
G00 X26.050Y39.550
(-->Plunging, then Cutting Line)
G01 Z-0.070 F500
G01 X26.050Y38.200 F1500
(-->next line out of position. Retracting, and repositioning)
G00 Z4.000
G00 X26.500Y37.750
(-->Plunging, then Cutting Line)
G01 Z-0.070 F500
G01 X27.950Y37.750 F1500
(-->next line out of position. Retracting, and repositioning)
G00 Z4.000
G00 X26.350Y36.950
(-->Plunging, then Cutting Line)
G01 Z-0.070 F500
G01 X27.950Y36.950 F1500
(-->next line out of position. Retracting, and repositioning)
G00 Z4.000
G00 X26.400Y36.150
(-->Plunging, then Cutting Line)
G01 Z-0.070 F500
G01 X28.000Y36.150 F1500
(-->next line out of position. Retracting, and repositioning)
G00 Z4.000
G00 X26.400Y35.350
(-->Plunging, then Cutting Line)
G01 Z-0.070 F500
G01 X28.000Y35.350 F1500
(-->next line out of position. Retracting, and repositioning)
G00 Z4.000
G00 X26.350Y34.550
(-->Plunging, then Cutting Line)
G01 Z-0.070 F500
G01 X28.150Y34.550 F1500
(-->next line out of position. Retracting, and repositioning)
G00 Z4.000
G00 X26.350Y33.750
(-->Plunging, then Cutting Line)
G01 Z-0.070 F500
G01 X28.050Y33.750 F1500
(-->next line out of position. Retracting, and repositioning)
G00 Z4.000
G00 X26.200Y32.950
(-->Plunging, then Cutting Line)
G01 Z-0.070 F500
G01 X28.100Y32.950 F1500
(-->next line out of position. Retracting, and repositioning)
G00 Z4.000
G00 X26.300Y32.150
(-->Plunging, then Cutting Line)
G01 Z-0.070 F500
G01 X28.150Y32.150 F1500
(-->next line out of position. Retracting, and repositioning)
G00 Z4.000
G00 X26.350Y31.350
(-->Plunging, then Cutting Line)
G01 Z-0.070 F500
G01 X28.050Y31.350 F1500
(-->next line out of position. Retracting, and repositioning)
G00 Z4.000
G00 X20.663Y48.213
(-->Plunging, then Cutting Line)
G01 Z-0.070 F500
G01 X22.325Y48.213 F1500
(-->next line out of position. Retracting, and repositioning)
G00 Z4.000
G00 X20.425Y47.263
(-->Plunging, then Cutting Line)
G01 Z-0.070 F500
G01 X22.325Y47.263 F1500
(-->next line out of position. Retracting, and repositioning)
G00 Z4.000
G00 X25.175Y47.263
(-->Plunging, then Cutting Line)
G01 Z-0.070 F500
G01 X23.275Y47.263 F1500
(-->next line out of position. Retracting, and repositioning)
G00 Z4.000
G00 X25.175Y48.213
(-->Plunging, then Cutting Line)
G01 Z-0.070 F500
G01 X23.513Y48.213 F1500
(-->next line out of position. Retracting, and repositioning)
G00 Z4.000
G00 X25.175Y49.163
(-->Plunging, then Cutting Line)
G01 Z-0.070 F500
G01 X23.275Y49.163 F1500
(-->next line out of position. Retracting, and repositioning)
G00 Z4.000
G00 X20.663Y49.163
(-->Plunging, then Cutting Line)
G01 Z-0.070 F500
G01 X21.613Y49.163 F1500
(-->next line out of position. Retracting, and repositioning)
G00 Z4.000
G00 X23.513Y46.312
(-->Plunging, then Cutting Line)
G01 Z-0.070 F500
G01 X24.938Y46.312 F1500
(-->next line out of position. Retracting, and repositioning)
G00 Z4.000
G00 X20.663Y46.312
(-->Plunging, then Cutting Line)
G01 Z-0.070 F500
G01 X22.325Y46.312 F1500
(-->next line out of position. Retracting, and repositioning)
G00 Z4.000
G00 X19.304Y36.957
(-->Plunging, then Cutting Line)
G01 Z-0.070 F500
G01 X19.304Y37.719 F1500
(-->next line out of position. Retracting, and repositioning)
G00 Z4.000
G00 X17.780Y36.957
(-->Plunging, then Cutting Line)
G01 Z-0.070 F500
G01 X17.780Y36.068 F1500
(-->next line out of position. Retracting, and repositioning)
G00 Z4.000
G00 X17.780Y35.306
(-->Plunging, then Cutting Line)
G01 Z-0.070 F500
G01 X17.526Y35.306 F1500
(-->next line out of position. Retracting, and repositioning)
G00 Z4.000
G00 X17.780Y33.020
(-->Plunging, then Cutting Line)
G01 Z-0.070 F500
G01 X17.653Y33.020 F1500
(-->Cutting Line)
G01 X17.653Y31.369 F1500
(-->next line out of position. Retracting, and repositioning)
G00 Z4.000
G00 X19.304Y32.893
(-->Plunging, then Cutting Line)
G01 Z-0.070 F500
G01 X19.431Y32.893 F1500
(-->Cutting Line)
G01 X19.431Y31.369 F1500
(-->next line out of position. Retracting, and repositioning)
G00 Z4.000
G00 X19.685Y31.115
(-->Plunging, then Cutting Line)
G01 Z-0.070 F500
G01 X26.035Y31.115 F1500
(-->next line out of position. Retracting, and repositioning)
G00 Z4.000
G00 X19.685Y29.464
(-->Plunging, then Cutting Line)
G01 Z-0.070 F500
G01 X23.622Y29.464 F1500
(-->next line out of position. Retracting, and repositioning)
G00 Z4.000
G00 X26.289Y32.131
(-->Plunging, then Cutting Line)
G01 Z-0.070 F500
G01 X26.289Y31.369 F1500
(-->next line out of position. Retracting, and repositioning)
G00 Z4.000
G00 X26.289Y34.544
(-->Plunging, then Cutting Line)
G01 Z-0.070 F500
G01 X26.289Y33.020 F1500
(-->next line out of position. Retracting, and repositioning)
G00 Z4.000
G00 X28.067Y33.020
(-->Plunging, then Cutting Line)
G01 Z-0.070 F500
G01 X28.067Y33.782 F1500
(-->next line out of position. Retracting, and repositioning)
G00 Z4.000
G00 X27.940Y37.719
(-->Plunging, then Cutting Line)
G01 Z-0.070 F500
G01 X27.940Y35.306 F1500
(-->next line out of position. Retracting, and repositioning)
G00 Z4.000
G00 X26.416Y35.306
(-->Plunging, then Cutting Line)
G01 Z-0.070 F500
G01 X26.416Y37.592 F1500
(-->Cutting Line)
G01 X26.543Y37.719 F1500
(-->next line out of position. Retracting, and repositioning)
G00 Z4.000
G00 X28.194Y34.544
(-->Plunging, then Cutting Line)
G01 Z-0.070 F500
G01 X28.702Y35.052 F1500
(-->Cutting Line)
G01 X29.591Y35.052 F1500
(-->Cutting Line)
G01 X29.591Y33.528 F1500
(-->Cutting Line)
G01 X28.321Y33.528 F1500
(-->Cutting Line)
G01 X28.067Y33.782 F1500
(-->next line out of position. Retracting, and repositioning)
G00 Z4.000
G00 X29.718Y35.433
(-->Plunging, then Cutting Line)
G01 Z-0.070 F500
G01 X29.718Y36.576 F1500
(-->next line out of position. Retracting, and repositioning)
G00 Z4.000
G00 X22.098Y38.100
(-->Plunging, then Cutting Line)
G01 Z-0.070 F500
G01 X25.908Y38.100 F1500
(-->Cutting Line)
G01 X26.035Y38.227 F1500
(-->next line out of position. Retracting, and repositioning)
G00 Z4.000
G00 X21.336Y38.100
(-->Plunging, then Cutting Line)
G01 Z-0.070 F500
G01 X19.812Y38.100 F1500
(-->next line out of position. Retracting, and repositioning)
G00 Z4.000
G00 X21.209Y39.624
(-->Plunging, then Cutting Line)
G01 Z-0.070 F500
G01 X21.590Y39.624 F1500
(-->Cutting Line)
G01 X22.098Y39.624 F1500
(-->next line out of position. Retracting, and repositioning)
G00 Z4.000
G00 X26.035Y39.624
(-->Plunging, then Cutting Line)
G01 Z-0.070 F500
G01 X25.654Y39.624 F1500
(-->Cutting Line)
G01 X25.273Y39.624 F1500
(-->next line out of position. Retracting, and repositioning)
G00 Z4.000
G00 X19.431Y33.782
(-->Plunging, then Cutting Line)
G01 Z-0.070 F500
G01 X21.209Y33.782 F1500
(-->next line out of position. Retracting, and repositioning)
G00 Z4.000
G00 X22.098Y32.893
(-->Plunging, then Cutting Line)
G01 Z-0.070 F500
G01 X26.162Y32.893 F1500
(-->next line out of position. Retracting, and repositioning)
G00 Z4.000
G00 X21.717Y32.131
(-->Plunging, then Cutting Line)
G01 Z-0.070 F500
G01 X26.289Y32.131 F1500
(-->next line out of position. Retracting, and repositioning)
G00 Z4.000
G00 X28.194Y32.893
(-->Plunging, then Cutting Line)
G01 Z-0.070 F500
G01 X30.353Y32.893 F1500
(-->next line out of position. Retracting, and repositioning)
G00 Z4.000
G00 X28.194Y32.131
(-->Plunging, then Cutting Line)
G01 Z-0.070 F500
G01 X28.956Y32.131 F1500
(-->Cutting Line)
G01 X30.353Y32.131 F1500
(-->next line out of position. Retracting, and repositioning)
G00 Z4.000
G00 X20.447Y39.624
(-->Plunging, then Cutting Line)
G01 Z-0.070 F500
G01 X16.891Y39.624 F1500
(-->Cutting Line)
G01 X16.383Y40.132 F1500
(-->Cutting Line)
G01 X14.605Y40.132 F1500
(-->Cutting Line)
G01 X14.605Y38.481 F1500
(-->Cutting Line)
G01 X19.431Y38.481 F1500
(-->Cutting Line)
G01 X19.812Y38.100 F1500
(-->next line out of position. Retracting, and repositioning)
G00 Z4.000
G00 X25.654Y39.624
(-->Plunging, then Cutting Line)
G01 Z-0.070 F500
G01 X25.654Y40.005 F1500
(-->Cutting Line)
G01 X26.289Y40.640 F1500
(-->Cutting Line)
G01 X27.686Y40.640 F1500
(-->Cutting Line)
G01 X27.686Y42.291 F1500
(-->Cutting Line)
G01 X27.559Y42.418 F1500
(-->Cutting Line)
G01 X27.432Y42.545 F1500
(-->Cutting Line)
G01 X25.908Y42.545 F1500
(-->Cutting Line)
G01 X24.511Y41.148 F1500
(-->Cutting Line)
G01 X24.511Y39.624 F1500
(-->next line out of position. Retracting, and repositioning)
G00 Z4.000
G00 X23.749Y39.751
(-->Plunging, then Cutting Line)
G01 Z-0.070 F500
G01 X23.749Y42.164 F1500
(-->next line out of position. Retracting, and repositioning)
G00 Z4.000
G00 X22.860Y39.624
(-->Plunging, then Cutting Line)
G01 Z-0.070 F500
G01 X22.860Y40.386 F1500
(-->Cutting Line)
G01 X21.971Y41.275 F1500
(-->next line out of position. Retracting, and repositioning)
G00 Z4.000
G00 X25.654Y47.244
(-->Plunging, then Cutting Line)
G01 Z-0.070 F500
G01 X25.146Y47.244 F1500
(-->next line out of position. Retracting, and repositioning)
G00 Z4.000
G00 X26.035Y48.260
(-->Plunging, then Cutting Line)
G01 Z-0.070 F500
G01 X25.146Y48.260 F1500
(-->next line out of position. Retracting, and repositioning)
G00 Z4.000
G00 X20.447Y47.244
(-->Plunging, then Cutting Line)
G01 Z-0.070 F500
G01 X20.193Y47.244 F1500
(-->Cutting Line)
G01 X19.812Y46.863 F1500
(-->Cutting Line)
G01 X19.812Y44.958 F1500
(-->Cutting Line)
G01 X19.812Y42.291 F1500
(-->Cutting Line)
G01 X20.828Y41.275 F1500
(-->Cutting Line)
G01 X21.971Y41.275 F1500
(-->next line out of position. Retracting, and repositioning)
G00 Z4.000
G00 X27.686Y40.640
(-->Plunging, then Cutting Line)
G01 Z-0.070 F500
G01 X29.083Y40.640 F1500
(-->Cutting Line)
G01 X29.083Y39.116 F1500
(-->Cutting Line)
G01 X29.083Y38.862 F1500
(-->Cutting Line)
G01 X27.940Y37.719 F1500
(-->next line out of position. Retracting, and repositioning)
G00 Z4.000
G00 X26.289Y36.957
(-->Plunging, then Cutting Line)
G01 Z-0.070 F500
G01 X22.352Y36.957 F1500
(-->Cutting Line)
G01 X21.590Y36.195 F1500
(-->Cutting Line)
G01 X19.431Y36.195 F1500
(-->next line out of position. Retracting, and repositioning)
G00 Z4.000
G00 X19.304Y36.957
(-->Plunging, then Cutting Line)
G01 Z-0.070 F500
G01 X21.209Y36.957 F1500
(-->Cutting Line)
G01 X22.225Y37.973 F1500
(-->next line out of position. Retracting, and repositioning)
G00 Z4.000
G00 X17.780Y36.957
(-->Plunging, then Cutting Line)
G01 Z-0.070 F500
G01 X12.827Y36.957 F1500
(-->Cutting Line)
G01 X12.319Y36.449 F1500
(-->Cutting Line)
G01 X7.112Y36.449 F1500
(-->Cutting Line)
G01 X5.842Y37.719 F1500
(-->next line out of position. Retracting, and repositioning)
G00 Z4.000
G00 X17.780Y37.719
(-->Plunging, then Cutting Line)
G01 Z-0.070 F500
G01 X12.446Y37.719 F1500
(-->Cutting Line)
G01 X11.811Y37.084 F1500
(-->Cutting Line)
G01 X7.620Y37.084 F1500
(-->Cutting Line)
G01 X7.112Y37.592 F1500
(-->next line out of position. Retracting, and repositioning)
G00 Z4.000
G00 X14.605Y38.481
(-->Plunging, then Cutting Line)
G01 Z-0.070 F500
G01 X12.573Y38.481 F1500
(-->Cutting Line)
G01 X11.684Y39.370 F1500
(-->Cutting Line)
G01 X7.239Y39.370 F1500
(-->Cutting Line)
G01 X7.239Y37.719 F1500
(-->Cutting Line)
G01 X7.112Y37.592 F1500
(-->next line out of position. Retracting, and repositioning)
G00 Z4.000
G00 X7.239Y39.370
(-->Plunging, then Cutting Line)
G01 Z-0.070 F500
G01 X7.239Y41.910 F1500
(-->Cutting Line)
G01 X14.732Y41.910 F1500
(-->Cutting Line)
G01 X15.621Y41.021 F1500
(-->Cutting Line)
G01 X17.653Y41.021 F1500
(-->Cutting Line)
G01 X18.796Y41.021 F1500
(-->Cutting Line)
G01 X19.304Y40.513 F1500
(-->Cutting Line)
G01 X21.209Y40.513 F1500
(-->Cutting Line)
G01 X21.590Y40.132 F1500
(-->Cutting Line)
G01 X21.590Y39.624 F1500
(-->next line out of position. Retracting, and repositioning)
G00 Z4.000
G00 X7.239Y41.910
(-->Plunging, then Cutting Line)
G01 Z-0.070 F500
G01 X7.239Y44.577 F1500
(-->Cutting Line)
G01 X12.192Y44.577 F1500
(-->Cutting Line)
G01 X13.081Y43.688 F1500
(-->Cutting Line)
G01 X14.859Y43.688 F1500
(-->Cutting Line)
G01 X15.875Y42.672 F1500
(-->Cutting Line)
G01 X16.002Y42.672 F1500
(-->Cutting Line)
G01 X17.399Y42.672 F1500
(-->Cutting Line)
G01 X17.653Y42.418 F1500
(-->Cutting Line)
G01 X17.653Y41.021 F1500
(-->next line out of position. Retracting, and repositioning)
G00 Z4.000
G00 X17.526Y42.672
(-->Plunging, then Cutting Line)
G01 Z-0.070 F500
G01 X17.526Y43.688 F1500
(-->next line out of position. Retracting, and repositioning)
G00 Z4.000
G00 X16.002Y42.672
(-->Plunging, then Cutting Line)
G01 Z-0.070 F500
G01 X16.002Y43.688 F1500
(-->next line out of position. Retracting, and repositioning)
G00 Z4.000
G00 X16.002Y44.958
(-->Plunging, then Cutting Line)
G01 Z-0.070 F500
G01 X16.002Y45.466 F1500
(-->Cutting Line)
G01 X12.700Y45.466 F1500
(-->Cutting Line)
G01 X12.700Y45.085 F1500
(-->Cutting Line)
G01 X12.192Y44.577 F1500
(-->next line out of position. Retracting, and repositioning)
G00 Z4.000
G00 X8.382Y45.720
(-->Plunging, then Cutting Line)
G01 Z-0.070 F500
G01 X7.239Y44.577 F1500
(-->next line out of position. Retracting, and repositioning)
G00 Z4.000
G00 X10.160Y46.736
(-->Plunging, then Cutting Line)
G01 Z-0.070 F500
G01 X7.747Y46.736 F1500
(-->Cutting Line)
G01 X5.842Y44.831 F1500
(-->Cutting Line)
G01 X5.842Y37.719 F1500
(-->next line out of position. Retracting, and repositioning)
G00 Z4.000
G00 X17.526Y44.958
(-->Plunging, then Cutting Line)
G01 Z-0.070 F500
G01 X19.812Y44.958 F1500
(-->next line out of position. Retracting, and repositioning)
G00 Z4.000
G00 X29.083Y39.116
(-->Plunging, then Cutting Line)
G01 Z-0.070 F500
G01 X31.623Y39.116 F1500
(-->next line out of position. Retracting, and repositioning)
G00 Z4.000
G00 X27.559Y43.942
(-->Plunging, then Cutting Line)
G01 Z-0.070 F500
G01 X27.559Y42.418 F1500
(-->next line out of position. Retracting, and repositioning)
G00 Z4.000
G00 X27.559Y43.942
(-->Plunging, then Cutting Line)
G01 Z-0.070 F500
G01 X29.337Y43.942 F1500
(-->Cutting Line)
G01 X29.464Y43.815 F1500
(-->Cutting Line)
G01 X29.464Y41.910 F1500
(-->Cutting Line)
G01 X29.845Y41.529 F1500
(-->Cutting Line)
G01 X29.845Y40.640 F1500
(-->next line out of position. Retracting, and repositioning)
G00 Z4.000
G00 X27.051Y47.244
(-->Plunging, then Cutting Line)
G01 Z-0.070 F500
G01 X27.305Y47.244 F1500
(-->Cutting Line)
G01 X28.702Y47.244 F1500
(-->Cutting Line)
G01 X30.480Y47.244 F1500
(-->Cutting Line)
G01 X30.480Y44.450 F1500
(-->next line out of position. Retracting, and repositioning)
G00 Z4.000
G00 X28.702Y44.577
(-->Plunging, then Cutting Line)
G01 Z-0.070 F500
G01 X28.702Y45.212 F1500
(-->next line out of position. Retracting, and repositioning)
G00 Z4.000
G00 X22.352Y48.260
(-->Plunging, then Cutting Line)
G01 Z-0.070 F500
G01 X22.352Y48.895 F1500
(-->Cutting Line)
G01 X22.733Y49.276 F1500
(-->Cutting Line)
G01 X23.114Y49.276 F1500
(-->Cutting Line)
G01 X23.241Y49.149 F1500
(-->next line out of position. Retracting, and repositioning)
G00 Z4.000
G00 X25.146Y49.149
(-->Plunging, then Cutting Line)
G01 Z-0.070 F500
G01 X27.051Y49.149 F1500
(-->Cutting Line)
G01 X27.305Y48.895 F1500
(-->Cutting Line)
G01 X27.305Y47.244 F1500
(-->next line out of position. Retracting, and repositioning)
G00 Z4.000
G00 X28.702Y47.244
(-->Plunging, then Cutting Line)
G01 Z-0.070 F500
G01 X28.702Y49.784 F1500
(-->Cutting Line)
G01 X29.718Y50.800 F1500
(-->Cutting Line)
G01 X29.718Y52.832 F1500
(-->Cutting Line)
G01 X29.464Y53.086 F1500
(-->Cutting Line)
G01 X27.559Y53.086 F1500
(-->Cutting Line)
G01 X27.178Y52.705 F1500
(-->Cutting Line)
G01 X27.178Y50.546 F1500
(-->Cutting Line)
G01 X26.797Y50.165 F1500
(-->Cutting Line)
G01 X21.971Y50.165 F1500
(-->next line out of position. Retracting, and repositioning)
G00 Z4.000
G00 X20.574Y49.530
(-->Plunging, then Cutting Line)
G01 Z-0.070 F500
G01 X20.574Y48.260 F1500
(-->next line out of position. Retracting, and repositioning)
G00 Z4.000
G00 X10.160Y45.720
(-->Plunging, then Cutting Line)
G01 Z-0.070 F500
G01 X11.430Y45.720 F1500
(-->Cutting Line)
G01 X11.430Y47.752 F1500
(-->Cutting Line)
G01 X11.684Y48.006 F1500
(-->Cutting Line)
G01 X12.446Y48.006 F1500
(-->next line out of position. Retracting, and repositioning)
G00 Z4.000
G00 X10.160Y53.340
(-->Plunging, then Cutting Line)
G01 Z-0.070 F500
G01 X10.160Y51.435 F1500
(-->next line out of position. Retracting, and repositioning)
G00 Z4.000
G00 X12.192Y53.340
(-->Plunging, then Cutting Line)
G01 Z-0.070 F500
G01 X12.192Y51.435 F1500
(-->next line out of position. Retracting, and repositioning)
G00 Z4.000
G00 X12.192Y53.340
(-->Plunging, then Cutting Line)
G01 Z-0.070 F500
G01 X10.160Y53.340 F1500
(-->Cutting Line)
G01 X10.160Y56.134 F1500
(-->Cutting Line)
G01 X9.271Y57.023 F1500
(-->Cutting Line)
G01 X9.271Y59.055 F1500
(-->Cutting Line)
G01 X9.398Y59.182 F1500
(-->Cutting Line)
G01 X11.430Y59.182 F1500
(-->Cutting Line)
G01 X11.557Y59.055 F1500
(-->Cutting Line)
G01 X11.557Y58.420 F1500
(-->Cutting Line)
G01 X11.811Y58.166 F1500
(-->Cutting Line)
G01 X14.224Y58.166 F1500
(-->Cutting Line)
G01 X14.986Y57.404 F1500
(-->Cutting Line)
G01 X14.986Y56.261 F1500
(-->Cutting Line)
G01 X14.986Y55.626 F1500
(-->Cutting Line)
G01 X15.240Y55.372 F1500
(-->Cutting Line)
G01 X15.240Y51.435 F1500
(-->Cutting Line)
G01 X15.367Y51.308 F1500
(-->Cutting Line)
G01 X17.018Y51.308 F1500
(-->Cutting Line)
G01 X18.034Y51.308 F1500
(-->Cutting Line)
G01 X18.288Y51.562 F1500
(-->Cutting Line)
G01 X18.288Y52.832 F1500
(-->Cutting Line)
G01 X19.304Y52.832 F1500
(-->Cutting Line)
G01 X19.304Y51.181 F1500
(-->Cutting Line)
G01 X20.193Y51.181 F1500
(-->Cutting Line)
G01 X20.320Y51.308 F1500
(-->Cutting Line)
G01 X20.320Y53.340 F1500
(-->next line out of position. Retracting, and repositioning)
G00 Z4.000
G00 X19.304Y55.499
(-->Plunging, then Cutting Line)
G01 Z-0.070 F500
G01 X19.304Y53.848 F1500
(-->Cutting Line)
G01 X18.415Y53.848 F1500
(-->Cutting Line)
G01 X18.415Y55.118 F1500
(-->Cutting Line)
G01 X18.034Y55.499 F1500
(-->Cutting Line)
G01 X17.145Y55.499 F1500
(-->Cutting Line)
G01 X17.018Y55.372 F1500
(-->Cutting Line)
G01 X17.018Y51.308 F1500
(-->next line out of position. Retracting, and repositioning)
G00 Z4.000
G00 X19.304Y55.499
(-->Plunging, then Cutting Line)
G01 Z-0.070 F500
G01 X18.542Y56.261 F1500
(-->Cutting Line)
G01 X14.986Y56.261 F1500
(-->next line out of position. Retracting, and repositioning)
G00 Z4.000
G00 X12.192Y53.340
(-->Plunging, then Cutting Line)
G01 Z-0.070 F500
G01 X13.208Y53.340 F1500
(-->Cutting Line)
G01 X13.335Y53.213 F1500
(-->Cutting Line)
G01 X13.335Y51.689 F1500
(-->Cutting Line)
G01 X14.605Y50.419 F1500
(-->Cutting Line)
G01 X15.367Y50.419 F1500
(-->Cutting Line)
G01 X15.367Y47.498 F1500
(-->next line out of position. Retracting, and repositioning)
G00 Z4.000
G00 X13.970Y48.006
(-->Plunging, then Cutting Line)
G01 Z-0.070 F500
G01 X13.970Y49.276 F1500
(-->Cutting Line)
G01 X12.954Y50.292 F1500
(-->Cutting Line)
G01 X10.668Y50.292 F1500
(-->next line out of position. Retracting, and repositioning)
G00 Z4.000
G00 X24.003Y58.674
(-->Plunging, then Cutting Line)
G01 Z-0.070 F500
G01 X27.305Y58.674 F1500
(-->next line out of position. Retracting, and repositioning)
G00 Z4.000
G00 X24.511Y29.210
(-->Plunging, then Cutting Line)
G01 Z-0.070 F500
G01 X24.511Y28.956 F1500
(-->Cutting Line)
G01 X24.003Y28.448 F1500
(-->Cutting Line)
G01 X18.923Y28.448 F1500
(-->Cutting Line)
G01 X18.415Y27.940 F1500
(-->Cutting Line)
G01 X18.415Y21.844 F1500
(-->Cutting Line)
G01 X16.256Y21.844 F1500
(-->Cutting Line)
G01 X16.256Y24.384 F1500
(-->Cutting Line)
G01 X16.764Y24.892 F1500
(-->Cutting Line)
G01 X16.764Y28.194 F1500
(-->Cutting Line)
G01 X18.034Y29.464 F1500
(-->Cutting Line)
G01 X19.558Y29.464 F1500
(-->next line out of position. Retracting, and repositioning)
G00 Z4.000
G00 X25.273Y29.337
(-->Plunging, then Cutting Line)
G01 Z-0.070 F500
G01 X25.273Y28.321 F1500
(-->Cutting Line)
G01 X24.257Y27.305 F1500
(-->Cutting Line)
G01 X21.209Y27.305 F1500
(-->Cutting Line)
G01 X20.320Y26.416 F1500
(-->Cutting Line)
G01 X20.320Y21.590 F1500
(-->Cutting Line)
G01 X19.050Y20.320 F1500
(-->Cutting Line)
G01 X9.525Y20.320 F1500
(-->Cutting Line)
G01 X7.874Y18.669 F1500
(-->next line out of position. Retracting, and repositioning)
G00 Z4.000
G00 X5.334Y19.685
(-->Plunging, then Cutting Line)
G01 Z-0.070 F500
G01 X6.985Y21.336 F1500
(-->Cutting Line)
G01 X15.748Y21.336 F1500
(-->Cutting Line)
G01 X16.256Y21.844 F1500
(-->next line out of position. Retracting, and repositioning)
G00 Z4.000
G00 X26.035Y29.464
(-->Plunging, then Cutting Line)
G01 Z-0.070 F500
G01 X26.035Y28.194 F1500
(-->Cutting Line)
G01 X22.352Y24.511 F1500
(-->Cutting Line)
G01 X22.352Y21.717 F1500
(-->Cutting Line)
G01 X19.939Y19.304 F1500
(-->Cutting Line)
G01 X12.192Y19.304 F1500
(-->Cutting Line)
G01 X10.414Y17.526 F1500
(-->next line out of position. Retracting, and repositioning)
G00 Z4.000
G00 X11.557Y13.970
(-->Plunging, then Cutting Line)
G01 Z-0.070 F500
G01 X11.557Y17.018 F1500
(-->Cutting Line)
G01 X12.954Y18.415 F1500
(-->Cutting Line)
G01 X20.828Y18.415 F1500
(-->Cutting Line)
G01 X24.384Y21.971 F1500
(-->Cutting Line)
G01 X24.384Y25.146 F1500
(-->Cutting Line)
G01 X28.956Y29.718 F1500
(-->Cutting Line)
G01 X28.956Y32.131 F1500
(-->next line out of position. Retracting, and repositioning)
G00 Z4.000
G00 X26.035Y31.115
(-->Plunging, then Cutting Line)
G01 Z-0.070 F500
G01 X26.289Y31.369 F1500
(-->next line out of position. Retracting, and repositioning)
G00 Z4.000
G00 X8.382Y11.430
(-->Plunging, then Cutting Line)
G01 Z-0.070 F500
G01 X8.382Y7.366 F1500
(-->Cutting Line)
G01 X8.128Y7.112 F1500
(-->Cutting Line)
G01 X8.128Y5.334 F1500
(-->next line out of position. Retracting, and repositioning)
G00 Z4.000
G00 X10.414Y5.334
(-->Plunging, then Cutting Line)
G01 Z-0.070 F500
G01 X10.414Y7.239 F1500
(-->Cutting Line)
G01 X9.652Y8.001 F1500
(-->Cutting Line)
G01 X9.652Y10.922 F1500
(-->Cutting Line)
G01 X10.414Y11.684 F1500
(-->next line out of position. Retracting, and repositioning)
G00 Z4.000
G00 X5.715Y5.461
(-->Plunging, then Cutting Line)
G01 Z-0.070 F500
G01 X7.112Y5.461 F1500
(-->Cutting Line)
G01 X7.493Y5.842 F1500
(-->Cutting Line)
G01 X7.493Y11.049 F1500
(-->Cutting Line)
G01 X4.572Y11.049 F1500
(-->next line out of position. Retracting, and repositioning)
G00 Z4.000
G00 X4.826Y5.334
(-->Plunging, then Cutting Line)
G01 Z-0.070 F500
G01 X2.667Y5.334 F1500
(-->Cutting Line)
G01 X2.667Y22.733 F1500
(-->Cutting Line)
G01 X5.334Y25.400 F1500
(-->Cutting Line)
G01 X11.557Y25.400 F1500
(-->Cutting Line)
G01 X12.954Y26.797 F1500
(-->Cutting Line)
G01 X12.954Y30.353 F1500
(-->Cutting Line)
G01 X14.859Y30.353 F1500
(-->next line out of position. Retracting, and repositioning)
G00 Z4.000
G00 X17.653Y33.020
(-->Plunging, then Cutting Line)
G01 Z-0.070 F500
G01 X16.256Y33.020 F1500
(-->next line out of position. Retracting, and repositioning)
G00 Z4.000
G00 X16.637Y2.540
(-->Plunging, then Cutting Line)
G01 Z-0.070 F500
G01 X18.161Y2.540 F1500
(-->Cutting Line)
G01 X18.161Y5.588 F1500
(-->Cutting Line)
G01 X18.669Y6.096 F1500
(-->Cutting Line)
G01 X24.003Y6.096 F1500
(-->Cutting Line)
G01 X27.432Y9.525 F1500
(-->Cutting Line)
G01 X27.432Y20.066 F1500
(-->Cutting Line)
G01 X27.432Y20.955 F1500
(-->Cutting Line)
G01 X26.670Y21.717 F1500
(-->Cutting Line)
G01 X26.670Y24.130 F1500
(-->Cutting Line)
G01 X28.067Y25.527 F1500
(-->Cutting Line)
G01 X31.623Y25.527 F1500
(-->Cutting Line)
G01 X31.877Y25.781 F1500
(-->Cutting Line)
G01 X31.877Y28.194 F1500
(-->Cutting Line)
G01 X31.623Y28.448 F1500
(-->Cutting Line)
G01 X29.464Y28.448 F1500
(-->Cutting Line)
G01 X28.702Y27.686 F1500
(-->Cutting Line)
G01 X28.702Y26.924 F1500
(-->Cutting Line)
G01 X28.067Y26.289 F1500
(-->Cutting Line)
G01 X27.813Y26.289 F1500
(-->Cutting Line)
G01 X26.035Y24.511 F1500
(-->Cutting Line)
G01 X26.035Y9.398 F1500
(-->Cutting Line)
G01 X23.749Y7.112 F1500
(-->Cutting Line)
G01 X17.018Y7.112 F1500
(-->Cutting Line)
G01 X16.383Y6.477 F1500
(-->Cutting Line)
G01 X16.383Y2.921 F1500
(-->Cutting Line)
G01 X16.510Y2.794 F1500
(-->Cutting Line)
G01 X16.510Y2.667 F1500
(-->Cutting Line)
G01 X16.637Y2.540 F1500
(-->next line out of position. Retracting, and repositioning)
G00 Z4.000
G00 X28.448Y25.400
(-->Plunging, then Cutting Line)
G01 Z-0.070 F500
G01 X28.448Y24.384 F1500
(-->Cutting Line)
G01 X28.448Y22.098 F1500
(-->Cutting Line)
G01 X28.448Y21.463 F1500
(-->Cutting Line)
G01 X28.702Y21.209 F1500
(-->Cutting Line)
G01 X31.115Y21.209 F1500
(-->Cutting Line)
G01 X32.004Y22.098 F1500
(-->Cutting Line)
G01 X32.004Y24.257 F1500
(-->Cutting Line)
G01 X34.290Y24.257 F1500
(-->next line out of position. Retracting, and repositioning)
G00 Z4.000
G00 X33.020Y20.066
(-->Plunging, then Cutting Line)
G01 Z-0.070 F500
G01 X27.432Y20.066 F1500
(-->next line out of position. Retracting, and repositioning)
G00 Z4.000
G00 X7.239Y36.322
(-->Plunging, then Cutting Line)
G01 Z-0.070 F500
G01 X7.239Y34.290 F1500
(-->Cutting Line)
G01 X12.573Y34.290 F1500
(-->Cutting Line)
G01 X12.573Y36.576 F1500
(-->next line out of position. Retracting, and repositioning)
G00 Z4.000
G00 X12.573Y34.290
(-->Plunging, then Cutting Line)
G01 Z-0.070 F500
G01 X12.573Y31.750 F1500
(-->Cutting Line)
G01 X7.239Y31.750 F1500
(-->Cutting Line)
G01 X7.239Y34.290 F1500
(-->next line out of position. Retracting, and repositioning)
G00 Z4.000
G00 X5.334Y16.256
(-->Plunging, then Cutting Line)
G01 Z-0.070 F500
G01 X7.874Y16.256 F1500
(-->next line out of position. Retracting, and repositioning)
G00 Z4.000
G00 X5.334Y19.685
(-->Plunging, then Cutting Line)
G01 Z-0.070 F500
G01 X5.334Y16.256 F1500
(-->next line out of position. Retracting, and repositioning)
G00 Z4.000
G00 X7.874Y16.256
(-->Plunging, then Cutting Line)
G01 Z-0.070 F500
G01 X7.874Y18.669 F1500
(-->next line out of position. Retracting, and repositioning)
G00 Z4.000
G00 X7.874Y14.351
(-->Plunging, then Cutting Line)
G01 Z-0.070 F500
G01 X10.414Y14.351 F1500
(-->Cutting Line)
G01 X10.414Y17.526 F1500
(-->next line out of position. Retracting, and repositioning)
G00 Z4.000
G00 X7.874Y14.351
(-->Plunging, then Cutting Line)
G01 Z-0.070 F500
G01 X7.874Y16.129 F1500
(-->next line out of position. Retracting, and repositioning)
G00 Z4.000
G00 X10.414Y11.684
(-->Plunging, then Cutting Line)
G01 Z-0.070 F500
G01 X10.414Y13.081 F1500
(-->Cutting Line)
G01 X7.874Y13.081 F1500
(-->Cutting Line)
G01 X7.874Y12.192 F1500
(-->Cutting Line)
G01 X7.874Y11.938 F1500
(-->Cutting Line)
G01 X8.382Y11.430 F1500
(-->next line out of position. Retracting, and repositioning)
G00 Z4.000
G00 X7.874Y12.192
(-->Plunging, then Cutting Line)
G01 Z-0.070 F500
G01 X5.461Y12.192 F1500
(-->Cutting Line)
G01 X5.461Y13.970 F1500
(-->Cutting Line)
G01 X7.493Y13.970 F1500
(-->Cutting Line)
G01 X7.874Y14.351 F1500
(-->next line out of position. Retracting, and repositioning)
G00 Z4.000
G00 X2.667Y5.334
(-->Plunging, then Cutting Line)
G01 Z-0.070 F500
G01 X2.667Y2.413 F1500
(-->next line out of position. Retracting, and repositioning)
G00 Z4.000
G00 X28.448Y24.384
(-->Plunging, then Cutting Line)
G01 Z-0.070 F500
G01 X29.972Y24.384 F1500
(-->next line out of position. Retracting, and repositioning)
G00 Z4.000
G00 X28.448Y22.098
(-->Plunging, then Cutting Line)
G01 Z-0.070 F500
G01 X30.099Y22.098 F1500
(-->next line out of position. Retracting, and repositioning)
G00 Z4.000
G00 X10.414Y13.081
(-->Plunging, then Cutting Line)
G01 Z-0.070 F500
G01 X10.668Y13.081 F1500
(-->Cutting Line)
G01 X11.557Y13.970 F1500
(-->next line out of position. Retracting, and repositioning)
G00 Z4.000
G00 X13.843Y56.642
(-->Plunging, then Cutting Line)
G01 Z-0.070 F500
G01 X13.843Y55.118 F1500
(-->Cutting Line)
G01 X13.335Y55.118 F1500
(-->Cutting Line)
G01 X13.335Y53.213 F1500
(-->next line out of position. Retracting, and repositioning)
G00 Z4.000
G00 X12.192Y53.467
(-->Plunging, then Cutting Line)
G01 Z-0.070 F500
G01 X12.192Y54.991 F1500
