(RS-274 Compatible G-code generated for UCCNC controller and Stepcraft 2 Mill)
(Created by in EagleCAD with the stepcraft.ulp 0.2.)
(File: "sensor_v4.brd" created on: 4/26/16 7:52 AM)
(Use a 1/32inch Bit)

G90 G94 G49
G21
G00 Z5
G00 X0Y0
S19500 M03
G04 P4000
(-->next line out of position. Retracting, and repositioning)
G00 Z1.000
G00 X0.000Y58.420
(-->Plunging, then Cutting Line)
G01 Z-0.150 F30
G01 X0.000Y2.540 F360
G03
X2.540Y0.000 R2.540
(-->Cutting Line)
G01 X33.020Y0.000 F360
G03
X35.560Y2.540 R2.540
(-->Cutting Line)
G01 X35.560Y58.420 F360
G03
X33.020Y60.960 R2.540
(-->Cutting Line)
G01 X2.540Y60.960 F360
G03
X0.000Y58.420 R2.540
(-->plunge, then cut)
G01 Z-0.300 F30
G01 X0.000Y2.540 F360
G03
X2.540Y0.000 R2.540
(-->Cutting Line)
G01 X33.020Y0.000 F360
G03
X35.560Y2.540 R2.540
(-->Cutting Line)
G01 X35.560Y58.420 F360
G03
X33.020Y60.960 R2.540
(-->Cutting Line)
G01 X2.540Y60.960 F360
G03
X0.000Y58.420 R2.540
(-->plunge, then cut)
G01 Z-0.450 F30
G01 X0.000Y2.540 F360
G03
X2.540Y0.000 R2.540
(-->Cutting Line)
G01 X33.020Y0.000 F360
G03
X35.560Y2.540 R2.540
(-->Cutting Line)
G01 X35.560Y58.420 F360
G03
X33.020Y60.960 R2.540
(-->Cutting Line)
G01 X2.540Y60.960 F360
G03
X0.000Y58.420 R2.540
(-->plunge, then cut)
G01 Z-0.600 F30
G01 X0.000Y2.540 F360
G03
X2.540Y0.000 R2.540
(-->Cutting Line)
G01 X33.020Y0.000 F360
G03
X35.560Y2.540 R2.540
(-->Cutting Line)
G01 X35.560Y58.420 F360
G03
X33.020Y60.960 R2.540
(-->Cutting Line)
G01 X2.540Y60.960 F360
G03
X0.000Y58.420 R2.540
(-->plunge, then cut)
G01 Z-0.750 F30
G01 X0.000Y2.540 F360
G03
X2.540Y0.000 R2.540
(-->Cutting Line)
G01 X33.020Y0.000 F360
G03
X35.560Y2.540 R2.540
(-->Cutting Line)
G01 X35.560Y58.420 F360
G03
X33.020Y60.960 R2.540
(-->Cutting Line)
G01 X2.540Y60.960 F360
G03
X0.000Y58.420 R2.540
(-->plunge, then cut)
G01 Z-0.900 F30
G01 X0.000Y2.540 F360
G03
X2.540Y0.000 R2.540
(-->Cutting Line)
G01 X33.020Y0.000 F360
G03
X35.560Y2.540 R2.540
(-->Cutting Line)
G01 X35.560Y58.420 F360
G03
X33.020Y60.960 R2.540
(-->Cutting Line)
G01 X2.540Y60.960 F360
G03
X0.000Y58.420 R2.540
(-->plunge, then cut)
G01 Z-1.050 F30
G01 X0.000Y2.540 F360
G03
X2.540Y0.000 R2.540
(-->Cutting Line)
G01 X33.020Y0.000 F360
G03
X35.560Y2.540 R2.540
(-->Cutting Line)
G01 X35.560Y58.420 F360
G03
X33.020Y60.960 R2.540
(-->Cutting Line)
G01 X2.540Y60.960 F360
G03
X0.000Y58.420 R2.540
(-->plunge, then cut)
G01 Z-1.200 F30
G01 X0.000Y2.540 F360
G03
X2.540Y0.000 R2.540
(-->Cutting Line)
G01 X33.020Y0.000 F360
G03
X35.560Y2.540 R2.540
(-->Cutting Line)
G01 X35.560Y58.420 F360
G03
X33.020Y60.960 R2.540
(-->Cutting Line)
G01 X2.540Y60.960 F360
G03
X0.000Y58.420 R2.540
(-->plunge, then cut)
G01 Z-1.350 F30
G01 X0.000Y2.540 F360
G03
X2.540Y0.000 R2.540
(-->Cutting Line)
G01 X33.020Y0.000 F360
G03
X35.560Y2.540 R2.540
(-->Cutting Line)
G01 X35.560Y58.420 F360
G03
X33.020Y60.960 R2.540
(-->Cutting Line)
G01 X2.540Y60.960 F360
G03
X0.000Y58.420 R2.540
(-->plunge, then cut)
G01 Z-1.500 F30
G01 X0.000Y2.540 F360
G03
X2.540Y0.000 R2.540
(-->Cutting Line)
G01 X33.020Y0.000 F360
G03
X35.560Y2.540 R2.540
(-->Cutting Line)
G01 X35.560Y58.420 F360
G03
X33.020Y60.960 R2.540
(-->Cutting Line)
G01 X2.540Y60.960 F360
G03
X0.000Y58.420 R2.540
(-->plunge, then cut)
G01 Z-1.600 F30
G01 X0.000Y2.540 F360
G03
X2.540Y0.000 R2.540
(-->Cutting Line)
G01 X33.020Y0.000 F360
G03
X35.560Y2.540 R2.540
(-->Cutting Line)
G01 X35.560Y58.420 F360
G03
X33.020Y60.960 R2.540
(-->Cutting Line)
G01 X2.540Y60.960 F360
G03
X0.000Y58.420 R2.540
G00 Z1.000
M05
G04 P4000
G00 X0Y0
