(RS-274 Compatible G-code generated for UCCNC controller and Stepcraft 2 Mill)
(Created by in EagleCAD with the stepcraft.ulp 0.2.)
(File: was created on: 4/26/16 7:52 AM)
SHRINK_WIDTH: 0.090000

G90 G94 G49
G00 Z5.000
G00 X6.712 Y54.557 F1500
G00 Z0.000 F500
G01 X6.712 Y54.557 F1500
G01 X8.042 Y54.557 F1500
G01 X8.042 Y56.187 F1500
G01 X6.712 Y56.187 F1500
G01 X6.712 Y54.557 F1500
G00 Z1.000 F500

G00 X4.912 Y54.557 F1500
G00 Z0.000 F500
G01 X4.912 Y54.557 F1500
G01 X6.242 Y54.557 F1500
G01 X6.242 Y56.187 F1500
G01 X4.912 Y56.187 F1500
G01 X4.912 Y54.557 F1500
G00 Z1.000 F500

G00 X15.187 Y56.026 F1500
G00 Z0.000 F500
G01 X15.187 Y56.026 F1500
G01 X15.187 Y54.696 F1500
G01 X16.817 Y54.696 F1500
G01 X16.817 Y56.026 F1500
G01 X15.187 Y56.026 F1500
G00 Z1.000 F500

G00 X15.187 Y57.826 F1500
G00 Z0.000 F500
G01 X15.187 Y57.826 F1500
G01 X15.187 Y56.496 F1500
G01 X16.817 Y56.496 F1500
G01 X16.817 Y57.826 F1500
G01 X15.187 Y57.826 F1500
G00 Z1.000 F500

G00 X29.038 Y40.875 F1500
G00 Z0.000 F500
G01 X29.038 Y40.875 F1500
G01 X29.038 Y42.005 F1500
G01 X27.858 Y42.005 F1500
G01 X27.858 Y40.875 F1500
G01 X29.038 Y40.875 F1500
G00 Z1.000 F500

G00 X29.038 Y39.275 F1500
G00 Z0.000 F500
G01 X29.038 Y39.275 F1500
G01 X29.038 Y40.405 F1500
G01 X27.858 Y40.405 F1500
G01 X27.858 Y39.275 F1500
G01 X29.038 Y39.275 F1500
G00 Z1.000 F500

G00 X30.054 Y35.287 F1500
G00 Z0.000 F500
G01 X30.054 Y35.287 F1500
G01 X30.054 Y36.417 F1500
G01 X28.874 Y36.417 F1500
G01 X28.874 Y35.287 F1500
G01 X30.054 Y35.287 F1500
G00 Z1.000 F500

G00 X30.054 Y33.687 F1500
G00 Z0.000 F500
G01 X30.054 Y33.687 F1500
G01 X30.054 Y34.817 F1500
G01 X28.874 Y34.817 F1500
G01 X28.874 Y33.687 F1500
G01 X30.054 Y33.687 F1500
G00 Z1.000 F500

G00 X17.354 Y42.907 F1500
G00 Z0.000 F500
G01 X17.354 Y42.907 F1500
G01 X17.354 Y44.037 F1500
G01 X16.174 Y44.037 F1500
G01 X16.174 Y42.907 F1500
G01 X17.354 Y42.907 F1500
G00 Z1.000 F500

G00 X17.354 Y41.307 F1500
G00 Z0.000 F500
G01 X17.354 Y41.307 F1500
G01 X17.354 Y42.437 F1500
G01 X16.174 Y42.437 F1500
G01 X16.174 Y41.307 F1500
G01 X17.354 Y41.307 F1500
G00 Z1.000 F500

G00 X6.966 Y48.813 F1500
G00 Z0.000 F500
G01 X6.966 Y48.813 F1500
G01 X8.096 Y48.813 F1500
G01 X8.096 Y49.993 F1500
G01 X6.966 Y49.993 F1500
G01 X6.966 Y48.813 F1500
G00 Z1.000 F500

G00 X5.366 Y48.813 F1500
G00 Z0.000 F500
G01 X5.366 Y48.813 F1500
G01 X6.496 Y48.813 F1500
G01 X6.496 Y49.993 F1500
G01 X5.366 Y49.993 F1500
G01 X5.366 Y48.813 F1500
G00 Z1.000 F500

G00 X19.222 Y56.407 F1500
G00 Z0.000 F500
G01 X19.222 Y56.407 F1500
G01 X19.222 Y55.277 F1500
G01 X20.402 Y55.277 F1500
G01 X20.402 Y56.407 F1500
G01 X19.222 Y56.407 F1500
G00 Z1.000 F500

G00 X19.222 Y58.007 F1500
G00 Z0.000 F500
G01 X19.222 Y58.007 F1500
G01 X19.222 Y56.877 F1500
G01 X20.402 Y56.877 F1500
G01 X20.402 Y58.007 F1500
G01 X19.222 Y58.007 F1500
G00 Z1.000 F500

G00 X6.114 Y46.742 F1500
G00 Z0.000 F500
G01 X6.114 Y46.742 F1500
G01 X7.094 Y46.742 F1500
G01 X7.094 Y47.722 F1500
G01 X6.114 Y47.722 F1500
G01 X6.114 Y46.742 F1500
G00 Z1.000 F500

G00 X6.114 Y45.242 F1500
G00 Z0.000 F500
G01 X6.114 Y45.242 F1500
G01 X7.094 Y45.242 F1500
G01 X7.094 Y46.222 F1500
G01 X6.114 Y46.222 F1500
G01 X6.114 Y45.242 F1500
G00 Z1.000 F500

G00 X29.004 Y43.990 F1500
G00 Z0.000 F500
G01 X29.004 Y43.990 F1500
G01 X28.024 Y43.990 F1500
G01 X28.024 Y42.910 F1500
G01 X29.004 Y42.910 F1500
G01 X29.004 Y43.990 F1500
G00 Z1.000 F500

G00 X30.904 Y43.990 F1500
G00 Z0.000 F500
G01 X30.904 Y43.990 F1500
G01 X29.924 Y43.990 F1500
G01 X29.924 Y42.910 F1500
G01 X30.904 Y42.910 F1500
G01 X30.904 Y43.990 F1500
G00 Z1.000 F500

G00 X29.954 Y46.090 F1500
G00 Z0.000 F500
G01 X29.954 Y46.090 F1500
G01 X28.974 Y46.090 F1500
G01 X28.974 Y45.010 F1500
G01 X29.954 Y45.010 F1500
G01 X29.954 Y46.090 F1500
G00 Z1.000 F500

G00 X22.625 Y43.516 F1500
G00 Z0.000 F500
G01 X22.625 Y43.516 F1500
G01 X21.495 Y43.516 F1500
G01 X21.495 Y42.336 F1500
G01 X22.625 Y42.336 F1500
G01 X22.625 Y43.516 F1500
G00 Z1.000 F500

G00 X24.225 Y43.516 F1500
G00 Z0.000 F500
G01 X24.225 Y43.516 F1500
G01 X23.095 Y43.516 F1500
G01 X23.095 Y42.336 F1500
G01 X24.225 Y42.336 F1500
G01 X24.225 Y43.516 F1500
G00 Z1.000 F500

G00 X23.603 Y44.114 F1500
G00 Z0.000 F500
G01 X23.603 Y44.114 F1500
G01 X24.733 Y44.114 F1500
G01 X24.733 Y45.294 F1500
G01 X23.603 Y45.294 F1500
G01 X23.603 Y44.114 F1500
G00 Z1.000 F500

G00 X22.003 Y44.114 F1500
G00 Z0.000 F500
G01 X22.003 Y44.114 F1500
G01 X23.133 Y44.114 F1500
G01 X23.133 Y45.294 F1500
G01 X22.003 Y45.294 F1500
G01 X22.003 Y44.114 F1500
G00 Z1.000 F500

G00 X29.890 Y40.405 F1500
G00 Z0.000 F500
G01 X29.890 Y40.405 F1500
G01 X29.890 Y39.275 F1500
G01 X31.070 Y39.275 F1500
G01 X31.070 Y40.405 F1500
G01 X29.890 Y40.405 F1500
G00 Z1.000 F500

G00 X29.890 Y42.005 F1500
G00 Z0.000 F500
G01 X29.890 Y42.005 F1500
G01 X29.890 Y40.875 F1500
G01 X31.070 Y40.875 F1500
G01 X31.070 Y42.005 F1500
G01 X29.890 Y42.005 F1500
G00 Z1.000 F500

G00 X28.530 Y48.368 F1500
G00 Z0.000 F500
G01 X28.530 Y48.368 F1500
G01 X28.530 Y49.498 F1500
G01 X27.350 Y49.498 F1500
G01 X27.350 Y48.368 F1500
G01 X28.530 Y48.368 F1500
G00 Z1.000 F500

G00 X28.530 Y46.768 F1500
G00 Z0.000 F500
G01 X28.530 Y46.768 F1500
G01 X28.530 Y47.898 F1500
G01 X27.350 Y47.898 F1500
G01 X27.350 Y46.768 F1500
G01 X28.530 Y46.768 F1500
G00 Z1.000 F500

G00 X16.174 Y45.993 F1500
G00 Z0.000 F500
G01 X16.174 Y45.993 F1500
G01 X16.174 Y44.863 F1500
G01 X17.354 Y44.863 F1500
G01 X17.354 Y45.993 F1500
G01 X16.174 Y45.993 F1500
G00 Z1.000 F500

G00 X16.174 Y47.593 F1500
G00 Z0.000 F500
G01 X16.174 Y47.593 F1500
G01 X16.174 Y46.463 F1500
G01 X17.354 Y46.463 F1500
G01 X17.354 Y47.593 F1500
G01 X16.174 Y47.593 F1500
G00 Z1.000 F500

G00 X12.554 Y47.289 F1500
G00 Z0.000 F500
G01 X12.554 Y47.289 F1500
G01 X13.684 Y47.289 F1500
G01 X13.684 Y48.469 F1500
G01 X12.554 Y48.469 F1500
G01 X12.554 Y47.289 F1500
G00 Z1.000 F500

G00 X10.954 Y47.289 F1500
G00 Z0.000 F500
G01 X10.954 Y47.289 F1500
G01 X12.084 Y47.289 F1500
G01 X12.084 Y48.469 F1500
G01 X10.954 Y48.469 F1500
G01 X10.954 Y47.289 F1500
G00 Z1.000 F500

G00 X12.376 Y52.272 F1500
G00 Z0.000 F500
G01 X12.376 Y52.272 F1500
G01 X12.376 Y50.992 F1500
G01 X13.156 Y50.992 F1500
G01 X13.156 Y52.272 F1500
G01 X12.376 Y52.272 F1500
G00 Z1.000 F500

G00 X13.326 Y52.272 F1500
G00 Z0.000 F500
G01 X13.326 Y52.272 F1500
G01 X13.326 Y50.992 F1500
G01 X14.106 Y50.992 F1500
G01 X14.106 Y52.272 F1500
G01 X13.326 Y52.272 F1500
G00 Z1.000 F500

G00 X14.276 Y52.272 F1500
G00 Z0.000 F500
G01 X14.276 Y52.272 F1500
G01 X14.276 Y50.992 F1500
G01 X15.056 Y50.992 F1500
G01 X15.056 Y52.272 F1500
G01 X14.276 Y52.272 F1500
G00 Z1.000 F500

G00 X14.276 Y54.672 F1500
G00 Z0.000 F500
G01 X14.276 Y54.672 F1500
G01 X14.276 Y53.392 F1500
G01 X15.056 Y53.392 F1500
G01 X15.056 Y54.672 F1500
G01 X14.276 Y54.672 F1500
G00 Z1.000 F500

G00 X12.376 Y54.672 F1500
G00 Z0.000 F500
G01 X12.376 Y54.672 F1500
G01 X12.376 Y53.392 F1500
G01 X13.156 Y53.392 F1500
G01 X13.156 Y54.672 F1500
G01 X12.376 Y54.672 F1500
G00 Z1.000 F500

G00 X22.315 Y49.061 F1500
G00 Z0.000 F500
G01 X22.315 Y49.061 F1500
G01 X20.814 Y49.061 F1500
G01 X20.814 Y48.322 F1500
G01 X22.315 Y48.322 F1500
G01 X22.315 Y49.061 F1500
G00 Z1.000 F500

G00 X22.315 Y48.121 F1500
G00 Z0.000 F500
G01 X22.315 Y48.121 F1500
G01 X20.814 Y48.121 F1500
G01 X20.814 Y47.383 F1500
G01 X22.315 Y47.383 F1500
G01 X22.315 Y48.121 F1500
G00 Z1.000 F500

G00 X22.315 Y47.182 F1500
G00 Z0.000 F500
G01 X22.315 Y47.182 F1500
G01 X20.814 Y47.182 F1500
G01 X20.814 Y46.443 F1500
G01 X22.315 Y46.443 F1500
G01 X22.315 Y47.182 F1500
G00 Z1.000 F500

G00 X24.906 Y47.182 F1500
G00 Z0.000 F500
G01 X24.906 Y47.182 F1500
G01 X23.405 Y47.182 F1500
G01 X23.405 Y46.443 F1500
G01 X24.906 Y46.443 F1500
G01 X24.906 Y47.182 F1500
G00 Z1.000 F500

G00 X24.906 Y48.121 F1500
G00 Z0.000 F500
G01 X24.906 Y48.121 F1500
G01 X23.405 Y48.121 F1500
G01 X23.405 Y47.383 F1500
G01 X24.906 Y47.383 F1500
G01 X24.906 Y48.121 F1500
G00 Z1.000 F500

G00 X24.906 Y49.061 F1500
G00 Z0.000 F500
G01 X24.906 Y49.061 F1500
G01 X23.405 Y49.061 F1500
G01 X23.405 Y48.322 F1500
G01 X24.906 Y48.322 F1500
G01 X24.906 Y49.061 F1500
G00 Z1.000 F500

G00 X9.400 Y54.141 F1500
G00 Z0.000 F500
G01 X9.400 Y54.141 F1500
G01 X9.400 Y50.761 F1500
G01 X10.580 Y50.761 F1500
G01 X10.580 Y54.141 F1500
G01 X9.400 Y54.141 F1500
G00 Z1.000 F500

G00 X7.200 Y54.141 F1500
G00 Z0.000 F500
G01 X7.200 Y54.141 F1500
G01 X7.200 Y50.761 F1500
G01 X8.380 Y50.761 F1500
G01 X8.380 Y54.141 F1500
G01 X7.200 Y54.141 F1500
G00 Z1.000 F500

G00 X26.627 Y24.330 F1500
G00 Z0.000 F500
G01 X26.627 Y24.330 F1500
G01 X26.627 Y22.150 F1500
G01 X28.077 Y22.150 F1500
G01 X28.077 Y24.330 F1500
G01 X26.627 Y24.330 F1500
G00 Z1.000 F500

G00 X16.627 Y4.830 F1500
G00 Z0.000 F500
G01 X16.627 Y4.830 F1500
G01 X16.627 Y2.650 F1500
G01 X18.077 Y2.650 F1500
G01 X18.077 Y4.830 F1500
G01 X16.627 Y4.830 F1500
G00 Z1.000 F500

G00 X28.627 Y24.330 F1500
G00 Z0.000 F500
G01 X28.627 Y24.330 F1500
G01 X28.627 Y22.150 F1500
G01 X30.077 Y22.150 F1500
G01 X30.077 Y24.330 F1500
G01 X28.627 Y24.330 F1500
G00 Z1.000 F500

G00 X20.627 Y24.330 F1500
G00 Z0.000 F500
G01 X20.627 Y24.330 F1500
G01 X20.627 Y22.150 F1500
G01 X22.077 Y22.150 F1500
G01 X22.077 Y24.330 F1500
G01 X20.627 Y24.330 F1500
G00 Z1.000 F500

G00 X18.627 Y24.330 F1500
G00 Z0.000 F500
G01 X18.627 Y24.330 F1500
G01 X18.627 Y22.150 F1500
G01 X20.077 Y22.150 F1500
G01 X20.077 Y24.330 F1500
G01 X18.627 Y24.330 F1500
G00 Z1.000 F500

G00 X16.627 Y24.330 F1500
G00 Z0.000 F500
G01 X16.627 Y24.330 F1500
G01 X16.627 Y22.150 F1500
G01 X18.077 Y22.150 F1500
G01 X18.077 Y24.330 F1500
G01 X16.627 Y24.330 F1500
G00 Z1.000 F500

G00 X22.627 Y24.330 F1500
G00 Z0.000 F500
G01 X22.627 Y24.330 F1500
G01 X22.627 Y22.150 F1500
G01 X24.077 Y22.150 F1500
G01 X24.077 Y24.330 F1500
G01 X22.627 Y24.330 F1500
G00 Z1.000 F500

G00 X28.627 Y4.830 F1500
G00 Z0.000 F500
G01 X28.627 Y4.830 F1500
G01 X28.627 Y2.650 F1500
G01 X30.077 Y2.650 F1500
G01 X30.077 Y4.830 F1500
G01 X28.627 Y4.830 F1500
G00 Z1.000 F500

G00 X19.292 Y37.713 F1500
G00 Z0.000 F500
G01 X19.292 Y37.713 F1500
G01 X17.842 Y37.713 F1500
G01 X17.842 Y36.975 F1500
G01 X19.292 Y36.975 F1500
G01 X19.292 Y37.713 F1500
G00 Z1.000 F500

G00 X19.292 Y36.913 F1500
G00 Z0.000 F500
G01 X19.292 Y36.913 F1500
G01 X17.842 Y36.913 F1500
G01 X17.842 Y36.175 F1500
G01 X19.292 Y36.175 F1500
G01 X19.292 Y36.913 F1500
G00 Z1.000 F500

G00 X19.292 Y36.113 F1500
G00 Z0.000 F500
G01 X19.292 Y36.113 F1500
G01 X17.842 Y36.113 F1500
G01 X17.842 Y35.375 F1500
G01 X19.292 Y35.375 F1500
G01 X19.292 Y36.113 F1500
G00 Z1.000 F500

G00 X19.292 Y35.313 F1500
G00 Z0.000 F500
G01 X19.292 Y35.313 F1500
G01 X17.842 Y35.313 F1500
G01 X17.842 Y34.575 F1500
G01 X19.292 Y34.575 F1500
G01 X19.292 Y35.313 F1500
G00 Z1.000 F500

G00 X19.292 Y34.513 F1500
G00 Z0.000 F500
G01 X19.292 Y34.513 F1500
G01 X17.842 Y34.513 F1500
G01 X17.842 Y33.775 F1500
G01 X19.292 Y33.775 F1500
G01 X19.292 Y34.513 F1500
G00 Z1.000 F500

G00 X19.292 Y33.713 F1500
G00 Z0.000 F500
G01 X19.292 Y33.713 F1500
G01 X17.842 Y33.713 F1500
G01 X17.842 Y32.975 F1500
G01 X19.292 Y32.975 F1500
G01 X19.292 Y33.713 F1500
G00 Z1.000 F500

G00 X19.292 Y32.913 F1500
G00 Z0.000 F500
G01 X19.292 Y32.913 F1500
G01 X17.842 Y32.913 F1500
G01 X17.842 Y32.175 F1500
G01 X19.292 Y32.175 F1500
G01 X19.292 Y32.913 F1500
G00 Z1.000 F500

G00 X19.292 Y32.113 F1500
G00 Z0.000 F500
G01 X19.292 Y32.113 F1500
G01 X17.842 Y32.113 F1500
G01 X17.842 Y31.375 F1500
G01 X19.292 Y31.375 F1500
G01 X19.292 Y32.113 F1500
G00 Z1.000 F500

G00 X20.429 Y30.976 F1500
G00 Z0.000 F500
G01 X20.429 Y30.976 F1500
G01 X19.691 Y30.976 F1500
G01 X19.691 Y29.526 F1500
G01 X20.429 Y29.526 F1500
G01 X20.429 Y30.976 F1500
G00 Z1.000 F500

G00 X21.229 Y30.976 F1500
G00 Z0.000 F500
G01 X21.229 Y30.976 F1500
G01 X20.491 Y30.976 F1500
G01 X20.491 Y29.526 F1500
G01 X21.229 Y29.526 F1500
G01 X21.229 Y30.976 F1500
G00 Z1.000 F500

G00 X22.029 Y30.976 F1500
G00 Z0.000 F500
G01 X22.029 Y30.976 F1500
G01 X21.291 Y30.976 F1500
G01 X21.291 Y29.526 F1500
G01 X22.029 Y29.526 F1500
G01 X22.029 Y30.976 F1500
G00 Z1.000 F500

G00 X22.829 Y30.976 F1500
G00 Z0.000 F500
G01 X22.829 Y30.976 F1500
G01 X22.091 Y30.976 F1500
G01 X22.091 Y29.526 F1500
G01 X22.829 Y29.526 F1500
G01 X22.829 Y30.976 F1500
G00 Z1.000 F500

G00 X23.629 Y30.976 F1500
G00 Z0.000 F500
G01 X23.629 Y30.976 F1500
G01 X22.891 Y30.976 F1500
G01 X22.891 Y29.526 F1500
G01 X23.629 Y29.526 F1500
G01 X23.629 Y30.976 F1500
G00 Z1.000 F500

G00 X24.429 Y30.976 F1500
G00 Z0.000 F500
G01 X24.429 Y30.976 F1500
G01 X23.691 Y30.976 F1500
G01 X23.691 Y29.526 F1500
G01 X24.429 Y29.526 F1500
G01 X24.429 Y30.976 F1500
G00 Z1.000 F500

G00 X25.229 Y30.976 F1500
G00 Z0.000 F500
G01 X25.229 Y30.976 F1500
G01 X24.491 Y30.976 F1500
G01 X24.491 Y29.526 F1500
G01 X25.229 Y29.526 F1500
G01 X25.229 Y30.976 F1500
G00 Z1.000 F500

G00 X26.029 Y30.976 F1500
G00 Z0.000 F500
G01 X26.029 Y30.976 F1500
G01 X25.291 Y30.976 F1500
G01 X25.291 Y29.526 F1500
G01 X26.029 Y29.526 F1500
G01 X26.029 Y30.976 F1500
G00 Z1.000 F500

G00 X27.878 Y32.113 F1500
G00 Z0.000 F500
G01 X27.878 Y32.113 F1500
G01 X26.428 Y32.113 F1500
G01 X26.428 Y31.375 F1500
G01 X27.878 Y31.375 F1500
G01 X27.878 Y32.113 F1500
G00 Z1.000 F500

G00 X27.878 Y32.913 F1500
G00 Z0.000 F500
G01 X27.878 Y32.913 F1500
G01 X26.428 Y32.913 F1500
G01 X26.428 Y32.175 F1500
G01 X27.878 Y32.175 F1500
G01 X27.878 Y32.913 F1500
G00 Z1.000 F500

G00 X27.878 Y33.713 F1500
G00 Z0.000 F500
G01 X27.878 Y33.713 F1500
G01 X26.428 Y33.713 F1500
G01 X26.428 Y32.975 F1500
G01 X27.878 Y32.975 F1500
G01 X27.878 Y33.713 F1500
G00 Z1.000 F500

G00 X27.878 Y34.513 F1500
G00 Z0.000 F500
G01 X27.878 Y34.513 F1500
G01 X26.428 Y34.513 F1500
G01 X26.428 Y33.775 F1500
G01 X27.878 Y33.775 F1500
G01 X27.878 Y34.513 F1500
G00 Z1.000 F500

G00 X27.878 Y35.313 F1500
G00 Z0.000 F500
G01 X27.878 Y35.313 F1500
G01 X26.428 Y35.313 F1500
G01 X26.428 Y34.575 F1500
G01 X27.878 Y34.575 F1500
G01 X27.878 Y35.313 F1500
G00 Z1.000 F500

G00 X27.878 Y36.113 F1500
G00 Z0.000 F500
G01 X27.878 Y36.113 F1500
G01 X26.428 Y36.113 F1500
G01 X26.428 Y35.375 F1500
G01 X27.878 Y35.375 F1500
G01 X27.878 Y36.113 F1500
G00 Z1.000 F500

G00 X27.878 Y36.913 F1500
G00 Z0.000 F500
G01 X27.878 Y36.913 F1500
G01 X26.428 Y36.913 F1500
G01 X26.428 Y36.175 F1500
G01 X27.878 Y36.175 F1500
G01 X27.878 Y36.913 F1500
G00 Z1.000 F500

G00 X27.878 Y37.713 F1500
G00 Z0.000 F500
G01 X27.878 Y37.713 F1500
G01 X26.428 Y37.713 F1500
G01 X26.428 Y36.975 F1500
G01 X27.878 Y36.975 F1500
G01 X27.878 Y37.713 F1500
G00 Z1.000 F500

G00 X26.029 Y39.562 F1500
G00 Z0.000 F500
G01 X26.029 Y39.562 F1500
G01 X25.291 Y39.562 F1500
G01 X25.291 Y38.112 F1500
G01 X26.029 Y38.112 F1500
G01 X26.029 Y39.562 F1500
G00 Z1.000 F500

G00 X25.229 Y39.562 F1500
G00 Z0.000 F500
G01 X25.229 Y39.562 F1500
G01 X24.491 Y39.562 F1500
G01 X24.491 Y38.112 F1500
G01 X25.229 Y38.112 F1500
G01 X25.229 Y39.562 F1500
G00 Z1.000 F500

G00 X24.429 Y39.562 F1500
G00 Z0.000 F500
G01 X24.429 Y39.562 F1500
G01 X23.691 Y39.562 F1500
G01 X23.691 Y38.112 F1500
G01 X24.429 Y38.112 F1500
G01 X24.429 Y39.562 F1500
G00 Z1.000 F500

G00 X23.629 Y39.562 F1500
G00 Z0.000 F500
G01 X23.629 Y39.562 F1500
G01 X22.891 Y39.562 F1500
G01 X22.891 Y38.112 F1500
G01 X23.629 Y38.112 F1500
G01 X23.629 Y39.562 F1500
G00 Z1.000 F500

G00 X22.829 Y39.562 F1500
G00 Z0.000 F500
G01 X22.829 Y39.562 F1500
G01 X22.091 Y39.562 F1500
G01 X22.091 Y38.112 F1500
G01 X22.829 Y38.112 F1500
G01 X22.829 Y39.562 F1500
G00 Z1.000 F500

G00 X22.029 Y39.562 F1500
G00 Z0.000 F500
G01 X22.029 Y39.562 F1500
G01 X21.291 Y39.562 F1500
G01 X21.291 Y38.112 F1500
G01 X22.029 Y38.112 F1500
G01 X22.029 Y39.562 F1500
G00 Z1.000 F500

G00 X21.229 Y39.562 F1500
G00 Z0.000 F500
G01 X21.229 Y39.562 F1500
G01 X20.491 Y39.562 F1500
G01 X20.491 Y38.112 F1500
G01 X21.229 Y38.112 F1500
G01 X21.229 Y39.562 F1500
G00 Z1.000 F500

G00 X20.429 Y39.562 F1500
G00 Z0.000 F500
G01 X20.429 Y39.562 F1500
G01 X19.691 Y39.562 F1500
G01 X19.691 Y38.112 F1500
G01 X20.429 Y38.112 F1500
G01 X20.429 Y39.562 F1500
G00 Z1.000 F500

G00 X0.000 Y2.540 F1500
(-->plunge, then cut)
G01 Z0.000 F500
G01 X0.000Y2.540 F1500
G03
X2.540Y0.000 R2.540
G00 X33.020 Y0.000 F1500
(-->Cutting Line)
G01 X33.020Y0.000 F1500
G03
X35.560Y2.540 R2.540
G00 X35.560 Y58.420 F1500
(-->Cutting Line)
G01 X35.560Y58.420 F1500
G03
X33.020Y60.960 R2.540
G00 X2.540 Y60.960 F1500
(-->Cutting Line)
G01 X2.540Y60.960 F1500
G03
X0.000Y58.420 R2.540
G00 Z5.000
G00 X0Y0