(RS-274 Compatible G-code generated for UCCNC controller and Stepcraft 2 Mill)
(Created by in EagleCAD with the stepcraft.ulp 0.2.)
(File: "LTC3092_BREAKOUT.brd" created on: 8/22/16 11:46 AM)
(Use a 1/32inch Bit)

G90 G94 G49
G21
G00 Z5
G00 X0Y0
S19500 M03
G04 P4000
(-->0.000, 0.000, 1.000  -- z -0.170)
(retract, move to start, plunge, cut)
G00 Z1.000
G00 X2.651Y2.540
G01 Z-0.170 F30
G03 F360
X2.651Y2.540 I-0.111
(plunge, and cut)
G01 Z-0.170 F30
G03 F360
X2.651Y2.540 I-0.111
(-->2.651, 2.540, -0.170  -- z -0.340)
(plunge, and cut)
G01 Z-0.340 F30
G03 F360
X2.651Y2.540 I-0.111
(-->2.651, 2.540, -0.340  -- z -0.510)
(plunge, and cut)
G01 Z-0.510 F30
G03 F360
X2.651Y2.540 I-0.111
(-->2.651, 2.540, -0.510  -- z -0.680)
(plunge, and cut)
G01 Z-0.680 F30
G03 F360
X2.651Y2.540 I-0.111
(-->2.651, 2.540, -0.680  -- z -0.850)
(plunge, and cut)
G01 Z-0.850 F30
G03 F360
X2.651Y2.540 I-0.111
(-->2.651, 2.540, -0.850  -- z -1.020)
(plunge, and cut)
G01 Z-1.020 F30
G03 F360
X2.651Y2.540 I-0.111
(-->2.651, 2.540, -1.020  -- z -1.190)
(plunge, and cut)
G01 Z-1.190 F30
G03 F360
X2.651Y2.540 I-0.111
(-->2.651, 2.540, -1.190  -- z -1.360)
(plunge, and cut)
G01 Z-1.360 F30
G03 F360
X2.651Y2.540 I-0.111
(-->2.651, 2.540, -1.360  -- z -1.530)
(plunge, and cut)
G01 Z-1.530 F30
G03 F360
X2.651Y2.540 I-0.111
(-->2.651, 2.540, -1.530  -- z -1.650)
(plunge, and cut)
G01 Z-1.650 F30
G03 F360
X2.651Y2.540 I-0.111
(-->2.651, 2.540, -1.650  -- z -0.170)
(retract, move to start, plunge, cut)
G00 Z1.000
G00 X5.191Y2.540
G01 Z-0.170 F30
G03 F360
X5.191Y2.540 I-0.111
(plunge, and cut)
G01 Z-0.170 F30
G03 F360
X5.191Y2.540 I-0.111
(-->5.191, 2.540, -0.170  -- z -0.340)
(plunge, and cut)
G01 Z-0.340 F30
G03 F360
X5.191Y2.540 I-0.111
(-->5.191, 2.540, -0.340  -- z -0.510)
(plunge, and cut)
G01 Z-0.510 F30
G03 F360
X5.191Y2.540 I-0.111
(-->5.191, 2.540, -0.510  -- z -0.680)
(plunge, and cut)
G01 Z-0.680 F30
G03 F360
X5.191Y2.540 I-0.111
(-->5.191, 2.540, -0.680  -- z -0.850)
(plunge, and cut)
G01 Z-0.850 F30
G03 F360
X5.191Y2.540 I-0.111
(-->5.191, 2.540, -0.850  -- z -1.020)
(plunge, and cut)
G01 Z-1.020 F30
G03 F360
X5.191Y2.540 I-0.111
(-->5.191, 2.540, -1.020  -- z -1.190)
(plunge, and cut)
G01 Z-1.190 F30
G03 F360
X5.191Y2.540 I-0.111
(-->5.191, 2.540, -1.190  -- z -1.360)
(plunge, and cut)
G01 Z-1.360 F30
G03 F360
X5.191Y2.540 I-0.111
(-->5.191, 2.540, -1.360  -- z -1.530)
(plunge, and cut)
G01 Z-1.530 F30
G03 F360
X5.191Y2.540 I-0.111
(-->5.191, 2.540, -1.530  -- z -1.650)
(plunge, and cut)
G01 Z-1.650 F30
G03 F360
X5.191Y2.540 I-0.111
(-->5.191, 2.540, -1.650  -- z -0.170)
(retract, move to start, plunge, cut)
G00 Z1.000
G00 X5.191Y20.320
G01 Z-0.170 F30
G03 F360
X5.191Y20.320 I-0.111
(plunge, and cut)
G01 Z-0.170 F30
G03 F360
X5.191Y20.320 I-0.111
(-->5.191, 20.320, -0.170  -- z -0.340)
(plunge, and cut)
G01 Z-0.340 F30
G03 F360
X5.191Y20.320 I-0.111
(-->5.191, 20.320, -0.340  -- z -0.510)
(plunge, and cut)
G01 Z-0.510 F30
G03 F360
X5.191Y20.320 I-0.111
(-->5.191, 20.320, -0.510  -- z -0.680)
(plunge, and cut)
G01 Z-0.680 F30
G03 F360
X5.191Y20.320 I-0.111
(-->5.191, 20.320, -0.680  -- z -0.850)
(plunge, and cut)
G01 Z-0.850 F30
G03 F360
X5.191Y20.320 I-0.111
(-->5.191, 20.320, -0.850  -- z -1.020)
(plunge, and cut)
G01 Z-1.020 F30
G03 F360
X5.191Y20.320 I-0.111
(-->5.191, 20.320, -1.020  -- z -1.190)
(plunge, and cut)
G01 Z-1.190 F30
G03 F360
X5.191Y20.320 I-0.111
(-->5.191, 20.320, -1.190  -- z -1.360)
(plunge, and cut)
G01 Z-1.360 F30
G03 F360
X5.191Y20.320 I-0.111
(-->5.191, 20.320, -1.360  -- z -1.530)
(plunge, and cut)
G01 Z-1.530 F30
G03 F360
X5.191Y20.320 I-0.111
(-->5.191, 20.320, -1.530  -- z -1.650)
(plunge, and cut)
G01 Z-1.650 F30
G03 F360
X5.191Y20.320 I-0.111
(-->5.191, 20.320, -1.650  -- z -0.170)
(retract, move to start, plunge, cut)
G00 Z1.000
G00 X2.651Y20.320
G01 Z-0.170 F30
G03 F360
X2.651Y20.320 I-0.111
(plunge, and cut)
G01 Z-0.170 F30
G03 F360
X2.651Y20.320 I-0.111
(-->2.651, 20.320, -0.170  -- z -0.340)
(plunge, and cut)
G01 Z-0.340 F30
G03 F360
X2.651Y20.320 I-0.111
(-->2.651, 20.320, -0.340  -- z -0.510)
(plunge, and cut)
G01 Z-0.510 F30
G03 F360
X2.651Y20.320 I-0.111
(-->2.651, 20.320, -0.510  -- z -0.680)
(plunge, and cut)
G01 Z-0.680 F30
G03 F360
X2.651Y20.320 I-0.111
(-->2.651, 20.320, -0.680  -- z -0.850)
(plunge, and cut)
G01 Z-0.850 F30
G03 F360
X2.651Y20.320 I-0.111
(-->2.651, 20.320, -0.850  -- z -1.020)
(plunge, and cut)
G01 Z-1.020 F30
G03 F360
X2.651Y20.320 I-0.111
(-->2.651, 20.320, -1.020  -- z -1.190)
(plunge, and cut)
G01 Z-1.190 F30
G03 F360
X2.651Y20.320 I-0.111
(-->2.651, 20.320, -1.190  -- z -1.360)
(plunge, and cut)
G01 Z-1.360 F30
G03 F360
X2.651Y20.320 I-0.111
(-->2.651, 20.320, -1.360  -- z -1.530)
(plunge, and cut)
G01 Z-1.530 F30
G03 F360
X2.651Y20.320 I-0.111
(-->2.651, 20.320, -1.530  -- z -1.650)
(plunge, and cut)
G01 Z-1.650 F30
G03 F360
X2.651Y20.320 I-0.111
G00 Z1.000
M05
G04 P4000
G00 X0Y0
