(RS-274 Compatible G-code generated for UCCNC controller and Stepcraft 2 Mill)
(Created by in EagleCAD with the stepcraft.ulp 0.1.)
(File: "ds3231M-breakout.brd" created on: 3/7/16 12:43 PM)
(Use a 1/32inch Bit)

G90 G94 G49
G21
G00 Z5
G00 X0Y0
S19500 M03
G04 P4000
G00 Z1.000
G00 X0.000Y27.940
G01 Z-0.150 F30
G01 X0.000Y2.540 F360
G03
X2.540Y0.000 R2.540
G01 X27.940Y0.000 F360
G03
X30.480Y2.540 R2.540
G01 X30.480Y27.940 F360
G03
X27.940Y30.480 R2.540
G01 X2.540Y30.480 F360
G03
X0.000Y27.940 R2.540
G01 Z-0.300 F30
G01 X0.000Y2.540 F360
G03
X2.540Y0.000 R2.540
G01 X27.940Y0.000 F360
G03
X30.480Y2.540 R2.540
G01 X30.480Y27.940 F360
G03
X27.940Y30.480 R2.540
G01 X2.540Y30.480 F360
G03
X0.000Y27.940 R2.540
G01 Z-0.450 F30
G01 X0.000Y2.540 F360
G03
X2.540Y0.000 R2.540
G01 X27.940Y0.000 F360
G03
X30.480Y2.540 R2.540
G01 X30.480Y27.940 F360
G03
X27.940Y30.480 R2.540
G01 X2.540Y30.480 F360
G03
X0.000Y27.940 R2.540
G01 Z-0.600 F30
G01 X0.000Y2.540 F360
G03
X2.540Y0.000 R2.540
G01 X27.940Y0.000 F360
G03
X30.480Y2.540 R2.540
G01 X30.480Y27.940 F360
G03
X27.940Y30.480 R2.540
G01 X2.540Y30.480 F360
G03
X0.000Y27.940 R2.540
G01 Z-0.750 F30
G01 X0.000Y2.540 F360
G03
X2.540Y0.000 R2.540
G01 X27.940Y0.000 F360
G03
X30.480Y2.540 R2.540
G01 X30.480Y27.940 F360
G03
X27.940Y30.480 R2.540
G01 X2.540Y30.480 F360
G03
X0.000Y27.940 R2.540
G01 Z-0.900 F30
G01 X0.000Y2.540 F360
G03
X2.540Y0.000 R2.540
G01 X27.940Y0.000 F360
G03
X30.480Y2.540 R2.540
G01 X30.480Y27.940 F360
G03
X27.940Y30.480 R2.540
G01 X2.540Y30.480 F360
G03
X0.000Y27.940 R2.540
G01 Z-1.050 F30
G01 X0.000Y2.540 F360
G03
X2.540Y0.000 R2.540
G01 X27.940Y0.000 F360
G03
X30.480Y2.540 R2.540
G01 X30.480Y27.940 F360
G03
X27.940Y30.480 R2.540
G01 X2.540Y30.480 F360
G03
X0.000Y27.940 R2.540
G01 Z-1.200 F30
G01 X0.000Y2.540 F360
G03
X2.540Y0.000 R2.540
G01 X27.940Y0.000 F360
G03
X30.480Y2.540 R2.540
G01 X30.480Y27.940 F360
G03
X27.940Y30.480 R2.540
G01 X2.540Y30.480 F360
G03
X0.000Y27.940 R2.540
G01 Z-1.350 F30
G01 X0.000Y2.540 F360
G03
X2.540Y0.000 R2.540
G01 X27.940Y0.000 F360
G03
X30.480Y2.540 R2.540
G01 X30.480Y27.940 F360
G03
X27.940Y30.480 R2.540
G01 X2.540Y30.480 F360
G03
X0.000Y27.940 R2.540
G01 Z-1.500 F30
G01 X0.000Y2.540 F360
G03
X2.540Y0.000 R2.540
G01 X27.940Y0.000 F360
G03
X30.480Y2.540 R2.540
G01 X30.480Y27.940 F360
G03
X27.940Y30.480 R2.540
G01 X2.540Y30.480 F360
G03
X0.000Y27.940 R2.540
G01 Z-1.600 F30
G01 X0.000Y2.540 F360
G03
X2.540Y0.000 R2.540
G01 X27.940Y0.000 F360
G03
X30.480Y2.540 R2.540
G01 X30.480Y27.940 F360
G03
X27.940Y30.480 R2.540
G01 X2.540Y30.480 F360
G03
X0.000Y27.940 R2.540
G00 Z1.000
M05
G04 P4000
G00 X0Y0
