(RS-274 Compatible G-code generated for UCCNC controller and Stepcraft 2 Mill)
(Created by in EagleCAD with the stepcraft.ulp 0.1.)
(File: "ds3231M-breakout.brd" created on: 3/7/16 12:43 PM)
(Use a 1/32inch Bit)

G90 G94 G49
G21
G00 Z5
G00 X0Y0
S19500 M03
G04 P4000
G00 Z1.000
G00 X19.212Y24.130
G01 Z-0.150 F30
G03 F360
X19.212Y24.130 I-0.162
G01 Z-0.300 F30
G03 F360
X19.212Y24.130 I-0.162
G01 Z-0.450 F30
G03 F360
X19.212Y24.130 I-0.162
G01 Z-0.600 F30
G03 F360
X19.212Y24.130 I-0.162
G01 Z-0.750 F30
G03 F360
X19.212Y24.130 I-0.162
G01 Z-0.900 F30
G03 F360
X19.212Y24.130 I-0.162
G01 Z-1.050 F30
G03 F360
X19.212Y24.130 I-0.162
G01 Z-1.200 F30
G03 F360
X19.212Y24.130 I-0.162
G01 Z-1.350 F30
G03 F360
X19.212Y24.130 I-0.162
G01 Z-1.500 F30
G03 F360
X19.212Y24.130 I-0.162
G01 Z-1.600 F30
G03 F360
X19.212Y24.130 I-0.162
G00 Z1.000
G00 X16.672Y24.130
G01 Z-0.150 F30
G03 F360
X16.672Y24.130 I-0.162
G01 Z-0.300 F30
G03 F360
X16.672Y24.130 I-0.162
G01 Z-0.450 F30
G03 F360
X16.672Y24.130 I-0.162
G01 Z-0.600 F30
G03 F360
X16.672Y24.130 I-0.162
G01 Z-0.750 F30
G03 F360
X16.672Y24.130 I-0.162
G01 Z-0.900 F30
G03 F360
X16.672Y24.130 I-0.162
G01 Z-1.050 F30
G03 F360
X16.672Y24.130 I-0.162
G01 Z-1.200 F30
G03 F360
X16.672Y24.130 I-0.162
G01 Z-1.350 F30
G03 F360
X16.672Y24.130 I-0.162
G01 Z-1.500 F30
G03 F360
X16.672Y24.130 I-0.162
G01 Z-1.600 F30
G03 F360
X16.672Y24.130 I-0.162
G00 Z1.000
G00 X14.132Y24.130
G01 Z-0.150 F30
G03 F360
X14.132Y24.130 I-0.162
G01 Z-0.300 F30
G03 F360
X14.132Y24.130 I-0.162
G01 Z-0.450 F30
G03 F360
X14.132Y24.130 I-0.162
G01 Z-0.600 F30
G03 F360
X14.132Y24.130 I-0.162
G01 Z-0.750 F30
G03 F360
X14.132Y24.130 I-0.162
G01 Z-0.900 F30
G03 F360
X14.132Y24.130 I-0.162
G01 Z-1.050 F30
G03 F360
X14.132Y24.130 I-0.162
G01 Z-1.200 F30
G03 F360
X14.132Y24.130 I-0.162
G01 Z-1.350 F30
G03 F360
X14.132Y24.130 I-0.162
G01 Z-1.500 F30
G03 F360
X14.132Y24.130 I-0.162
G01 Z-1.600 F30
G03 F360
X14.132Y24.130 I-0.162
G00 Z1.000
G00 X11.592Y24.130
G01 Z-0.150 F30
G03 F360
X11.592Y24.130 I-0.162
G01 Z-0.300 F30
G03 F360
X11.592Y24.130 I-0.162
G01 Z-0.450 F30
G03 F360
X11.592Y24.130 I-0.162
G01 Z-0.600 F30
G03 F360
X11.592Y24.130 I-0.162
G01 Z-0.750 F30
G03 F360
X11.592Y24.130 I-0.162
G01 Z-0.900 F30
G03 F360
X11.592Y24.130 I-0.162
G01 Z-1.050 F30
G03 F360
X11.592Y24.130 I-0.162
G01 Z-1.200 F30
G03 F360
X11.592Y24.130 I-0.162
G01 Z-1.350 F30
G03 F360
X11.592Y24.130 I-0.162
G01 Z-1.500 F30
G03 F360
X11.592Y24.130 I-0.162
G01 Z-1.600 F30
G03 F360
X11.592Y24.130 I-0.162
G00 Z1.000
G00 X5.572Y10.414
G01 Z-0.150 F30
G03 F360
X5.572Y10.414 I-0.746
G01 Z-0.300 F30
G03 F360
X5.572Y10.414 I-0.746
G01 Z-0.450 F30
G03 F360
X5.572Y10.414 I-0.746
G01 Z-0.600 F30
G03 F360
X5.572Y10.414 I-0.746
G01 Z-0.750 F30
G03 F360
X5.572Y10.414 I-0.746
G01 Z-0.900 F30
G03 F360
X5.572Y10.414 I-0.746
G01 Z-1.050 F30
G03 F360
X5.572Y10.414 I-0.746
G01 Z-1.200 F30
G03 F360
X5.572Y10.414 I-0.746
G01 Z-1.350 F30
G03 F360
X5.572Y10.414 I-0.746
G01 Z-1.500 F30
G03 F360
X5.572Y10.414 I-0.746
G01 Z-1.600 F30
G03 F360
X5.572Y10.414 I-0.746
G00 Z1.000
G00 X5.572Y7.366
G01 Z-0.150 F30
G03 F360
X5.572Y7.366 I-0.746
G01 Z-0.300 F30
G03 F360
X5.572Y7.366 I-0.746
G01 Z-0.450 F30
G03 F360
X5.572Y7.366 I-0.746
G01 Z-0.600 F30
G03 F360
X5.572Y7.366 I-0.746
G01 Z-0.750 F30
G03 F360
X5.572Y7.366 I-0.746
G01 Z-0.900 F30
G03 F360
X5.572Y7.366 I-0.746
G01 Z-1.050 F30
G03 F360
X5.572Y7.366 I-0.746
G01 Z-1.200 F30
G03 F360
X5.572Y7.366 I-0.746
G01 Z-1.350 F30
G03 F360
X5.572Y7.366 I-0.746
G01 Z-1.500 F30
G03 F360
X5.572Y7.366 I-0.746
G01 Z-1.600 F30
G03 F360
X5.572Y7.366 I-0.746
G00 Z1.000
G00 X26.400Y7.366
G01 Z-0.150 F30
G03 F360
X26.400Y7.366 I-0.746
G01 Z-0.300 F30
G03 F360
X26.400Y7.366 I-0.746
G01 Z-0.450 F30
G03 F360
X26.400Y7.366 I-0.746
G01 Z-0.600 F30
G03 F360
X26.400Y7.366 I-0.746
G01 Z-0.750 F30
G03 F360
X26.400Y7.366 I-0.746
G01 Z-0.900 F30
G03 F360
X26.400Y7.366 I-0.746
G01 Z-1.050 F30
G03 F360
X26.400Y7.366 I-0.746
G01 Z-1.200 F30
G03 F360
X26.400Y7.366 I-0.746
G01 Z-1.350 F30
G03 F360
X26.400Y7.366 I-0.746
G01 Z-1.500 F30
G03 F360
X26.400Y7.366 I-0.746
G01 Z-1.600 F30
G03 F360
X26.400Y7.366 I-0.746
G00 Z1.000
G00 X26.400Y10.414
G01 Z-0.150 F30
G03 F360
X26.400Y10.414 I-0.746
G01 Z-0.300 F30
G03 F360
X26.400Y10.414 I-0.746
G01 Z-0.450 F30
G03 F360
X26.400Y10.414 I-0.746
G01 Z-0.600 F30
G03 F360
X26.400Y10.414 I-0.746
G01 Z-0.750 F30
G03 F360
X26.400Y10.414 I-0.746
G01 Z-0.900 F30
G03 F360
X26.400Y10.414 I-0.746
G01 Z-1.050 F30
G03 F360
X26.400Y10.414 I-0.746
G01 Z-1.200 F30
G03 F360
X26.400Y10.414 I-0.746
G01 Z-1.350 F30
G03 F360
X26.400Y10.414 I-0.746
G01 Z-1.500 F30
G03 F360
X26.400Y10.414 I-0.746
G01 Z-1.600 F30
G03 F360
X26.400Y10.414 I-0.746
G00 Z1.000
M05
G04 P4000
G00 X0Y0
